N0 ;PYCAM-META-DATA: Filename: C:\Users\Project\Desktop\CNC_Calibration\ShapeOko_Calibration_Pattern_01b.svgN1 ;PYCAM-META-DATA: Timestamp: 2012-09-06 00:25:01.829000N2 ;PYCAM-META-DATA: Version: 0.5.1.1N3 ;Estimated machine time: 17 minutesN4 G40 (disable tool radius compensation)N5 G49 (disable tool length compensation)N6 G80 (cancel modal motion)N7 G54 (select coordinate system 1)N8 G90 (disable incremental moves)N9 G21 (metric)N10 G61 (exact path mode)
;N11 F500.00000N11 F2000.00000
N12 S1000.00000N13 ;PYCAM_TOOLPATH_SETTINGS: STARTN14 ;[Bounds]N15 ;maxz = 0.0N16 ;maxx = 194.472285N17 ;maxy = 207.607451N18 ;minx = -10.595135N19 ;miny = -9.329961N20 ;minz = 0.0N21 ;N22 ;[Tool]N23 ;torus_radius = 0.25N24 ;speed = 1000.0N25 ;shape = CylindricalCutterN26 ;tool_radius = 0.5N27 ;feedrate = 500.0N28 ;N29 ;[Process]N30 ;generator = EngraveCutterN31 ;pocketing_type = noneN32 ;engrave_offset = 0.0N33 ;milling_style = conventionalN34 ;path_direction = xN35 ;step_down = 1.0N36 ;postprocessor = SimpleCutterN37 ;overlap_percent = 0N38 ;material_allowance = 0.0N39 ;N40 ;PYCAM_TOOLPATH_SETTINGS: ENDN41 T4 M6N42 G0 Z2.0000N43 M3 (start spindle)N44 G04 P3 (wait for 3 seconds)N45  X50.8000 Y177.8000N46 G1 Z0.0000N47  Y101.6000N48 G0 Z2.0000N49  Y112.8890N50 G1 Z0.0000
N51  X76.2000
N52  X90.3111 Y127.0000
N53 G0 Z2.0000
N54  X73.3778
N55 G1 Z0.0000
N56  Y101.6000
N57 G0 Z2.0000
N58  X81.8444
N59 G1 Z0.0000
N60  X101.6000 Y121.3560
N61 G0 Z2.0000
N62  X53.6222 Y127.0000
N63 G1 Z0.0000
N64  Y101.6000
N65 G0 Z2.0000
N66  X50.8000 Y104.4220
N67 G1 Z0.0000
N68  X76.2000
N69  X98.7778 Y127.0000
N70 G0 Z2.0000
N71  X76.2000 Y135.4670
N72 G1 Z0.0000
N73  X84.6667 Y127.0000
N74 G0 Z2.0000
N75  X64.9111
N76 G1 Z0.0000
N77  Y101.6000
N78 G0 Z2.0000
N79  X50.8000 Y118.5330
N80 G1 Z0.0000
N81  X76.2000
N82  X84.6667 Y127.0000
N83 G0 Z2.0000
N84  X70.5556
N85 G1 Z0.0000
N86  Y101.6000
N87 G0 Z2.0000
N88  X79.0222
N89 G1 Z0.0000
N90  X101.6000 Y124.1780
N91 G0 Z2.0000
N92  X76.2000 Y115.7110
N93 G1 Z0.0000
N94  X50.8000
N95 G0 Z2.0000
N96  Y124.1780
N97 G1 Z0.0000
N98  X76.2000
N99  X79.0222 Y127.0000
N100 G0 Z2.0000
N101  X76.2000 Y132.6440
N102 G1 Z0.0000
N103  X95.9556 Y152.4000
N104 G0 Z2.0000
N105  X93.1333
N106 G1 Z0.0000
N107  X101.6000 Y143.9330
N108 G0 Z2.0000
N109  X76.2000 Y152.4000
N110 G1 Z0.0000
N111  X101.6000 Y127.0000
N112 G0 Z2.0000
N113  X112.8890 Y141.1110
N114 G1 Z0.0000
N115  X115.7110
N116 G0 Z2.0000
N117  X112.8890
N118 G1 Z0.0000
N119  Y138.2890
N120  X115.7110
N121  Y141.1110
N122 G0 Z2.0000
N123  X110.0670 Y143.9330
N124 G1 Z0.0000
N125  X118.5330
N126  Y135.4670
N127  X110.0670
N128  Y143.9330
N129 G0 Z2.0000
N130  X107.2440 Y146.7560
N131 G1 Z0.0000
N132  X121.3560
N133  Y132.6440
N134  X107.2440
N135  Y146.7560
N136 G0 Z2.0000
N137  X76.2000 Y177.8000
N138 G1 Z0.0000
N139  Y101.6000
N140  X101.6000 Y127.0000
N141 G0 Z2.0000
N142  X76.2000 Y143.9330
N143 G1 Z0.0000
N144  X84.6667 Y152.4000
N145 G0 Z2.0000
N146  X81.8444
N147 G1 Z0.0000
N148  X101.6000 Y132.6440
N149 G0 Z2.0000
N150  X76.2000 Y138.2890
N151 G1 Z0.0000
N152  X90.3111 Y152.4000
N153 G0 Z2.0000
N154  X87.4889
N155 G1 Z0.0000
N156  X101.6000 Y138.2890
N157 G0 Z2.0000
N158  X104.4220 Y149.5780
N159 G1 Z0.0000
N160  X124.1780
N161  Y129.8220
N162  X104.4220
N163  Y149.5780
N164 G0 Z2.0000
N165  X76.2000 Y146.7560
N166 G1 Z0.0000
N167  X95.9556 Y127.0000
N168 G0 Z2.0000
N169  X67.7333
N170 G1 Z0.0000
N171  Y101.6000
N172 G0 Z2.0000
N173  X66.7485 Y96.1857
N174 G1 Z0.0000
N175  X66.5892 Y97.0956
N176  Y97.8783
N177  X67.2551
N178  Y97.0956
N179  X67.0993 Y96.1857
N180  X66.7485
N181 G0 Z2.0000
N182  X65.6833
N183 G1 Z0.0000
N184  X65.5210 Y97.0956
N185  Y97.8783
N186  X66.1868
N187  Y97.0956
N188  X66.0407 Y96.1857
N189  X65.6833
N190 G0 Z2.0000
N191  X61.8021 Y94.3682
N192 G1 Z0.0000
N193  X62.3986 Y94.4515
N194  X62.4549 Y94.2235
N195  X62.5301 Y94.0314
N196  X62.6233 Y93.8740
N197  X62.7331 Y93.7503
N198  X62.8578 Y93.6556
N199  X62.9968 Y93.5886
N200  X63.1501 Y93.5489
N201  X63.3179 Y93.5357
N202  X63.5160 Y93.5517
N203  X63.6972 Y93.6051
N204  X63.8615 Y93.6950
N205  X64.0086 Y93.8200
N206  X64.1281 Y93.9699
N207  X64.2147 Y94.1376
N208  X64.2676 Y94.3228
N209  X64.2856 Y94.5246
N210  X64.2678 Y94.7158
N211  X64.2193 Y94.8899
N212  X64.1390 Y95.0464
N213  X64.0260 Y95.1854
N214  X63.8872 Y95.2979
N215  X63.7310 Y95.3793
N216  X63.5574 Y95.4289
N217  X63.3661 Y95.4457
N218  X63.1815 Y95.4286
N219  X62.9592 Y95.3810
N220  X63.0233 Y95.8944
N221  X63.0738 Y95.8882
N222  X63.1158 Y95.8879
N223  X63.2924 Y95.8994
N224  X63.4611 Y95.9358
N225  X63.6211 Y95.9968
N226  X63.7718 Y96.0819
N227  X63.8978 Y96.1914
N228  X63.9892 Y96.3279
N229  X64.0447 Y96.4910
N230  X64.0635 Y96.6800
N231  X64.0485 Y96.8325
N232  X64.0082 Y96.9719
N233  X63.9417 Y97.0981
N234  X63.8481 Y97.2101
N235  X63.7319 Y97.3011
N236  X63.6008 Y97.3669
N237  X63.4543 Y97.4069
N238  X63.2921 Y97.4204
N239  X63.1297 Y97.4060
N240  X62.9821 Y97.3664
N241  X62.8487 Y97.3011
N242  X62.7293 Y97.2089
N243  X62.6254 Y97.0892
N244  X62.5433 Y96.9438
N245  X62.4819 Y96.7724
N246  X62.4403 Y96.5743
N247  X61.8435 Y96.6714
N248  X61.9121 Y96.9474
N249  X62.0167 Y97.1919
N250  X62.1561 Y97.4040
N251  X62.3292 Y97.5828
N252  X62.5282 Y97.7236
N253  X62.7524 Y97.8247
N254  X63.0006 Y97.8857
N255  X63.2714 Y97.9061
N256  X63.4603 Y97.8944
N257  X63.6431 Y97.8633
N258  X63.8189 Y97.8118
N259  X63.9867 Y97.7390
N260  X64.1400 Y97.6467
N261  X64.2747 Y97.5404
N262  X64.3906 Y97.4196
N263  X64.4869 Y97.2831
N264  X64.5621 Y97.1350
N265  X64.6163 Y96.9842
N266  X64.6490 Y96.8293
N267  X64.6601 Y96.6699
N268  X64.6482 Y96.5179
N269  X64.6175 Y96.3743
N270  X64.5667 Y96.2381
N271  X64.4950 Y96.1083
N272  X64.4008 Y95.9879
N273  X64.2888 Y95.8810
N274  X64.1575 Y95.7871
N275  X64.0060 Y95.7061
N276  X64.2039 Y95.6439
N277  X64.3810 Y95.5562
N278  X64.5360 Y95.4425
N279  X64.6683 Y95.3026
N280  X64.7733 Y95.1396
N281  X64.8489 Y94.9578
N282  X64.8946 Y94.7569
N283  X64.9099 Y94.5368
N284  X64.8800 Y94.2375
N285  X64.7951 Y93.9621
N286  X64.6543 Y93.7104
N287  X64.4565 Y93.4824
N288  X64.2147 Y93.2929
N289  X63.9432 Y93.1579
N290  X63.6418 Y93.0769
N291  X63.3106 Y93.0500
N292  X63.0101 Y93.0729
N293  X62.7376 Y93.1418
N294  X62.4922 Y93.2564
N295  X62.2729 Y93.4169
N296  X62.0869 Y93.6133
N297  X61.9472 Y93.8376
N298  X61.8526 Y94.0894
N299  X61.8021 Y94.3682
N300 G0 Z2.0000
N301  X14.5197 Y98.3258
N302 G1 Z0.0000
N303  X14.2485 Y99.8668
N304  Y101.1930
N305  X15.3843
N306  Y99.8668
N307  X15.1185 Y98.3258
N308  X14.5197
N309 G0 Z2.0000
N310  X12.7138
N311 G1 Z0.0000
N312  X12.4366 Y99.8668
N313  Y101.1930
N314  X13.5725
N315  Y99.8668
N316  X13.3231 Y98.3258
N317  X12.7138
N318 G0 Z2.0000
N319  X11.2425 Y99.2182
N320 G1 Z0.0000
N321  X10.2150 Y99.1371
N322  X10.1443 Y99.4083
N323  X10.0604 Y99.6401
N324  X9.9633 Y99.8324
N325  X9.8528 Y99.9844
N326  X9.6471 Y100.1690
N327  X9.4188 Y100.3020
N328  X9.1679 Y100.3820
N329  X8.8944 Y100.4080
N330  X8.6715 Y100.3900
N331  X8.4609 Y100.3410
N332  X8.2626 Y100.2590
N333  X8.0767 Y100.1440
N334  X7.8678 Y99.9519
N335  X7.6816 Y99.7224
N336  X7.5177 Y99.4542
N337  X7.3762 Y99.1464
N338  X7.2600 Y98.7821
N339  X7.1767 Y98.3507
N340  X7.1252 Y97.8510
N341  X7.1047 Y97.2815
N342  X7.2902 Y97.5347
N343  X7.4957 Y97.7542
N344  X7.7210 Y97.9393
N345  X7.9658 Y98.0890
N346  X8.2232 Y98.2029
N347  X8.4870 Y98.2854
N348  X8.7569 Y98.3358
N349  X9.0329 Y98.3528
N350  X9.2707 Y98.3404
N351  X9.5002 Y98.3058
N352  X9.7211 Y98.2489
N353  X9.9334 Y98.1696
N354  X10.1368 Y98.0678
N355  X10.3313 Y97.9433
N356  X10.5166 Y97.7960
N357  X10.6926 Y97.6257
N358  X10.8525 Y97.4368
N359  X10.9914 Y97.2349
N360  X11.1091 Y97.0199
N361  X11.2056 Y96.7918
N362  X11.2808 Y96.5506
N363  X11.3346 Y96.2960
N364  X11.3669 Y96.0281
N365  X11.3777 Y95.7468
N366  X11.3557 Y95.3746
N367  X11.2949 Y95.0161
N368  X11.1939 Y94.6711
N369  X11.0520 Y94.3394
N370  X10.8732 Y94.0318
N371  X10.6647 Y93.7640
N372  X10.4260 Y93.5350
N373  X10.1568 Y93.3436
N374  X9.8607 Y93.1922
N375  X9.5474 Y93.0843
N376  X9.2156 Y93.0197
N377  X8.8643 Y92.9982
N378  X8.5622 Y93.0121
N379  X8.2750 Y93.0544
N380  X8.0024 Y93.1254
N381  X7.7444 Y93.2250
N382  X7.5007 Y93.3529
N383  X7.2713 Y93.5092
N384  X7.0560 Y93.6939
N385  X6.8547 Y93.9071
N386  X6.6723 Y94.1518
N387  X6.5142 Y94.4338
N388  X6.3806 Y94.7531
N389  X6.2713 Y95.1093
N390  X6.1863 Y95.5026
N391  X6.1257 Y95.9328
N392  X6.0892 Y96.3996
N393  X6.0771 Y96.9031
N394  X6.0903 Y97.4661
N395  X6.1306 Y97.9896
N396  X6.1978 Y98.4735
N397  X6.2920 Y98.9178
N398  X6.4131 Y99.3222
N399  X6.5611 Y99.6871
N400  X6.7361 Y100.0120
N401  X6.9378 Y100.2970
N402  X7.1336 Y100.5120
N403  X7.3458 Y100.6990
N404  X7.5743 Y100.8580
N405  X7.8191 Y100.9880
N406  X8.0803 Y101.0890
N407  X8.3577 Y101.1610
N408  X8.6515 Y101.2050
N409  X8.9615 Y101.2190
N410  X9.1922 Y101.2110
N411  X9.4128 Y101.1860
N412  X9.6232 Y101.1440
N413  X9.8231 Y101.0860
N414  X10.0125 Y101.0120
N415  X10.1912 Y100.9200
N416  X10.3592 Y100.8120
N417  X10.5162 Y100.6880
N418  X10.6590 Y100.5470
N419  X10.7873 Y100.3950
N420  X10.9007 Y100.2300
N421  X10.9993 Y100.0530
N422  X11.0830 Y99.8633
N423  X11.1514 Y99.6611
N424  X11.2046 Y99.4461
N425  X11.2425 Y99.2182
N426 G0 Z2.0000
N427  X25.4000 Y152.4000
N428 G1 Z0.0000
N429  X101.6000
N430  X76.2000 Y127.0000
N431 G0 Z2.0000
N432  X62.0889
N433 G1 Z0.0000
N434  Y101.6000
N435 G0 Z2.0000
N436  X50.8000 Y121.3560
N437 G1 Z0.0000
N438  X76.2000
N439  X81.8444 Y127.0000
N440  X101.6000 Y146.7560
N441 G0 Z2.0000
N442  Y152.4000
N443 G1 Z0.0000
N444  X177.8000
N445 G0 Z2.0000
N446  X101.6000 Y177.8000
N447 G1 Z0.0000
N448  Y101.6000
N449  X25.4000
N450 G0 Z2.0000
N451  X50.8000 Y110.0670
N452 G1 Z0.0000
N453  X76.2000
N454  X93.1333 Y127.0000
N455  X101.6000 Y135.4670
N456 G0 Z2.0000
N457  X76.2000 Y141.1110
N458 G1 Z0.0000
N459  X90.3111 Y127.0000
N460 G0 Z2.0000
N461  X56.4444
N462 G1 Z0.0000
N463  Y101.6000
N464 G0 Z2.0000
N465  X50.8000 Y107.2440
N466 G1 Z0.0000
N467  X76.2000
N468  X95.9556 Y127.0000
N469 G0 Z2.0000
N470  X76.2000 Y115.7110
N471 G1 Z0.0000
N472  X101.6000 Y141.1110
N473 G0 Z2.0000
N474  X46.8035 Y179.5070
N475 G1 Z0.0000
N476  Y187.5930
N477  X47.7229
N478  Y186.8280
N479  X47.8860 Y187.0380
N480  X48.0608 Y187.2210
N481  X48.2468 Y187.3760
N482  X48.4428 Y187.5030
N483  X48.6528 Y187.6010
N484  X48.8854 Y187.6710
N485  X49.1399 Y187.7140
N486  X49.4153 Y187.7280
N487  X49.7765 Y187.7030
N488  X50.1174 Y187.6310
N489  X50.4367 Y187.5110
N490  X50.7339 Y187.3430
N491  X51.0010 Y187.1290
N492  X51.2343 Y186.8760
N493  X51.4331 Y186.5860
N494  X51.5965 Y186.2560
N495  X51.7225 Y185.8940
N496  X51.8138 Y185.5180
N497  X51.8690 Y185.1260
N498  X51.8876 Y184.7150
N499  X51.8663 Y184.2780
N500  X51.8061 Y183.8620
N501  X51.7061 Y183.4690
N502  X51.5657 Y183.1000
N503  X51.3856 Y182.7610
N504  X51.1700 Y182.4650
N505  X50.9185 Y182.2110
N506  X50.6301 Y181.9990
N507  X50.3192 Y181.8290
N508  X50.0006 Y181.7100
N509  X49.6742 Y181.6390
N510  X49.3397 Y181.6150
N511  X49.0981 Y181.6280
N512  X48.8696 Y181.6680
N513  X48.6539 Y181.7330
N514  X48.4508 Y181.8240
N515  X48.2624 Y181.9350
N516  X48.0919 Y182.0600
N517  X47.9393 Y182.1990
N518  X47.8042 Y182.3500
N519  Y179.5070
N520  X46.8035
N521 G0 Z2.0000
N522  X44.3542 Y182.4820
N523 G1 Z0.0000
N524  X44.0883 Y182.2600
N525  X43.8251 Y182.0750
N526  X43.5647 Y181.9260
N527  X43.3067 Y181.8110
N528  X43.0439 Y181.7250
N529  X42.7733 Y181.6640
N530  X42.4939 Y181.6280
N531  X42.2049 Y181.6150
N532  X41.9685 Y181.6240
N533  X41.7464 Y181.6440
N534  X41.5386 Y181.6820
N535  X41.3450 Y181.7330
N536  X41.1654 Y181.7990
N537  X41.0000 Y181.8810
N538  X40.8486 Y181.9760
N539  X40.7111 Y182.0860
N540  X40.4812 Y182.3370
N541  X40.3183 Y182.6220
N542  X40.2212 Y182.9390
N543  X40.1893 Y183.2890
N544  X40.2011 Y183.4970
N545  X40.2381 Y183.6970
N546  X40.2999 Y183.8900
N547  X40.3863 Y184.0720
N548  X40.4918 Y184.2400
N549  X40.6133 Y184.3920
N550  X40.7506 Y184.5250
N551  X40.9031 Y184.6420
N552  X41.2415 Y184.8310
N553  X41.6226 Y184.9670
N554  X41.7876 Y185.0040
N555  X41.9911 Y185.0420
N556  X42.2325 Y185.0790
N557  X42.5113 Y185.1150
N558  X43.0761 Y185.1900
N559  X43.5619 Y185.2710
N560  X43.9682 Y185.3600
N561  X44.2944 Y185.4560
N562  X44.2972 Y185.6220
N563  X44.2999 Y185.7170
N564  X44.2819 Y185.9990
N565  X44.2292 Y186.2360
N566  X44.1414 Y186.4310
N567  X44.0182 Y186.5780
N568  X43.8022 Y186.7250
N569  X43.5419 Y186.8310
N570  X43.2363 Y186.8940
N571  X42.8839 Y186.9170
N572  X42.5553 Y186.9000
N573  X42.2732 Y186.8540
N574  X42.0372 Y186.7780
N575  X41.8472 Y186.6720
N576  X41.6897 Y186.5260
N577  X41.5553 Y186.3330
N578  X41.4429 Y186.0940
N579  X41.3522 Y185.8080
N580  X40.3515 Y185.9430
N581  X40.4268 Y186.2350
N582  X40.5256 Y186.4990
N583  X40.6464 Y186.7350
N584  X40.7885 Y186.9390
N585  X40.9568 Y187.1170
N586  X41.1597 Y187.2740
N587  X41.3968 Y187.4100
N588  X41.6678 Y187.5240
N589  X41.9656 Y187.6110
N590  X42.2875 Y187.6750
N591  X42.6328 Y187.7150
N592  X43.0007 Y187.7280
N593  X43.3579 Y187.7170
N594  X43.6811 Y187.6830
N595  X43.9697 Y187.6290
N596  X44.2229 Y187.5530
N597  X44.4411 Y187.4580
N598  X44.6296 Y187.3540
N599  X44.7875 Y187.2400
N600  X44.9140 Y187.1140
N601  X45.0157 Y186.9720
N602  X45.1014 Y186.8140
N603  X45.1710 Y186.6390
N604  X45.2238 Y186.4460
N605  X45.2442 Y186.2920
N606  X45.2600 Y186.0900
N607  X45.2701 Y185.8370
N608  X45.2736 Y185.5320
N609  Y184.2100
N610  X45.2742 Y183.8780
N611  X45.2768 Y183.5790
N612  X45.2815 Y183.3130
N613  X45.2882 Y183.0780
N614  X45.2967 Y182.8750
N615  X45.3071 Y182.7040
N616  X45.3194 Y182.5640
N617  X45.3336 Y182.4570
N618  X45.4219 Y182.0940
N619  X45.5710 Y181.7510
N620  X44.5435
N621  X44.4750 Y181.9140
N622  X44.4213 Y182.0900
N623  X44.3812 Y182.2790
N624  X44.3542 Y182.4820
N625 G0 Z2.0000
N626  X57.1269 Y183.6440
N627 G1 Z0.0000
N628  X58.1335 Y183.5080
N629  X57.9847 Y183.0830
N630  X57.7846 Y182.7100
N631  X57.5325 Y182.3860
N632  X57.2283 Y182.1120
N633  X56.8747 Y181.8960
N634  X56.4756 Y181.7400
N635  X56.0308 Y181.6470
N636  X55.5401 Y181.6150
N637  X55.2243 Y181.6280
N638  X54.9256 Y181.6650
N639  X54.6439 Y181.7260
N640  X54.3792 Y181.8130
N641  X54.1314 Y181.9240
N642  X53.9004 Y182.0600
N643  X53.6860 Y182.2210
N644  X53.4883 Y182.4060
N645  X53.3094 Y182.6140
N646  X53.1550 Y182.8400
N647  X53.0246 Y183.0870
N648  X52.9182 Y183.3560
N649  X52.8358 Y183.6420
N650  X52.7771 Y183.9490
N651  X52.7419 Y184.2760
N652  X52.7303 Y184.6220
N653  X52.7418 Y184.9810
N654  X52.7776 Y185.3180
N655  X52.8375 Y185.6350
N656  X52.9214 Y185.9320
N657  X53.0293 Y186.2080
N658  X53.1611 Y186.4640
N659  X53.3168 Y186.6990
N660  X53.4965 Y186.9130
N661  X53.6946 Y187.1030
N662  X53.9072 Y187.2680
N663  X54.1343 Y187.4080
N664  X54.3757 Y187.5240
N665  X54.6314 Y187.6120
N666  X54.9015 Y187.6760
N667  X55.1857 Y187.7150
N668  X55.4839 Y187.7280
N669  X55.7721 Y187.7150
N670  X56.0472 Y187.6780
N671  X56.3090 Y187.6150
N672  X56.5575 Y187.5280
N673  X56.7926 Y187.4170
N674  X57.0142 Y187.2790
N675  X57.2222 Y187.1180
N676  X57.4164 Y186.9320
N677  X57.5912 Y186.7220
N678  X57.7431 Y186.4930
N679  X57.8718 Y186.2430
N680  X57.9775 Y185.9740
N681  X58.0597 Y185.6830
N682  X58.1187 Y185.3740
N683  X58.1542 Y185.0430
N684  X58.1660 Y184.6920
N685  X58.1635 Y184.5810
N686  X58.1606 Y184.4280
N687  X53.7578
N688  X53.7785 Y184.1920
N689  X53.8131 Y183.9710
N690  X53.8617 Y183.7630
N691  X53.9242 Y183.5710
N692  X54.0006 Y183.3930
N693  X54.0908 Y183.2280
N694  X54.1949 Y183.0790
N695  X54.3128 Y182.9430
N696  X54.5771 Y182.7150
N697  X54.8729 Y182.5540
N698  X55.1996 Y182.4580
N699  X55.5571 Y182.4280
N700  X55.8229 Y182.4440
N701  X56.0703 Y182.4990
N702  X56.2979 Y182.5900
N703  X56.5047 Y182.7180
N704  X56.6907 Y182.8830
N705  X56.8564 Y183.0930
N706  X57.0018 Y183.3470
N707  X57.1269 Y183.6440
N708 G0 Z2.0000
N709  X59.1550 Y185.6740
N710 G1 Z0.0000
N711  X59.1719 Y186.1610
N712  X59.2224 Y186.6210
N713  X59.3065 Y187.0530
N714  X59.4244 Y187.4600
N715  X59.5758 Y187.8370
N716  X59.7611 Y188.1900
N717  X59.9800 Y188.5140
N718  X60.2325 Y188.8110
N719  X60.5110 Y189.0760
N720  X60.8093 Y189.3070
N721  X61.1275 Y189.5010
N722  X61.4657 Y189.6610
N723  X61.8235 Y189.7860
N724  X62.2008 Y189.8750
N725  X62.5978 Y189.9280
N726  X63.0142 Y189.9460
N727  X63.5568 Y189.9130
N728  X64.0738 Y189.8130
N729  X64.5640 Y189.6460
N730  X65.0264 Y189.4130
N731  X65.4462 Y189.1190
N732  X65.8146 Y188.7740
N733  X66.1303 Y188.3780
N734  X66.3925 Y187.9280
N735  X66.5979 Y187.4330
N736  X66.7449 Y186.9100
N737  X66.8331 Y186.3540
N738  X66.8625 Y185.7670
N739  X66.8297 Y185.1710
N740  X66.7372 Y184.6070
N741  X66.5836 Y184.0750
N742  X66.3678 Y183.5760
N743  X66.2371 Y183.3420
N744  X66.0939 Y183.1220
N745  X65.9381 Y182.9170
N746  X65.7693 Y182.7260
N747  X65.5878 Y182.5510
N748  X65.3933 Y182.3900
N749  X65.1860 Y182.2440
N750  X64.9658 Y182.1120
N751  X64.5026 Y181.8960
N752  X64.0225 Y181.7400
N753  X63.5246 Y181.6470
N754  X63.0087 Y181.6150
N755  X62.4539 Y181.6500
N756  X61.9304 Y181.7530
N757  X61.4375 Y181.9250
N758  X60.9747 Y182.1650
N759  X60.5538 Y182.4620
N760  X60.1872 Y182.8130
N761  X59.8749 Y183.2140
N762  X59.6168 Y183.6640
N763  X59.4143 Y184.1440
N764  X59.2701 Y184.6400
N765  X59.1838 Y185.1500
N766  X59.1550 Y185.6740
N767 G0 Z2.0000
N768  X68.1579 Y181.7510
N769 G1 Z0.0000
N770  Y189.8100
N771  X69.1585
N772  Y185.2490
N773  X71.4862 Y187.5930
N774  X72.7656
N775  X70.5381 Y185.4220
N776  X72.9819 Y181.7510
N777  X71.7850
N778  X69.8514 Y184.7540
N779  X69.1585 Y184.0780
N780  Y181.7510
N781  X68.1579
N782 G0 Z2.0000
N783  X73.4338 Y184.6720
N784 G1 Z0.0000
N785  X73.4474 Y185.0640
N786  X73.4890 Y185.4310
N787  X73.5586 Y185.7710
N788  X73.6563 Y186.0850
N789  X73.7817 Y186.3720
N790  X73.9350 Y186.6350
N791  X74.1163 Y186.8690
N792  X74.3253 Y187.0780
N793  X74.5158 Y187.2290
N794  X74.7171 Y187.3610
N795  X74.9286 Y187.4740
N796  X75.1506 Y187.5640
N797  X75.3828 Y187.6360
N798  X75.6253 Y187.6880
N799  X75.8779 Y187.7180
N800  X76.1407 Y187.7280
N801  X76.4312 Y187.7150
N802  X76.7085 Y187.6780
N803  X76.9721 Y187.6170
N804  X77.2222 Y187.5290
N805  X77.4587 Y187.4180
N806  X77.6818 Y187.2830
N807  X77.8911 Y187.1220
N808  X78.0868 Y186.9380
N809  X78.2635 Y186.7310
N810  X78.4168 Y186.5040
N811  X78.5467 Y186.2600
N812  X78.6531 Y185.9960
N813  X78.7358 Y185.7140
N814  X78.7950 Y185.4130
N815  X78.8306 Y185.0930
N816  X78.8425 Y184.7540
N817  X78.8201 Y184.2190
N818  X78.7576 Y183.7460
N819  X78.6540 Y183.3320
N820  X78.5082 Y182.9790
N821  X78.3208 Y182.6720
N822  X78.0968 Y182.4030
N823  X77.8353 Y182.1710
N824  X77.5354 Y181.9740
N825  X77.2075 Y181.8170
N826  X76.8664 Y181.7060
N827  X76.5110 Y181.6390
N828  X76.1407 Y181.6150
N829  X75.8447 Y181.6280
N830  X75.5635 Y181.6650
N831  X75.2967 Y181.7260
N832  X75.0446 Y181.8130
N833  X74.8069 Y181.9240
N834  X74.5839 Y182.0580
N835  X74.3753 Y182.2180
N836  X74.1812 Y182.4030
N837  X74.0060 Y182.6100
N838  X73.8540 Y182.8390
N839  X73.7256 Y183.0890
N840  X73.6206 Y183.3620
N841  X73.5388 Y183.6570
N842  X73.4804 Y183.9740
N843  X73.4454 Y184.3130
N844  X73.4338 Y184.6720
N845 G0 Z2.0000
N846  X89.0414 Y184.5810
N847 G1 Z0.0000
N848  X90.1504 Y184.3110
N849  X90.0583 Y183.9920
N850  X89.9496 Y183.6930
N851  X89.8242 Y183.4130
N852  X89.6818 Y183.1530
N853  X89.5229 Y182.9110
N854  X89.3472 Y182.6900
N855  X89.1549 Y182.4890
N856  X88.9457 Y182.3060
N857  X88.7218 Y182.1430
N858  X88.4861 Y182.0030
N859  X88.2383 Y181.8830
N860  X87.9786 Y181.7860
N861  X87.7068 Y181.7110
N862  X87.4229 Y181.6580
N863  X87.1269 Y181.6260
N864  X86.8188 Y181.6150
N865  X86.5010 Y181.6240
N866  X86.1986 Y181.6490
N867  X85.9114 Y181.6900
N868  X85.6394 Y181.7490
N869  X85.3826 Y181.8220
N870  X85.1410 Y181.9140
N871  X84.9146 Y182.0220
N872  X84.7033 Y182.1460
N873  X84.5046 Y182.2860
N874  X84.3186 Y182.4400
N875  X84.1453 Y182.6100
N876  X83.9844 Y182.7940
N877  X83.8358 Y182.9940
N878  X83.6996 Y183.2080
N879  X83.5754 Y183.4380
N880  X83.4631 Y183.6820
N881  X83.2760 Y184.1930
N882  X83.1432 Y184.7240
N883  X83.0640 Y185.2740
N884  X83.0378 Y185.8420
N885  X83.0660 Y186.4490
N886  X83.1563 Y187.0180
N887  X83.3074 Y187.5470
N888  X83.5181 Y188.0360
N889  X83.7826 Y188.4750
N890  X84.0990 Y188.8600
N891  X84.4667 Y189.1880
N892  X84.8850 Y189.4600
N893  X85.3378 Y189.6690
N894  X85.8147 Y189.8220
N895  X86.3147 Y189.9140
N896  X86.8365 Y189.9460
N897  X87.1319 Y189.9360
N898  X87.4156 Y189.9070
N899  X87.6875 Y189.8580
N900  X87.9475 Y189.7920
N901  X88.1957 Y189.7040
N902  X88.4318 Y189.5990
N903  X88.6558 Y189.4740
N904  X88.8678 Y189.3290
N905  X89.0650 Y189.1670
N906  X89.2471 Y188.9890
N907  X89.4139 Y188.7940
N908  X89.5653 Y188.5860
N909  X89.7013 Y188.3620
N910  X89.8217 Y188.1220
N911  X89.9262 Y187.8670
N912  X90.0151 Y187.5940
N913  X88.9606 Y187.3490
N914  X88.8046 Y187.7570
N915  X88.6179 Y188.1070
N916  X88.4000 Y188.3960
N917  X88.1506 Y188.6260
N918  X87.8682 Y188.7990
N919  X87.5515 Y188.9250
N920  X87.2008 Y189.0000
N921  X86.8160 Y189.0260
N922  X86.3710 Y188.9970
N923  X85.9658 Y188.9140
N924  X85.5994 Y188.7750
N925  X85.2706 Y188.5820
N926  X84.9819 Y188.3390
N927  X84.7408 Y188.0600
N928  X84.5465 Y187.7440
N929  X84.3981 Y187.3890
N930  X84.2862 Y187.0110
N931  X84.2079 Y186.6280
N932  X84.1617 Y186.2400
N933  X84.1465 Y185.8470
N934  X84.1635 Y185.3490
N935  X84.2192 Y184.8850
N936  X84.3124 Y184.4540
N937  X84.4422 Y184.0570
N938  X84.6106 Y183.6960
N939  X84.8201 Y183.3860
N940  X85.0706 Y183.1260
N941  X85.3622 Y182.9140
N942  X85.6801 Y182.7470
N943  X86.0117 Y182.6290
N944  X86.3561 Y182.5580
N945  X86.7136 Y182.5350
N946  X87.1378 Y182.5670
N947  X87.5293 Y182.6640
N948  X87.8872 Y182.8250
N949  X88.2111 Y183.0500
N950  X88.3578 Y183.1860
N951  X88.4922 Y183.3390
N952  X88.6146 Y183.5060
N953  X88.7247 Y183.6900
N954  X88.8225 Y183.8890
N955  X88.9079 Y184.1040
N956  X88.9810 Y184.3350
N957  X89.0414 Y184.5810
N958 G0 Z2.0000
N959  X95.2042 Y182.4820
N960 G1 Z0.0000
N961  X94.9382 Y182.2600
N962  X94.6751 Y182.0750
N963  X94.4146 Y181.9260
N964  X94.1565 Y181.8110
N965  X93.8939 Y181.7250
N966  X93.6232 Y181.6640
N967  X93.3438 Y181.6280
N968  X93.0549 Y181.6150
N969  X92.8185 Y181.6240
N970  X92.5964 Y181.6440
N971  X92.3885 Y181.6820
N972  X92.1949 Y181.7330
N973  X92.0154 Y181.7990
N974  X91.8500 Y181.8810
N975  X91.6985 Y181.9760
N976  X91.5611 Y182.0860
N977  X91.3313 Y182.3370
N978  X91.1683 Y182.6220
N979  X91.0712 Y182.9390
N980  X91.0392 Y183.2890
N981  X91.0511 Y183.4970
N982  X91.0881 Y183.6970
N983  X91.1499 Y183.8900
N984  X91.2362 Y184.0720
N985  X91.3417 Y184.2400
N986  X91.4633 Y184.3920
N987  X91.6006 Y184.5250
N988  X91.7529 Y184.6420
N989  X92.0915 Y184.8310
N990  X92.4725 Y184.9670
N991  X92.6375 Y185.0040
N992  X92.8410 Y185.0420
N993  X93.0824 Y185.0790
N994  X93.3612 Y185.1150
N995  X93.9261 Y185.1900
N996  X94.4119 Y185.2710
N997  X94.8182 Y185.3600
N998  X95.1444 Y185.4560
N999  X95.1471 Y185.6220
N1000  X95.1499 Y185.7170
N1001  X95.1319 Y185.9990
N1002  X95.0792 Y186.2360
N1003  X94.9913 Y186.4310
N1004  X94.8682 Y186.5780
N1005  X94.6522 Y186.7250
N1006  X94.3919 Y186.8310
N1007  X94.0861 Y186.8940
N1008  X93.7339 Y186.9170
N1009  X93.4053 Y186.9000
N1010  X93.1231 Y186.8540
N1011  X92.8871 Y186.7780
N1012  X92.6972 Y186.6720
N1013  X92.5396 Y186.5260
N1014  X92.4051 Y186.3330
N1015  X92.2929 Y186.0940
N1016  X92.2021 Y185.8080
N1017  X91.2015 Y185.9430
N1018  X91.2768 Y186.2350
N1019  X91.3754 Y186.4990
N1020  X91.4963 Y186.7350
N1021  X91.6383 Y186.9390
N1022  X91.8067 Y187.1170
N1023  X92.0097 Y187.2740
N1024  X92.2468 Y187.4100
N1025  X92.5176 Y187.5240
N1026  X92.8154 Y187.6110
N1027  X93.1374 Y187.6750
N1028  X93.4826 Y187.7150
N1029  X93.8506 Y187.7280
N1030  X94.2078 Y187.7170
N1031  X94.5311 Y187.6830
N1032  X94.8197 Y187.6290
N1033  X95.0728 Y187.5530
N1034  X95.2910 Y187.4580
N1035  X95.4794 Y187.3540
N1036  X95.6374 Y187.2400
N1037  X95.7640 Y187.1140
N1038  X95.8656 Y186.9720
N1039  X95.9514 Y186.8140
N1040  X96.0208 Y186.6390
N1041  X96.0736 Y186.4460
N1042  X96.0942 Y186.2920
N1043  X96.1099 Y186.0900
N1044  X96.1200 Y185.8370
N1045  X96.1236 Y185.5320
N1046  Y184.2100
N1047  X96.1242 Y183.8780
N1048  X96.1267 Y183.5790
N1049  X96.1314 Y183.3130
N1050  X96.1381 Y183.0780
N1051  X96.1465 Y182.8750
N1052  X96.1571 Y182.7040
N1053  X96.1694 Y182.5640
N1054  X96.1835 Y182.4570
N1055  X96.2718 Y182.0940
N1056  X96.4208 Y181.7510
N1057  X95.3933
N1058  X95.3250 Y181.9140
N1059  X95.2712 Y182.0900
N1060  X95.2312 Y182.2790
N1061  X95.2042 Y182.4820
N1062 G0 Z2.0000
N1063  X97.6421 Y181.7510
N1064 G1 Z0.0000
N1065  Y189.8100
N1066  X98.6428
N1067  Y181.7510
N1068  X97.6421
N1069 G0 Z2.0000
N1070  X100.2150
N1071 G1 Z0.0000
N1072  Y187.5930
N1073  X101.2160
N1074  Y181.7510
N1075  X100.2150
N1076 G0 Z2.0000
N1077  Y188.6750
N1078 G1 Z0.0000
N1079  Y189.8100
N1080  X101.2160
N1081  Y188.6750
N1082  X100.2150
N1083 G0 Z2.0000
N1084  X103.5890 Y181.7510
N1085 G1 Z0.0000
N1086  X102.6690
N1087  Y189.8100
N1088  X103.6700
N1089  Y186.9440
N1090  X103.8320 Y187.1260
N1091  X104.0050 Y187.2850
N1092  X104.1890 Y187.4190
N1093  X104.3840 Y187.5310
N1094  X104.5900 Y187.6170
N1095  X104.8070 Y187.6780
N1096  X105.0350 Y187.7150
N1097  X105.2740 Y187.7280
N1098  X105.5400 Y187.7140
N1099  X105.7990 Y187.6740
N1100  X106.0510 Y187.6060
N1101  X106.2960 Y187.5100
N1102  X106.5250 Y187.3890
N1103  X106.7340 Y187.2470
N1104  X106.9230 Y187.0850
N1105  X107.0900 Y186.8990
N1106  X107.2350 Y186.6900
N1107  X107.3660 Y186.4640
N1108  X107.4800 Y186.2170
N1109  X107.5770 Y185.9490
N1110  X107.6530 Y185.6650
N1111  X107.7080 Y185.3740
N1112  X107.7420 Y185.0710
N1113  X107.7540 Y184.7600
N1114  X107.7410 Y184.3940
N1115  X107.7060 Y184.0500
N1116  X107.6470 Y183.7280
N1117  X107.5660 Y183.4260
N1118  X107.4620 Y183.1470
N1119  X107.3340 Y182.8890
N1120  X107.1830 Y182.6510
N1121  X107.0080 Y182.4360
N1122  X106.8160 Y182.2430
N1123  X106.6150 Y182.0760
N1124  X106.4050 Y181.9360
N1125  X106.1860 Y181.8210
N1126  X105.9580 Y181.7310
N1127  X105.7210 Y181.6670
N1128  X105.4740 Y181.6290
N1129  X105.2180 Y181.6150
N1130  X104.9660 Y181.6290
N1131  X104.7270 Y181.6690
N1132  X104.5020 Y181.7360
N1133  X104.2920 Y181.8310
N1134  X104.0950 Y181.9510
N1135  X103.9120 Y182.1000
N1136  X103.7440 Y182.2750
N1137  X103.5890 Y182.4760
N1138  Y181.7510
N1139 G0 Z2.0000
N1140  X108.9590
N1141 G1 Z0.0000
N1142  Y187.5930
N1143  X109.8240
N1144  Y186.7060
N1145  X109.9910 Y186.9900
N1146  X110.1530 Y187.2220
N1147  X110.3090 Y187.4030
N1148  X110.4590 Y187.5290
N1149  X110.6070 Y187.6170
N1150  X110.7630 Y187.6780
N1151  X110.9270 Y187.7150
N1152  X111.0980 Y187.7280
N1153  X111.3500 Y187.7070
N1154  X111.6050 Y187.6470
N1155  X111.8630 Y187.5460
N1156  X112.1230 Y187.4060
N1157  X111.7760 Y186.4970
N1158  X111.5960 Y186.5850
N1159  X111.4180 Y186.6490
N1160  X111.2400 Y186.6880
N1161  X111.0620 Y186.7000
N1162  X110.9040 Y186.6880
N1163  X110.7570 Y186.6510
N1164  X110.6190 Y186.5900
N1165  X110.4880 Y186.5040
N1166  X110.3690 Y186.3970
N1167  X110.2690 Y186.2710
N1168  X110.1880 Y186.1260
N1169  X110.1240 Y185.9620
N1170  X110.0510 Y185.6930
N1171  X110.0000 Y185.4100
N1172  X109.9700 Y185.1150
N1173  X109.9600 Y184.8080
N1174  Y181.7510
N1175  X108.9590
N1176 G0 Z2.0000
N1177  X116.5700 Y182.4820
N1178 G1 Z0.0000
N1179  X116.3040 Y182.2600
N1180  X116.0410 Y182.0750
N1181  X115.7800 Y181.9260
N1182  X115.5220 Y181.8110
N1183  X115.2600 Y181.7250
N1184  X114.9890 Y181.6640
N1185  X114.7100 Y181.6280
N1186  X114.4210 Y181.6150
N1187  X114.1840 Y181.6240
N1188  X113.9620 Y181.6440
N1189  X113.7540 Y181.6820
N1190  X113.5610 Y181.7330
N1191  X113.3810 Y181.7990
N1192  X113.2160 Y181.8810
N1193  X113.0640 Y181.9760
N1194  X112.9270 Y182.0860
N1195  X112.6970 Y182.3370
N1196  X112.5340 Y182.6220
N1197  X112.4370 Y182.9390
N1198  X112.4050 Y183.2890
N1199  X112.4170 Y183.4970
N1200  X112.4540 Y183.6970
N1201  X112.5160 Y183.8900
N1202  X112.6020 Y184.0720
N1203  X112.7070 Y184.2400
N1204  X112.8290 Y184.3920
N1205  X112.9660 Y184.5250
N1206  X113.1190 Y184.6420
N1207  X113.4570 Y184.8310
N1208  X113.8380 Y184.9670
N1209  X114.0030 Y185.0040
N1210  X114.2070 Y185.0420
N1211  X114.4480 Y185.0790
N1212  X114.7270 Y185.1150
N1213  X115.2920 Y185.1900
N1214  X115.7780 Y185.2710
N1215  X116.1840 Y185.3600
N1216  X116.5100 Y185.4560
N1217  X116.5130 Y185.6220
N1218  X116.5160 Y185.7170
N1219  X116.4980 Y185.9990
N1220  X116.4450 Y186.2360
N1221  X116.3570 Y186.4310
N1222  X116.2340 Y186.5780
N1223  X116.0180 Y186.7250
N1224  X115.7580 Y186.8310
N1225  X115.4520 Y186.8940
N1226  X115.1000 Y186.9170
N1227  X114.7710 Y186.9000
N1228  X114.4890 Y186.8540
N1229  X114.2530 Y186.7780
N1230  X114.0630 Y186.6720
N1231  X113.9050 Y186.5260
N1232  X113.7710 Y186.3330
N1233  X113.6590 Y186.0940
N1234  X113.5680 Y185.8080
N1235  X112.5670 Y185.9430
N1236  X112.6420 Y186.2350
N1237  X112.7410 Y186.4990
N1238  X112.8620 Y186.7350
N1239  X113.0040 Y186.9390
N1240  X113.1720 Y187.1170
N1241  X113.3750 Y187.2740
N1242  X113.6130 Y187.4100
N1243  X113.8830 Y187.5240
N1244  X114.1810 Y187.6110
N1245  X114.5030 Y187.6750
N1246  X114.8480 Y187.7150
N1247  X115.2160 Y187.7280
N1248  X115.5730 Y187.7170
N1249  X115.8970 Y187.6830
N1250  X116.1850 Y187.6290
N1251  X116.4380 Y187.5530
N1252  X116.6570 Y187.4580
N1253  X116.8450 Y187.3540
N1254  X117.0030 Y187.2400
N1255  X117.1300 Y187.1140
N1256  X117.2310 Y186.9720
N1257  X117.3170 Y186.8140
N1258  X117.3870 Y186.6390
N1259  X117.4390 Y186.4460
N1260  X117.4600 Y186.2920
N1261  X117.4760 Y186.0900
N1262  X117.4860 Y185.8370
N1263  X117.4890 Y185.5320
N1264  Y184.2100
N1265  X117.4900 Y183.8780
N1266  X117.4930 Y183.5790
N1267  X117.4970 Y183.3130
N1268  X117.5040 Y183.0780
N1269  X117.5120 Y182.8750
N1270  X117.5230 Y182.7040
N1271  X117.5350 Y182.5640
N1272  X117.5490 Y182.4570
N1273  X117.6380 Y182.0940
N1274  X117.7870 Y181.7510
N1275  X116.7590
N1276  X116.6910 Y181.9140
N1277  X116.6370 Y182.0900
N1278  X116.5970 Y182.2790
N1279  X116.5700 Y182.4820
N1280 G0 Z2.0000
N1281  X121.1710 Y182.6330
N1282 G1 Z0.0000
N1283  X121.3070 Y181.7600
N1284  X120.9130 Y181.6920
N1285  X120.5630 Y181.6690
N1286  X120.3090 Y181.6810
N1287  X120.0870 Y181.7120
N1288  X119.8950 Y181.7670
N1289  X119.7330 Y181.8400
N1290  X119.5940 Y181.9320
N1291  X119.4800 Y182.0390
N1292  X119.3880 Y182.1580
N1293  X119.3170 Y182.2900
N1294  X119.2630 Y182.4670
N1295  X119.2260 Y182.7220
N1296  X119.2040 Y183.0540
N1297  X119.1970 Y183.4640
N1298  Y186.8350
N1299  X118.4670
N1300  Y187.5930
N1301  X119.1970
N1302  Y189.0380
N1303  X120.1980 Y189.6310
N1304  Y187.5930
N1305  X121.1710
N1306  Y186.8350
N1307  X120.1980
N1308  Y183.4240
N1309  X120.2000 Y183.2310
N1310  X120.2100 Y183.0760
N1311  X120.2260 Y182.9600
N1312  X120.2490 Y182.8810
N1313  X120.2770 Y182.8220
N1314  X120.3140 Y182.7710
N1315  X120.3610 Y182.7260
N1316  X120.4150 Y182.6880
N1317  X120.5540 Y182.6330
N1318  X120.7460 Y182.6170
N1319  X120.9320 Y182.6210
N1320  X121.1710 Y182.6330
N1321 G0 Z2.0000
N1322  X122.1980 Y181.7510
N1323 G1 Z0.0000
N1324  Y187.5930
N1325  X123.1990
N1326  Y181.7510
N1327  X122.1980
N1328 G0 Z2.0000
N1329  Y188.6750
N1330 G1 Z0.0000
N1331  Y189.8100
N1332  X123.1990
N1333  Y188.6750
N1334  X122.1980
N1335 G0 Z2.0000
N1336  X124.3010 Y184.6720
N1337 G1 Z0.0000
N1338  X124.3140 Y185.0640
N1339  X124.3560 Y185.4310
N1340  X124.4250 Y185.7710
N1341  X124.5230 Y186.0850
N1342  X124.6490 Y186.3720
N1343  X124.8020 Y186.6350
N1344  X124.9830 Y186.8690
N1345  X125.1920 Y187.0780
N1346  X125.3830 Y187.2290
N1347  X125.5840 Y187.3610
N1348  X125.7950 Y187.4740
N1349  X126.0170 Y187.5640
N1350  X126.2500 Y187.6360
N1351  X126.4920 Y187.6880
N1352  X126.7450 Y187.7180
N1353  X127.0080 Y187.7280
N1354  X127.2980 Y187.7150
N1355  X127.5750 Y187.6780
N1356  X127.8390 Y187.6170
N1357  X128.0890 Y187.5290
N1358  X128.3260 Y187.4180
N1359  X128.5490 Y187.2830
N1360  X128.7580 Y187.1220
N1361  X128.9540 Y186.9380
N1362  X129.1300 Y186.7310
N1363  X129.2840 Y186.5040
N1364  X129.4130 Y186.2600
N1365  X129.5200 Y185.9960
N1366  X129.6030 Y185.7140
N1367  X129.6620 Y185.4130
N1368  X129.6970 Y185.0930
N1369  X129.7090 Y184.7540
N1370  X129.6870 Y184.2190
N1371  X129.6240 Y183.7460
N1372  X129.5210 Y183.3320
N1373  X129.3750 Y182.9790
N1374  X129.1880 Y182.6720
N1375  X128.9640 Y182.4030
N1376  X128.7020 Y182.1710
N1377  X128.4020 Y181.9740
N1378  X128.0740 Y181.8170
N1379  X127.7330 Y181.7060
N1380  X127.3780 Y181.6390
N1381  X127.0080 Y181.6150
N1382  X126.7120 Y181.6280
N1383  X126.4300 Y181.6650
N1384  X126.1640 Y181.7260
N1385  X125.9110 Y181.8130
N1386  X125.6740 Y181.9240
N1387  X125.4510 Y182.0580
N1388  X125.2420 Y182.2180
N1389  X125.0480 Y182.4030
N1390  X124.8730 Y182.6100
N1391  X124.7210 Y182.8390
N1392  X124.5930 Y183.0890
N1393  X124.4870 Y183.3620
N1394  X124.4060 Y183.6570
N1395  X124.3470 Y183.9740
N1396  X124.3120 Y184.3130
N1397  X124.3010 Y184.6720
N1398 G0 Z2.0000
N1399  X130.9960 Y181.7510
N1400 G1 Z0.0000
N1401  Y187.5930
N1402  X131.8880
N1403  Y186.7630
N1404  X132.0540 Y186.9870
N1405  X132.2380 Y187.1830
N1406  X132.4400 Y187.3490
N1407  X132.6590 Y187.4850
N1408  X132.8970 Y187.5920
N1409  X133.1520 Y187.6670
N1410  X133.4240 Y187.7120
N1411  X133.7140 Y187.7280
N1412  X133.9670 Y187.7150
N1413  X134.2110 Y187.6790
N1414  X134.4440 Y187.6210
N1415  X134.6670 Y187.5380
N1416  X134.8690 Y187.4350
N1417  X135.0460 Y187.3170
N1418  X135.1960 Y187.1860
N1419  X135.3180 Y187.0400
N1420  X135.4170 Y186.8760
N1421  X135.5010 Y186.7010
N1422  X135.5690 Y186.5130
N1423  X135.6200 Y186.3080
N1424  X135.6430 Y186.1440
N1425  X135.6600 Y185.9290
N1426  X135.6710 Y185.6630
N1427  X135.6740 Y185.3440
N1428  Y181.7510
N1429  X134.6470
N1430  Y185.3010
N1431  X134.6390 Y185.5830
N1432  X134.6190 Y185.8290
N1433  X134.5840 Y186.0360
N1434  X134.5360 Y186.2060
N1435  X134.4690 Y186.3470
N1436  X134.3820 Y186.4740
N1437  X134.2730 Y186.5860
N1438  X134.1430 Y186.6830
N1439  X133.9960 Y186.7610
N1440  X133.8370 Y186.8180
N1441  X133.6660 Y186.8510
N1442  X133.4820 Y186.8620
N1443  X133.1890 Y186.8370
N1444  X132.9170 Y186.7630
N1445  X132.6660 Y186.6360
N1446  X132.4360 Y186.4610
N1447  X132.3330 Y186.3500
N1448  X132.2440 Y186.2150
N1449  X132.1680 Y186.0580
N1450  X132.1060 Y185.8790
N1451  X132.0580 Y185.6780
N1452  X132.0240 Y185.4540
N1453  X132.0030 Y185.2080
N1454  X131.9970 Y184.9390
N1455  Y181.7510
N1456  X130.9960
N1457 G0 Z2.0000
N1458  X140.4920
N1459 G1 Z0.0000
N1460  Y189.8100
N1461  X143.5260
N1462  X143.9010 Y189.8060
N1463  X144.2310 Y189.7900
N1464  X144.5140 Y189.7670
N1465  X144.7490 Y189.7330
N1466  X145.0320 Y189.6710
N1467  X145.2920 Y189.5870
N1468  X145.5290 Y189.4830
N1469  X145.7420 Y189.3560
N1470  X145.9320 Y189.2030
N1471  X146.1030 Y189.0220
N1472  X146.2540 Y188.8140
N1473  X146.3860 Y188.5780
N1474  X146.4920 Y188.3190
N1475  X146.5680 Y188.0510
N1476  X146.6150 Y187.7710
N1477  X146.6310 Y187.4780
N1478  X146.6190 Y187.2250
N1479  X146.5890 Y186.9820
N1480  X146.5380 Y186.7500
N1481  X146.4670 Y186.5260
N1482  X146.3750 Y186.3140
N1483  X146.2630 Y186.1110
N1484  X146.1290 Y185.9190
N1485  X145.9760 Y185.7360
N1486  X145.7960 Y185.5680
N1487  X145.5830 Y185.4220
N1488  X145.3370 Y185.3000
N1489  X145.0580 Y185.2000
N1490  X144.7460 Y185.1220
N1491  X144.4010 Y185.0680
N1492  X144.0240 Y185.0350
N1493  X143.6140 Y185.0240
N1494  X141.5460
N1495  Y181.7510
N1496  X140.4920
N1497 G0 Z2.0000
N1498  X151.7370 Y182.4820
N1499 G1 Z0.0000
N1500  X151.4720 Y182.2600
N1501  X151.2080 Y182.0750
N1502  X150.9490 Y181.9260
N1503  X150.6900 Y181.8110
N1504  X150.4280 Y181.7250
N1505  X150.1570 Y181.6640
N1506  X149.8780 Y181.6280
N1507  X149.5890 Y181.6150
N1508  X149.3510 Y181.6240
N1509  X149.1310 Y181.6440
N1510  X148.9220 Y181.6820
N1511  X148.7280 Y181.7330
N1512  X148.5490 Y181.7990
N1513  X148.3830 Y181.8810
N1514  X148.2320 Y181.9760
N1515  X148.0940 Y182.0860
N1516  X147.8650 Y182.3370
N1517  X147.7010 Y182.6220
N1518  X147.6040 Y182.9390
N1519  X147.5720 Y183.2890
N1520  X147.5850 Y183.4970
N1521  X147.6220 Y183.6970
N1522  X147.6830 Y183.8900
N1523  X147.7690 Y184.0720
N1524  X147.8750 Y184.2400
N1525  X147.9970 Y184.3920
N1526  X148.1350 Y184.5250
N1527  X148.2860 Y184.6420
N1528  X148.6250 Y184.8310
N1529  X149.0060 Y184.9670
N1530  X149.1710 Y185.0040
N1531  X149.3750 Y185.0420
N1532  X149.6170 Y185.0790
N1533  X149.8940 Y185.1150
N1534  X150.4600 Y185.1900
N1535  X150.9460 Y185.2710
N1536  X151.3510 Y185.3600
N1537  X151.6780 Y185.4560
N1538  X151.6810 Y185.6220
N1539  X151.6830 Y185.7170
N1540  X151.6650 Y185.9990
N1541  X151.6120 Y186.2360
N1542  X151.5250 Y186.4310
N1543  X151.4010 Y186.5780
N1544  X151.1860 Y186.7250
N1545  X150.9250 Y186.8310
N1546  X150.6190 Y186.8940
N1547  X150.2680 Y186.9170
N1548  X149.9390 Y186.9000
N1549  X149.6570 Y186.8540
N1550  X149.4210 Y186.7780
N1551  X149.2310 Y186.6720
N1552  X149.0740 Y186.5260
N1553  X148.9390 Y186.3330
N1554  X148.8260 Y186.0940
N1555  X148.7360 Y185.8080
N1556  X147.7350 Y185.9430
N1557  X147.8100 Y186.2350
N1558  X147.9080 Y186.4990
N1559  X148.0310 Y186.7350
N1560  X148.1720 Y186.9390
N1561  X148.3400 Y187.1170
N1562  X148.5430 Y187.2740
N1563  X148.7810 Y187.4100
N1564  X149.0510 Y187.5240
N1565  X149.3490 Y187.6110
N1566  X149.6710 Y187.6750
N1567  X150.0170 Y187.7150
N1568  X150.3850 Y187.7280
N1569  X150.7420 Y187.7170
N1570  X151.0650 Y187.6830
N1571  X151.3530 Y187.6290
N1572  X151.6070 Y187.5530
N1573  X151.8250 Y187.4580
N1574  X152.0130 Y187.3540
N1575  X152.1710 Y187.2400
N1576  X152.2970 Y187.1140
N1577  X152.3990 Y186.9720
N1578  X152.4850 Y186.8140
N1579  X152.5540 Y186.6390
N1580  X152.6070 Y186.4460
N1581  X152.6280 Y186.2920
N1582  X152.6430 Y186.0900
N1583  X152.6540 Y185.8370
N1584  X152.6570 Y185.5320
N1585  Y184.2100
N1586  X152.6580 Y183.8780
N1587  X152.6600 Y183.5790
N1588  X152.6650 Y183.3130
N1589  X152.6720 Y183.0780
N1590  X152.6810 Y182.8750
N1591  X152.6900 Y182.7040
N1592  X152.7030 Y182.5640
N1593  X152.7170 Y182.4570
N1594  X152.8060 Y182.0940
N1595  X152.9540 Y181.7510
N1596  X151.9260
N1597  X151.8580 Y181.9140
N1598  X151.8040 Y182.0900
N1599  X151.7650 Y182.2790
N1600  X151.7370 Y182.4820
N1601 G0 Z2.0000
N1602  X166.7260 Y181.7510
N1603 G1 Z0.0000
N1604  Y187.5930
N1605  X167.5920
N1606  Y186.7060
N1607  X167.7580 Y186.9900
N1608  X167.9210 Y187.2220
N1609  X168.0780 Y187.4030
N1610  X168.2260 Y187.5290
N1611  X168.3750 Y187.6170
N1612  X168.5310 Y187.6780
N1613  X168.6940 Y187.7150
N1614  X168.8670 Y187.7280
N1615  X169.1180 Y187.7070
N1616  X169.3740 Y187.6470
N1617  X169.6310 Y187.5460
N1618  X169.8900 Y187.4060
N1619  X169.5430 Y186.4970
N1620  X169.3640 Y186.5850
N1621  X169.1860 Y186.6490
N1622  X169.0080 Y186.6880
N1623  X168.8290 Y186.7000
N1624  X168.6720 Y186.6880
N1625  X168.5250 Y186.6510
N1626  X168.3860 Y186.5900
N1627  X168.2560 Y186.5040
N1628  X168.1360 Y186.3970
N1629  X168.0380 Y186.2710
N1630  X167.9560 Y186.1260
N1631  X167.8920 Y185.9620
N1632  X167.8190 Y185.6930
N1633  X167.7680 Y185.4100
N1634  X167.7370 Y185.1150
N1635  X167.7280 Y184.8080
N1636  Y181.7510
N1637  X166.7260
N1638 G0 Z2.0000
N1639  X170.5510
N1640 G1 Z0.0000
N1641  Y187.5930
N1642  X171.4440
N1643  Y186.7630
N1644  X171.6100 Y186.9870
N1645  X171.7930 Y187.1830
N1646  X171.9960 Y187.3490
N1647  X172.2150 Y187.4850
N1648  X172.4530 Y187.5920
N1649  X172.7070 Y187.6670
N1650  X172.9790 Y187.7120
N1651  X173.2690 Y187.7280
N1652  X173.5240 Y187.7150
N1653  X173.7670 Y187.6790
N1654  X174.0000 Y187.6210
N1655  X174.2220 Y187.5380
N1656  X174.4250 Y187.4350
N1657  X174.6010 Y187.3170
N1658  X174.7510 Y187.1860
N1659  X174.8740 Y187.0400
N1660  X174.9720 Y186.8760
N1661  X175.0560 Y186.7010
N1662  X175.1250 Y186.5130
N1663  X175.1760 Y186.3080
N1664  X175.1990 Y186.1440
N1665  X175.2150 Y185.9290
N1666  X175.2260 Y185.6630
N1667  X175.2310 Y185.3440
N1668  Y181.7510
N1669  X174.2030
N1670  Y185.3010
N1671  X174.1940 Y185.5830
N1672  X174.1740 Y185.8290
N1673  X174.1400 Y186.0360
N1674  X174.0920 Y186.2060
N1675  X174.0250 Y186.3470
N1676  X173.9380 Y186.4740
N1677  X173.8290 Y186.5860
N1678  X173.6990 Y186.6830
N1679  X173.5510 Y186.7610
N1680  X173.3930 Y186.8180
N1681  X173.2210 Y186.8510
N1682  X173.0380 Y186.8620
N1683  X172.7440 Y186.8370
N1684  X172.4720 Y186.7630
N1685  X172.2220 Y186.6360
N1686  X171.9920 Y186.4610
N1687  X171.8890 Y186.3500
N1688  X171.7990 Y186.2150
N1689  X171.7240 Y186.0580
N1690  X171.6610 Y185.8790
N1691  X171.6140 Y185.6780
N1692  X171.5790 Y185.4540
N1693  X171.5580 Y185.2080
N1694  X171.5530 Y184.9390
N1695  Y181.7510
N1696  X170.5510
N1697 G0 Z2.0000
N1698  X164.4820 Y183.6440
N1699 G1 Z0.0000
N1700  X165.4890 Y183.5080
N1701  X165.3400 Y183.0830
N1702  X165.1400 Y182.7100
N1703  X164.8880 Y182.3860
N1704  X164.5830 Y182.1120
N1705  X164.2310 Y181.8960
N1706  X163.8310 Y181.7400
N1707  X163.3860 Y181.6470
N1708  X162.8960 Y181.6150
N1709  X162.5790 Y181.6280
N1710  X162.2810 Y181.6650
N1711  X161.9990 Y181.7260
N1712  X161.7350 Y181.8130
N1713  X161.4870 Y181.9240
N1714  X161.2560 Y182.0600
N1715  X161.0420 Y182.2210
N1716  X160.8430 Y182.4060
N1717  X160.6650 Y182.6140
N1718  X160.5100 Y182.8400
N1719  X160.3810 Y183.0870
N1720  X160.2740 Y183.3560
N1721  X160.1920 Y183.6420
N1722  X160.1320 Y183.9490
N1723  X160.0970 Y184.2760
N1724  X160.0860 Y184.6220
N1725  X160.0970 Y184.9810
N1726  X160.1330 Y185.3180
N1727  X160.1930 Y185.6350
N1728  X160.2760 Y185.9320
N1729  X160.3850 Y186.2080
N1730  X160.5170 Y186.4640
N1731  X160.6720 Y186.6990
N1732  X160.8510 Y186.9130
N1733  X161.0500 Y187.1030
N1734  X161.2630 Y187.2680
N1735  X161.4900 Y187.4080
N1736  X161.7310 Y187.5240
N1737  X161.9870 Y187.6120
N1738  X162.2570 Y187.6760
N1739  X162.5420 Y187.7150
N1740  X162.8390 Y187.7280
N1741  X163.1280 Y187.7150
N1742  X163.4030 Y187.6780
N1743  X163.6640 Y187.6150
N1744  X163.9130 Y187.5280
N1745  X164.1490 Y187.4170
N1746  X164.3690 Y187.2790
N1747  X164.5780 Y187.1180
N1748  X164.7720 Y186.9320
N1749  X164.9470 Y186.7220
N1750  X165.0990 Y186.4930
N1751  X165.2280 Y186.2430
N1752  X165.3330 Y185.9740
N1753  X165.4150 Y185.6830
N1754  X165.4740 Y185.3740
N1755  X165.5100 Y185.0430
N1756  X165.5210 Y184.6920
N1757  X165.5190 Y184.5810
N1758  X165.5170 Y184.4280
N1759  X161.1140
N1760  X161.1330 Y184.1920
N1761  X161.1680 Y183.9710
N1762  X161.2170 Y183.7630
N1763  X161.2790 Y183.5710
N1764  X161.3560 Y183.3930
N1765  X161.4460 Y183.2280
N1766  X161.5500 Y183.0790
N1767  X161.6680 Y182.9430
N1768  X161.9320 Y182.7150
N1769  X162.2280 Y182.5540
N1770  X162.5560 Y182.4580
N1771  X162.9130 Y182.4280
N1772  X163.1780 Y182.4440
N1773  X163.4250 Y182.4990
N1774  X163.6530 Y182.5900
N1775  X163.8600 Y182.7180
N1776  X164.0460 Y182.8830
N1777  X164.2120 Y183.0930
N1778  X164.3570 Y183.3470
N1779  X164.4820 Y183.6440
N1780 G0 Z2.0000
N1781  X159.4750 Y182.6330
N1782 G1 Z0.0000
N1783  X159.6110 Y181.7600
N1784  X159.2170 Y181.6920
N1785  X158.8680 Y181.6690
N1786  X158.6140 Y181.6810
N1787  X158.3920 Y181.7120
N1788  X158.1990 Y181.7670
N1789  X158.0380 Y181.8400
N1790  X157.8990 Y181.9320
N1791  X157.7850 Y182.0390
N1792  X157.6920 Y182.1580
N1793  X157.6220 Y182.2900
N1794  X157.5670 Y182.4670
N1795  X157.5310 Y182.7220
N1796  X157.5080 Y183.0540
N1797  X157.5010 Y183.4640
N1798  Y186.8350
N1799  X156.7710
N1800  Y187.5930
N1801  X157.5010
N1802  Y189.0380
N1803  X158.5010 Y189.6310
N1804  Y187.5930
N1805  X159.4750
N1806  Y186.8350
N1807  X158.5010
N1808  Y183.4240
N1809  X158.5040 Y183.2310
N1810  X158.5140 Y183.0760
N1811  X158.5310 Y182.9600
N1812  X158.5530 Y182.8810
N1813  X158.5810 Y182.8220
N1814  X158.6180 Y182.7710
N1815  X158.6650 Y182.7260
N1816  X158.7190 Y182.6880
N1817  X158.8580 Y182.6330
N1818  X159.0500 Y182.6170
N1819  X159.2360 Y182.6210
N1820  X159.4750 Y182.6330
N1821 G0 Z2.0000
N1822  X156.3390
N1823 G1 Z0.0000
N1824  X156.4750 Y181.7600
N1825  X156.0810 Y181.6920
N1826  X155.7310 Y181.6690
N1827  X155.4780 Y181.6810
N1828  X155.2540 Y181.7120
N1829  X155.0630 Y181.7670
N1830  X154.9000 Y181.8400
N1831  X154.7630 Y181.9320
N1832  X154.6470 Y182.0390
N1833  X154.5560 Y182.1580
N1834  X154.4850 Y182.2900
N1835  X154.4310 Y182.4670
N1836  X154.3930 Y182.7220
N1837  X154.3720 Y183.0540
N1838  X154.3650 Y183.4640
N1839  Y186.8350
N1840  X153.6350
N1841  Y187.5930
N1842  X154.3650
N1843  Y189.0380
N1844  X155.3650 Y189.6310
N1845  Y187.5930
N1846  X156.3390
N1847  Y186.8350
N1848  X155.3650
N1849  Y183.4240
N1850  X155.3680 Y183.2310
N1851  X155.3780 Y183.0760
N1852  X155.3940 Y182.9600
N1853  X155.4170 Y182.8810
N1854  X155.4440 Y182.8220
N1855  X155.4820 Y182.7710
N1856  X155.5290 Y182.7260
N1857  X155.5830 Y182.6880
N1858  X155.7220 Y182.6330
N1859  X155.9140 Y182.6170
N1860  X156.1000 Y182.6210
N1861  X156.3390 Y182.6330
N1862 G0 Z2.0000
N1863  X127.0000 Y177.8000
N1864 G1 Z0.0000
N1865  Y101.6000
N1866 G0 Z2.0000
N1867  X98.7778
N1868 G1 Z0.0000
N1869  X101.6000 Y104.4220
N1870 G0 Z2.0000
N1871  X95.9556 Y101.6000
N1872 G1 Z0.0000
N1873  X101.6000 Y107.2440
N1874 G0 Z2.0000
N1875  X93.1333 Y101.6000
N1876 G1 Z0.0000
N1877  X101.6000 Y110.0670
N1878 G0 Z2.0000
N1879  X90.3111 Y101.6000
N1880 G1 Z0.0000
N1881  X101.6000 Y112.8890
N1882 G0 Z2.0000
N1883  X87.4889 Y101.6000
N1884 G1 Z0.0000
N1885  X101.6000 Y115.7110
N1886 G0 Z2.0000
N1887  X84.6667 Y101.6000
N1888 G1 Z0.0000
N1889  X101.6000 Y118.5330
N1890 G0 Z2.0000
N1891  X59.2667 Y127.0000
N1892 G1 Z0.0000
N1893  Y101.6000
N1894 G0 Z2.0000
N1895  X25.4000 Y127.0000
N1896 G1 Z0.0000
N1897  X177.8000
N1898 G0 Z2.0000
N1899  X152.4000
N1900 G1 Z0.0000
N1901  X127.0000 Y152.4000
N1902 G0 Z2.0000
N1903  X132.6440 Y146.7560
N1904 G1 Z0.0000
N1905  X146.7560
N1906  Y132.6440
N1907  X132.6440
N1908  Y146.7560
N1909 G0 Z2.0000
N1910  X127.0000 Y127.0000
N1911 G1 Z0.0000
N1912  X152.4000 Y152.4000
N1913 G0 Z2.0000
N1914  Y177.8000
N1915 G1 Z0.0000
N1916  Y101.6000
N1917 G0 Z2.0000
N1918  X140.6900 Y96.1857
N1919 G1 Z0.0000
N1920  X140.5320 Y97.0956
N1921  Y97.8783
N1922  X141.1970
N1923  Y97.0956
N1924  X141.0420 Y96.1857
N1925  X140.6900
N1926 G0 Z2.0000
N1927  X139.6250
N1928 G1 Z0.0000
N1929  X139.4640 Y97.0956
N1930  Y97.8783
N1931  X140.1290
N1932  Y97.0956
N1933  X139.9830 Y96.1857
N1934  X139.6250
N1935 G0 Z2.0000
N1936  X135.7440 Y94.3682
N1937 G1 Z0.0000
N1938  X136.3410 Y94.4515
N1939  X136.3970 Y94.2235
N1940  X136.4720 Y94.0314
N1941  X136.5650 Y93.8740
N1942  X136.6750 Y93.7503
N1943  X136.8000 Y93.6556
N1944  X136.9390 Y93.5886
N1945  X137.0920 Y93.5489
N1946  X137.2600 Y93.5357
N1947  X137.4580 Y93.5517
N1948  X137.6390 Y93.6051
N1949  X137.8040 Y93.6950
N1950  X137.9510 Y93.8200
N1951  X138.0700 Y93.9699
N1952  X138.1570 Y94.1376
N1953  X138.2100 Y94.3228
N1954  X138.2280 Y94.5246
N1955  X138.2100 Y94.7158
N1956  X138.1620 Y94.8899
N1957  X138.0810 Y95.0464
N1958  X137.9680 Y95.1854
N1959  X137.8290 Y95.2979
N1960  X137.6730 Y95.3793
N1961  X137.5000 Y95.4289
N1962  X137.3080 Y95.4457
N1963  X137.1240 Y95.4286
N1964  X136.9010 Y95.3810
N1965  X136.9660 Y95.8944
N1966  X137.0160 Y95.8882
N1967  X137.0580 Y95.8879
N1968  X137.2350 Y95.8994
N1969  X137.4030 Y95.9358
N1970  X137.5630 Y95.9968
N1971  X137.7140 Y96.0819
N1972  X137.8400 Y96.1914
N1973  X137.9310 Y96.3279
N1974  X137.9870 Y96.4910
N1975  X138.0060 Y96.6800
N1976  X137.9910 Y96.8325
N1977  X137.9500 Y96.9719
N1978  X137.8840 Y97.0981
N1979  X137.7900 Y97.2101
N1980  X137.6740 Y97.3011
N1981  X137.5430 Y97.3669
N1982  X137.3970 Y97.4069
N1983  X137.2340 Y97.4204
N1984  X137.0720 Y97.4060
N1985  X136.9240 Y97.3664
N1986  X136.7910 Y97.3011
N1987  X136.6720 Y97.2089
N1988  X136.5680 Y97.0892
N1989  X136.4860 Y96.9438
N1990  X136.4240 Y96.7724
N1991  X136.3830 Y96.5743
N1992  X135.7860 Y96.6714
N1993  X135.8540 Y96.9474
N1994  X135.9590 Y97.1919
N1995  X136.0980 Y97.4040
N1996  X136.2710 Y97.5828
N1997  X136.4700 Y97.7236
N1998  X136.6950 Y97.8247
N1999  X136.9430 Y97.8857
N2000  X137.2140 Y97.9061
N2001  X137.4030 Y97.8944
N2002  X137.5850 Y97.8633
N2003  X137.7610 Y97.8118
N2004  X137.9290 Y97.7390
N2005  X138.0820 Y97.6467
N2006  X138.2170 Y97.5404
N2007  X138.3330 Y97.4196
N2008  X138.4290 Y97.2831
N2009  X138.5040 Y97.1350
N2010  X138.5580 Y96.9842
N2011  X138.5910 Y96.8293
N2012  X138.6020 Y96.6699
N2013  X138.5900 Y96.5179
N2014  X138.5600 Y96.3743
N2015  X138.5090 Y96.2381
N2016  X138.4370 Y96.1083
N2017  X138.3430 Y95.9879
N2018  X138.2310 Y95.8810
N2019  X138.1000 Y95.7871
N2020  X137.9480 Y95.7061
N2021  X138.1460 Y95.6439
N2022  X138.3230 Y95.5562
N2023  X138.4780 Y95.4425
N2024  X138.6110 Y95.3026
N2025  X138.7160 Y95.1396
N2026  X138.7910 Y94.9578
N2027  X138.8370 Y94.7569
N2028  X138.8520 Y94.5368
N2029  X138.8220 Y94.2375
N2030  X138.7370 Y93.9621
N2031  X138.5970 Y93.7104
N2032  X138.3990 Y93.4824
N2033  X138.1570 Y93.2929
N2034  X137.8850 Y93.1579
N2035  X137.5840 Y93.0769
N2036  X137.2530 Y93.0500
N2037  X136.9520 Y93.0729
N2038  X136.6800 Y93.1418
N2039  X136.4340 Y93.2564
N2040  X136.2150 Y93.4169
N2041  X136.0290 Y93.6133
N2042  X135.8890 Y93.8376
N2043  X135.7950 Y94.0894
N2044  X135.7440 Y94.3682
N2045 G0 Z2.0000
N2046  X141.1110 Y114.3000
N2047 G1 Z0.0000
N2048  X141.1040 Y114.1560
N2049  X141.0820 Y114.0150
N2050  X141.0470 Y113.8800
N2051  X141.0000 Y113.7510
N2052  X140.9400 Y113.6270
N2053  X140.8710 Y113.5110
N2054  X140.7890 Y113.4020
N2055  X140.6990 Y113.3020
N2056  X140.5970 Y113.2110
N2057  X140.4890 Y113.1300
N2058  X140.3720 Y113.0590
N2059  X140.2500 Y113.0000
N2060  X140.1190 Y112.9520
N2061  X139.9850 Y112.9180
N2062  X139.8440 Y112.8960
N2063  X139.7000 Y112.8890
N2064  X139.5560 Y112.8960
N2065  X139.4150 Y112.9180
N2066  X139.2810 Y112.9520
N2067  X139.1500 Y113.0000
N2068  X139.0260 Y113.0590
N2069  X138.9110 Y113.1300
N2070  X138.8020 Y113.2110
N2071  X138.7020 Y113.3020
N2072  X138.6110 Y113.4020
N2073  X138.5300 Y113.5110
N2074  X138.4590 Y113.6270
N2075  X138.4000 Y113.7510
N2076  X138.3520 Y113.8800
N2077  X138.3180 Y114.0150
N2078  X138.2960 Y114.1560
N2079  X138.2890 Y114.3000
N2080  X138.2960 Y114.4440
N2081  X138.3180 Y114.5850
N2082  X138.3520 Y114.7200
N2083  X138.4000 Y114.8500
N2084  X138.4590 Y114.9730
N2085  X138.5300 Y115.0890
N2086  X138.6110 Y115.1980
N2087  X138.7020 Y115.2980
N2088  X138.8020 Y115.3890
N2089  X138.9110 Y115.4700
N2090  X139.0260 Y115.5410
N2091  X139.1500 Y115.6000
N2092  X139.2810 Y115.6480
N2093  X139.4150 Y115.6820
N2094  X139.5560 Y115.7040
N2095  X139.7000 Y115.7110
N2096  X139.8440 Y115.7040
N2097  X139.9850 Y115.6820
N2098  X140.1190 Y115.6480
N2099  X140.2500 Y115.6000
N2100  X140.3720 Y115.5410
N2101  X140.4890 Y115.4700
N2102  X140.5970 Y115.3890
N2103  X140.6990 Y115.2980
N2104  X140.7890 Y115.1980
N2105  X140.8710 Y115.0890
N2106  X140.9400 Y114.9730
N2107  X141.0000 Y114.8500
N2108  X141.0470 Y114.7200
N2109  X141.0820 Y114.5850
N2110  X141.1040 Y114.4440
N2111  X141.1110 Y114.3000
N2112 G0 Z2.0000
N2113  X143.9330
N2114 G1 Z0.0000
N2115  X143.9110 Y113.8670
N2116  X143.8470 Y113.4470
N2117  X143.7430 Y113.0410
N2118  X143.6010 Y112.6520
N2119  X143.4220 Y112.2820
N2120  X143.2110 Y111.9330
N2121  X142.9670 Y111.6070
N2122  X142.6930 Y111.3060
N2123  X142.3930 Y111.0330
N2124  X142.0670 Y110.7900
N2125  X141.7180 Y110.5780
N2126  X141.3490 Y110.3990
N2127  X140.9600 Y110.2570
N2128  X140.5530 Y110.1530
N2129  X140.1330 Y110.0890
N2130  X139.7000 Y110.0670
N2131  X139.2670 Y110.0890
N2132  X138.8470 Y110.1530
N2133  X138.4410 Y110.2570
N2134  X138.0520 Y110.3990
N2135  X137.6820 Y110.5780
N2136  X137.3330 Y110.7900
N2137  X137.0070 Y111.0330
N2138  X136.7060 Y111.3060
N2139  X136.4330 Y111.6070
N2140  X136.1890 Y111.9330
N2141  X135.9770 Y112.2820
N2142  X135.7990 Y112.6520
N2143  X135.6570 Y113.0410
N2144  X135.5530 Y113.4470
N2145  X135.4880 Y113.8670
N2146  X135.4670 Y114.3000
N2147  X135.4880 Y114.7330
N2148  X135.5530 Y115.1530
N2149  X135.6570 Y115.5590
N2150  X135.7990 Y115.9480
N2151  X135.9770 Y116.3180
N2152  X136.1890 Y116.6670
N2153  X136.4330 Y116.9930
N2154  X136.7060 Y117.2940
N2155  X137.0070 Y117.5670
N2156  X137.3330 Y117.8110
N2157  X137.6820 Y118.0230
N2158  X138.0520 Y118.2010
N2159  X138.4410 Y118.3430
N2160  X138.8470 Y118.4470
N2161  X139.2670 Y118.5120
N2162  X139.7000 Y118.5330
N2163  X140.1330 Y118.5120
N2164  X140.5530 Y118.4470
N2165  X140.9600 Y118.3430
N2166  X141.3490 Y118.2010
N2167  X141.7180 Y118.0230
N2168  X142.0670 Y117.8110
N2169  X142.3930 Y117.5670
N2170  X142.6930 Y117.2940
N2171  X142.9670 Y116.9930
N2172  X143.2110 Y116.6670
N2173  X143.4220 Y116.3180
N2174  X143.6010 Y115.9480
N2175  X143.7430 Y115.5590
N2176  X143.8470 Y115.1530
N2177  X143.9110 Y114.7330
N2178  X143.9330 Y114.3000
N2179 G0 Z2.0000
N2180  X146.7560
N2181 G1 Z0.0000
N2182  X146.7460 Y113.9370
N2183  X146.7190 Y113.5780
N2184  X146.6740 Y113.2250
N2185  X146.6120 Y112.8780
N2186  X146.5330 Y112.5370
N2187  X146.4390 Y112.2020
N2188  X146.3280 Y111.8740
N2189  X146.2010 Y111.5530
N2190  X146.0600 Y111.2410
N2191  X145.9040 Y110.9370
N2192  X145.7350 Y110.6410
N2193  X145.5500 Y110.3550
N2194  X145.3540 Y110.0780
N2195  X145.1440 Y109.8120
N2196  X144.9220 Y109.5560
N2197  X144.6890 Y109.3110
N2198  X144.4440 Y109.0770
N2199  X144.1880 Y108.8550
N2200  X143.9220 Y108.6460
N2201  X143.6440 Y108.4490
N2202  X143.3580 Y108.2660
N2203  X143.0640 Y108.0960
N2204  X142.7580 Y107.9400
N2205  X142.4460 Y107.7990
N2206  X142.1260 Y107.6720
N2207  X141.7990 Y107.5620
N2208  X141.4640 Y107.4670
N2209  X141.1220 Y107.3880
N2210  X140.7750 Y107.3260
N2211  X140.4210 Y107.2810
N2212  X140.0630 Y107.2540
N2213  X139.7000 Y107.2440
N2214  X139.3370 Y107.2540
N2215  X138.9780 Y107.2810
N2216  X138.6250 Y107.3260
N2217  X138.2780 Y107.3880
N2218  X137.9370 Y107.4670
N2219  X137.6020 Y107.5620
N2220  X137.2740 Y107.6720
N2221  X136.9530 Y107.7990
N2222  X136.6410 Y107.9400
N2223  X136.3370 Y108.0960
N2224  X136.0410 Y108.2660
N2225  X135.7550 Y108.4490
N2226  X135.4780 Y108.6460
N2227  X135.2120 Y108.8550
N2228  X134.9560 Y109.0770
N2229  X134.7110 Y109.3110
N2230  X134.4770 Y109.5560
N2231  X134.2550 Y109.8120
N2232  X134.0460 Y110.0780
N2233  X133.8490 Y110.3550
N2234  X133.6660 Y110.6410
N2235  X133.4960 Y110.9370
N2236  X133.3400 Y111.2410
N2237  X133.1990 Y111.5530
N2238  X133.0720 Y111.8740
N2239  X132.9620 Y112.2020
N2240  X132.8670 Y112.5370
N2241  X132.7880 Y112.8780
N2242  X132.7260 Y113.2250
N2243  X132.6810 Y113.5780
N2244  X132.6540 Y113.9370
N2245  X132.6440 Y114.3000
N2246  X132.6540 Y114.6630
N2247  X132.6810 Y115.0220
N2248  X132.7260 Y115.3750
N2249  X132.7880 Y115.7220
N2250  X132.8670 Y116.0630
N2251  X132.9620 Y116.3980
N2252  X133.0720 Y116.7260
N2253  X133.1990 Y117.0470
N2254  X133.3400 Y117.3590
N2255  X133.4960 Y117.6630
N2256  X133.6660 Y117.9590
N2257  X133.8490 Y118.2450
N2258  X134.0460 Y118.5220
N2259  X134.2550 Y118.7880
N2260  X134.4770 Y119.0440
N2261  X134.7110 Y119.2890
N2262  X134.9560 Y119.5230
N2263  X135.2120 Y119.7450
N2264  X135.4780 Y119.9540
N2265  X135.7550 Y120.1510
N2266  X136.0410 Y120.3340
N2267  X136.3370 Y120.5040
N2268  X136.6410 Y120.6600
N2269  X136.9530 Y120.8010
N2270  X137.2740 Y120.9280
N2271  X137.6020 Y121.0380
N2272  X137.9370 Y121.1330
N2273  X138.2780 Y121.2120
N2274  X138.6250 Y121.2740
N2275  X138.9780 Y121.3190
N2276  X139.3370 Y121.3460
N2277  X139.7000 Y121.3560
N2278  X140.0630 Y121.3460
N2279  X140.4210 Y121.3190
N2280  X140.7750 Y121.2740
N2281  X141.1220 Y121.2120
N2282  X141.4640 Y121.1330
N2283  X141.7990 Y121.0380
N2284  X142.1260 Y120.9280
N2285  X142.4460 Y120.8010
N2286  X142.7580 Y120.6600
N2287  X143.0640 Y120.5040
N2288  X143.3580 Y120.3340
N2289  X143.6440 Y120.1510
N2290  X143.9220 Y119.9540
N2291  X144.1880 Y119.7450
N2292  X144.4440 Y119.5230
N2293  X144.6890 Y119.2890
N2294  X144.9220 Y119.0440
N2295  X145.1440 Y118.7880
N2296  X145.3540 Y118.5220
N2297  X145.5500 Y118.2450
N2298  X145.7350 Y117.9590
N2299  X145.9040 Y117.6630
N2300  X146.0600 Y117.3590
N2301  X146.2010 Y117.0470
N2302  X146.3280 Y116.7260
N2303  X146.4390 Y116.3980
N2304  X146.5330 Y116.0630
N2305  X146.6120 Y115.7220
N2306  X146.6740 Y115.3750
N2307  X146.7190 Y115.0220
N2308  X146.7460 Y114.6630
N2309  X146.7560 Y114.3000
N2310 G0 Z2.0000
N2311  X149.5780
N2312 G1 Z0.0000
N2313  X149.5650 Y113.7920
N2314  X149.5260 Y113.2900
N2315  X149.4640 Y112.7960
N2316  X149.3780 Y112.3090
N2317  X149.2670 Y111.8310
N2318  X149.1330 Y111.3630
N2319  X148.9780 Y110.9030
N2320  X148.8010 Y110.4550
N2321  X148.6040 Y110.0170
N2322  X148.3860 Y109.5920
N2323  X148.1470 Y109.1780
N2324  X147.8900 Y108.7770
N2325  X147.6150 Y108.3900
N2326  X147.3220 Y108.0170
N2327  X147.0130 Y107.6580
N2328  X146.6850 Y107.3150
N2329  X146.3420 Y106.9880
N2330  X145.9830 Y106.6780
N2331  X145.6100 Y106.3840
N2332  X145.2220 Y106.1090
N2333  X144.8220 Y105.8520
N2334  X144.4080 Y105.6140
N2335  X143.9820 Y105.3960
N2336  X143.5440 Y105.1980
N2337  X143.0960 Y105.0220
N2338  X142.6380 Y104.8660
N2339  X142.1680 Y104.7330
N2340  X141.6900 Y104.6230
N2341  X141.2040 Y104.5360
N2342  X140.7100 Y104.4730
N2343  X140.2080 Y104.4350
N2344  X139.7000 Y104.4220
N2345  X139.1920 Y104.4350
N2346  X138.6900 Y104.4730
N2347  X138.1960 Y104.5360
N2348  X137.7090 Y104.6230
N2349  X137.2310 Y104.7330
N2350  X136.7630 Y104.8660
N2351  X136.3030 Y105.0220
N2352  X135.8550 Y105.1980
N2353  X135.4170 Y105.3960
N2354  X134.9920 Y105.6140
N2355  X134.5780 Y105.8520
N2356  X134.1770 Y106.1090
N2357  X133.7900 Y106.3840
N2358  X133.4170 Y106.6780
N2359  X133.0580 Y106.9880
N2360  X132.7150 Y107.3150
N2361  X132.3880 Y107.6580
N2362  X132.0780 Y108.0170
N2363  X131.7840 Y108.3900
N2364  X131.5090 Y108.7770
N2365  X131.2520 Y109.1780
N2366  X131.0140 Y109.5920
N2367  X130.7960 Y110.0170
N2368  X130.5980 Y110.4550
N2369  X130.4220 Y110.9030
N2370  X130.2660 Y111.3630
N2371  X130.1330 Y111.8310
N2372  X130.0230 Y112.3090
N2373  X129.9360 Y112.7960
N2374  X129.8730 Y113.2900
N2375  X129.8350 Y113.7920
N2376  X129.8220 Y114.3000
N2377  X129.8350 Y114.8080
N2378  X129.8730 Y115.3100
N2379  X129.9360 Y115.8040
N2380  X130.0230 Y116.2910
N2381  X130.1330 Y116.7690
N2382  X130.2660 Y117.2370
N2383  X130.4220 Y117.6960
N2384  X130.5980 Y118.1450
N2385  X130.7960 Y118.5830
N2386  X131.0140 Y119.0080
N2387  X131.2520 Y119.4220
N2388  X131.5090 Y119.8230
N2389  X131.7840 Y120.2100
N2390  X132.0780 Y120.5830
N2391  X132.3880 Y120.9420
N2392  X132.7150 Y121.2850
N2393  X133.0580 Y121.6120
N2394  X133.4170 Y121.9220
N2395  X133.7900 Y122.2160
N2396  X134.1770 Y122.4910
N2397  X134.5780 Y122.7480
N2398  X134.9920 Y122.9860
N2399  X135.4170 Y123.2040
N2400  X135.8550 Y123.4020
N2401  X136.3030 Y123.5780
N2402  X136.7630 Y123.7340
N2403  X137.2310 Y123.8670
N2404  X137.7090 Y123.9770
N2405  X138.1960 Y124.0640
N2406  X138.6900 Y124.1270
N2407  X139.1920 Y124.1650
N2408  X139.7000 Y124.1780
N2409  X140.2080 Y124.1650
N2410  X140.7100 Y124.1270
N2411  X141.2040 Y124.0640
N2412  X141.6900 Y123.9770
N2413  X142.1680 Y123.8670
N2414  X142.6380 Y123.7340
N2415  X143.0960 Y123.5780
N2416  X143.5440 Y123.4020
N2417  X143.9820 Y123.2040
N2418  X144.4080 Y122.9860
N2419  X144.8220 Y122.7480
N2420  X145.2220 Y122.4910
N2421  X145.6100 Y122.2160
N2422  X145.9830 Y121.9220
N2423  X146.3420 Y121.6120
N2424  X146.6850 Y121.2850
N2425  X147.0130 Y120.9420
N2426  X147.3220 Y120.5830
N2427  X147.6150 Y120.2100
N2428  X147.8900 Y119.8230
N2429  X148.1470 Y119.4220
N2430  X148.3860 Y119.0080
N2431  X148.6040 Y118.5830
N2432  X148.8010 Y118.1450
N2433  X148.9780 Y117.6960
N2434  X149.1330 Y117.2370
N2435  X149.2670 Y116.7690
N2436  X149.3780 Y116.2910
N2437  X149.4640 Y115.8040
N2438  X149.5260 Y115.3100
N2439  X149.5650 Y114.8080
N2440  X149.5780 Y114.3000
N2441 G0 Z2.0000
N2442  X152.4000
N2443 G1 Z0.0000
N2444  X152.3830 Y113.6460
N2445  X152.3350 Y113.0020
N2446  X152.2540 Y112.3660
N2447  X152.1420 Y111.7400
N2448  X152.0000 Y111.1260
N2449  X151.8290 Y110.5230
N2450  X151.6290 Y109.9330
N2451  X151.4010 Y109.3570
N2452  X151.1470 Y108.7940
N2453  X150.8670 Y108.2460
N2454  X150.5610 Y107.7140
N2455  X150.2310 Y107.1990
N2456  X149.8760 Y106.7010
N2457  X149.5000 Y106.2220
N2458  X149.1010 Y105.7610
N2459  X148.6810 Y105.3200
N2460  X148.2390 Y104.8990
N2461  X147.7790 Y104.5000
N2462  X147.2990 Y104.1230
N2463  X146.8010 Y103.7690
N2464  X146.2860 Y103.4390
N2465  X145.7540 Y103.1330
N2466  X145.2060 Y102.8520
N2467  X144.6430 Y102.5980
N2468  X144.0670 Y102.3710
N2469  X143.4760 Y102.1710
N2470  X142.8740 Y102.0000
N2471  X142.2600 Y101.8580
N2472  X141.6350 Y101.7460
N2473  X140.9990 Y101.6660
N2474  X140.3540 Y101.6170
N2475  X139.7000 Y101.6000
N2476  X139.0460 Y101.6170
N2477  X138.4010 Y101.6660
N2478  X137.7660 Y101.7460
N2479  X137.1400 Y101.8580
N2480  X136.5260 Y102.0000
N2481  X135.9230 Y102.1710
N2482  X135.3330 Y102.3710
N2483  X134.7560 Y102.5980
N2484  X134.1940 Y102.8520
N2485  X133.6460 Y103.1330
N2486  X133.1140 Y103.4390
N2487  X132.5990 Y103.7690
N2488  X132.1010 Y104.1230
N2489  X131.6220 Y104.5000
N2490  X131.1610 Y104.8990
N2491  X130.7200 Y105.3200
N2492  X130.2990 Y105.7610
N2493  X129.9000 Y106.2220
N2494  X129.5230 Y106.7010
N2495  X129.1690 Y107.1990
N2496  X128.8390 Y107.7140
N2497  X128.5330 Y108.2460
N2498  X128.2520 Y108.7940
N2499  X127.9980 Y109.3570
N2500  X127.7710 Y109.9330
N2501  X127.5710 Y110.5230
N2502  X127.4000 Y111.1260
N2503  X127.2580 Y111.7400
N2504  X127.1460 Y112.3660
N2505  X127.0660 Y113.0020
N2506  X127.0170 Y113.6460
N2507  X127.0000 Y114.3000
N2508  X126.9830 Y113.6460
N2509  X126.9340 Y113.0020
N2510  X126.8540 Y112.3660
N2511  X126.7420 Y111.7400
N2512  X126.6000 Y111.1260
N2513  X126.4290 Y110.5230
N2514  X126.2290 Y109.9330
N2515  X126.0020 Y109.3570
N2516  X125.7480 Y108.7940
N2517  X125.4670 Y108.2460
N2518  X125.1610 Y107.7140
N2519  X124.8310 Y107.1990
N2520  X124.4770 Y106.7010
N2521  X124.1000 Y106.2220
N2522  X123.7010 Y105.7610
N2523  X123.2800 Y105.3200
N2524  X122.8390 Y104.8990
N2525  X122.3780 Y104.5000
N2526  X121.8990 Y104.1230
N2527  X121.4010 Y103.7690
N2528  X120.8860 Y103.4390
N2529  X120.3540 Y103.1330
N2530  X119.8060 Y102.8520
N2531  X119.2430 Y102.5980
N2532  X118.6670 Y102.3710
N2533  X118.0770 Y102.1710
N2534  X117.4740 Y102.0000
N2535  X116.8600 Y101.8580
N2536  X116.2340 Y101.7460
N2537  X115.5980 Y101.6660
N2538  X114.9540 Y101.6170
N2539  X114.3000 Y101.6000
N2540  X113.6460 Y101.6170
N2541  X113.0020 Y101.6660
N2542  X112.3660 Y101.7460
N2543  X111.7400 Y101.8580
N2544  X111.1260 Y102.0000
N2545  X110.5230 Y102.1710
N2546  X109.9330 Y102.3710
N2547  X109.3560 Y102.5980
N2548  X108.7940 Y102.8520
N2549  X108.2460 Y103.1330
N2550  X107.7140 Y103.4390
N2551  X107.1990 Y103.7690
N2552  X106.7010 Y104.1230
N2553  X106.2220 Y104.5000
N2554  X105.7610 Y104.8990
N2555  X105.3200 Y105.3200
N2556  X104.8990 Y105.7610
N2557  X104.5000 Y106.2220
N2558  X104.1230 Y106.7010
N2559  X103.7690 Y107.1990
N2560  X103.4380 Y107.7140
N2561  X103.1330 Y108.2460
N2562  X102.8520 Y108.7940
N2563  X102.5980 Y109.3570
N2564  X102.3710 Y109.9330
N2565  X102.1710 Y110.5230
N2566  X102.0000 Y111.1260
N2567  X101.8580 Y111.7400
N2568  X101.7460 Y112.3660
N2569  X101.6660 Y113.0020
N2570  X101.6170 Y113.6460
N2571  X101.6000 Y114.3000
N2572  X101.6170 Y114.9540
N2573  X101.6660 Y115.5980
N2574  X101.7460 Y116.2340
N2575  X101.8580 Y116.8600
N2576  X102.0000 Y117.4740
N2577  X102.1710 Y118.0770
N2578  X102.3710 Y118.6670
N2579  X102.5980 Y119.2440
N2580  X102.8520 Y119.8060
N2581  X103.1330 Y120.3540
N2582  X103.4380 Y120.8860
N2583  X103.7690 Y121.4010
N2584  X104.1230 Y121.8990
N2585  X104.5000 Y122.3780
N2586  X104.8990 Y122.8390
N2587  X105.3200 Y123.2800
N2588  X105.7610 Y123.7010
N2589  X106.2220 Y124.1000
N2590  X106.7010 Y124.4770
N2591  X107.1990 Y124.8310
N2592  X107.7140 Y125.1620
N2593  X108.2460 Y125.4670
N2594  X108.7940 Y125.7480
N2595  X109.3560 Y126.0020
N2596  X109.9330 Y126.2290
N2597  X110.5230 Y126.4290
N2598  X111.1260 Y126.6000
N2599  X111.7400 Y126.7420
N2600  X112.3660 Y126.8540
N2601  X113.0020 Y126.9340
N2602  X113.6460 Y126.9830
N2603  X114.3000 Y127.0000
N2604  X114.9540 Y126.9830
N2605  X115.5980 Y126.9340
N2606  X116.2340 Y126.8540
N2607  X116.8600 Y126.7420
N2608  X117.4740 Y126.6000
N2609  X118.0770 Y126.4290
N2610  X118.6670 Y126.2290
N2611  X119.2430 Y126.0020
N2612  X119.8060 Y125.7480
N2613  X120.3540 Y125.4670
N2614  X120.8860 Y125.1620
N2615  X121.4010 Y124.8310
N2616  X121.8990 Y124.4770
N2617  X122.3780 Y124.1000
N2618  X122.8390 Y123.7010
N2619  X123.2800 Y123.2800
N2620  X123.7010 Y122.8390
N2621  X124.1000 Y122.3780
N2622  X124.4770 Y121.8990
N2623  X124.8310 Y121.4010
N2624  X125.1610 Y120.8860
N2625  X125.4670 Y120.3540
N2626  X125.7480 Y119.8060
N2627  X126.0020 Y119.2440
N2628  X126.2290 Y118.6670
N2629  X126.4290 Y118.0770
N2630  X126.6000 Y117.4740
N2631  X126.7420 Y116.8600
N2632  X126.8540 Y116.2340
N2633  X126.9340 Y115.5980
N2634  X126.9830 Y114.9540
N2635  X127.0000 Y114.3000
N2636  X127.0170 Y114.9540
N2637  X127.0660 Y115.5980
N2638  X127.1460 Y116.2340
N2639  X127.2580 Y116.8600
N2640  X127.4000 Y117.4740
N2641  X127.5710 Y118.0770
N2642  X127.7710 Y118.6670
N2643  X127.9980 Y119.2440
N2644  X128.2520 Y119.8060
N2645  X128.5330 Y120.3540
N2646  X128.8390 Y120.8860
N2647  X129.1690 Y121.4010
N2648  X129.5230 Y121.8990
N2649  X129.9000 Y122.3780
N2650  X130.2990 Y122.8390
N2651  X130.7200 Y123.2800
N2652  X131.1610 Y123.7010
N2653  X131.6220 Y124.1000
N2654  X132.1010 Y124.4770
N2655  X132.5990 Y124.8310
N2656  X133.1140 Y125.1620
N2657  X133.6460 Y125.4670
N2658  X134.1940 Y125.7480
N2659  X134.7560 Y126.0020
N2660  X135.3330 Y126.2290
N2661  X135.9230 Y126.4290
N2662  X136.5260 Y126.6000
N2663  X137.1400 Y126.7420
N2664  X137.7660 Y126.8540
N2665  X138.4010 Y126.9340
N2666  X139.0460 Y126.9830
N2667  X139.7000 Y127.0000
N2668  X140.3540 Y126.9830
N2669  X140.9990 Y126.9340
N2670  X141.6350 Y126.8540
N2671  X142.2600 Y126.7420
N2672  X142.8740 Y126.6000
N2673  X143.4760 Y126.4290
N2674  X144.0670 Y126.2290
N2675  X144.6430 Y126.0020
N2676  X145.2060 Y125.7480
N2677  X145.7540 Y125.4670
N2678  X146.2860 Y125.1620
N2679  X146.8010 Y124.8310
N2680  X147.2990 Y124.4770
N2681  X147.7790 Y124.1000
N2682  X148.2390 Y123.7010
N2683  X148.6810 Y123.2800
N2684  X149.1010 Y122.8390
N2685  X149.5000 Y122.3780
N2686  X149.8760 Y121.8990
N2687  X150.2310 Y121.4010
N2688  X150.5610 Y120.8860
N2689  X150.8670 Y120.3540
N2690  X151.1470 Y119.8060
N2691  X151.4010 Y119.2440
N2692  X151.6290 Y118.6670
N2693  X151.8290 Y118.0770
N2694  X152.0000 Y117.4740
N2695  X152.1420 Y116.8600
N2696  X152.2540 Y116.2340
N2697  X152.3350 Y115.5980
N2698  X152.3830 Y114.9540
N2699  X152.4000 Y114.3000
N2700 G0 Z2.0000
N2701  X177.8000 Y101.6000
N2702 G1 Z0.0000
N2703  X101.6000
N2704  Y25.4000
N2705 G0 Z2.0000
N2706  X98.7778 Y50.8000
N2707 G1 Z0.0000
N2708  X104.4220
N2709 G0 Z2.0000
N2710  X107.4560 Y60.9600
N2711 G1 Z0.0000
N2712  X106.8740
N2713  Y64.6790
N2714  X106.6290 Y64.4767
N2715  X106.3220 Y64.2771
N2716  X105.9970 Y64.0999
N2717  X105.7080 Y63.9757
N2718  Y64.5397
N2719  X105.9430 Y64.6594
N2720  X106.1650 Y64.7929
N2721  X106.3720 Y64.9393
N2722  X106.5630 Y65.0974
N2723  X106.7310 Y65.2582
N2724  X106.8740 Y65.4185
N2725  X106.9910 Y65.5771
N2726  X107.0810 Y65.7328
N2727  X107.4560
N2728  Y60.9600
N2729 G0 Z2.0000
N2730  X109.1460 Y64.0124
N2731 G1 Z0.0000
N2732  X108.9830 Y64.9222
N2733  Y65.7050
N2734  X109.6490
N2735  Y64.9222
N2736  X109.5030 Y64.0124
N2737  X109.1460
N2738 G0 Z2.0000
N2739  X110.2110
N2740 G1 Z0.0000
N2741  X110.0510 Y64.9222
N2742  Y65.7050
N2743  X110.7170
N2744  Y64.9222
N2745  X110.5620 Y64.0124
N2746  X110.2110
N2747 G0 Z2.0000
N2748  X98.7778 Y76.2000
N2749 G1 Z0.0000
N2750  X104.4220
N2751 G0 Z2.0000
N2752  X80.9094 Y65.1032
N2753 G1 Z0.0000
N2754  X80.7237 Y66.1721
N2755  Y67.0912
N2756  X81.5018
N2757  Y66.1721
N2758  X81.3197 Y65.1032
N2759  X80.9094
N2760 G0 Z2.0000
N2761  X79.6513
N2762 G1 Z0.0000
N2763  X79.4615 Y66.1721
N2764  Y67.0912
N2765  X80.2396
N2766  Y66.1721
N2767  X80.0688 Y65.1032
N2768  X79.6513
N2769 G0 Z2.0000
N2770  X76.1251 Y64.5496
N2771 G1 Z0.0000
N2772  X75.9233 Y64.6339
N2773  X75.7503 Y64.7364
N2774  X75.6053 Y64.8561
N2775  X75.4881 Y64.9919
N2776  X75.3964 Y65.1414
N2777  X75.3318 Y65.3064
N2778  X75.2936 Y65.4862
N2779  X75.2810 Y65.6799
N2780  X75.3071 Y65.9700
N2781  X75.3890 Y66.2362
N2782  X75.5261 Y66.4786
N2783  X75.7174 Y66.6968
N2784  X75.9536 Y66.8762
N2785  X76.2261 Y67.0050
N2786  X76.5347 Y67.0826
N2787  X76.8793 Y67.1086
N2788  X77.2244 Y67.0822
N2789  X77.5357 Y67.0032
N2790  X77.8119 Y66.8715
N2791  X78.0522 Y66.6872
N2792  X78.2464 Y66.4636
N2793  X78.3853 Y66.2188
N2794  X78.4688 Y65.9515
N2795  X78.4967 Y65.6610
N2796  X78.4836 Y65.4729
N2797  X78.4453 Y65.2992
N2798  X78.3814 Y65.1386
N2799  X78.2921 Y64.9901
N2800  X78.1758 Y64.8546
N2801  X78.0339 Y64.7364
N2802  X77.8657 Y64.6350
N2803  X77.6710 Y64.5496
N2804  X77.9112 Y64.4518
N2805  X78.1222 Y64.3301
N2806  X78.3031 Y64.1835
N2807  X78.4531 Y64.0108
N2808  X78.5685 Y63.8158
N2809  X78.6525 Y63.6029
N2810  X78.7039 Y63.3719
N2811  X78.7213 Y63.1228
N2812  X78.6892 Y62.7803
N2813  X78.5946 Y62.4662
N2814  X78.4372 Y62.1808
N2815  X78.2168 Y61.9237
N2816  X77.9426 Y61.7099
N2817  X77.6307 Y61.5582
N2818  X77.2799 Y61.4681
N2819  X76.8889 Y61.4381
N2820  X76.4963 Y61.4671
N2821  X76.1443 Y61.5586
N2822  X75.8326 Y61.7118
N2823  X75.5607 Y61.9256
N2824  X75.3385 Y62.1828
N2825  X75.1810 Y62.4719
N2826  X75.0872 Y62.7921
N2827  X75.0561 Y63.1418
N2828  X75.0726 Y63.4013
N2829  X75.1249 Y63.6396
N2830  X75.2121 Y63.8561
N2831  X75.3339 Y64.0506
N2832  X75.4868 Y64.2174
N2833  X75.6700 Y64.3569
N2834  X75.8829 Y64.4681
N2835  X76.1251 Y64.5496
N2836 G0 Z2.0000
N2837  X72.9233 Y61.5244
N2838 G1 Z0.0000
N2839  Y62.8557
N2840  X70.4856
N2841  Y63.4781
N2842  X73.0789 Y67.0912
N2843  X73.6149
N2844  Y63.4781
N2845  X74.3756
N2846  Y62.8557
N2847  X73.6149
N2848  Y61.5244
N2849  X72.9233
N2850 G0 Z2.0000
N2851  X68.9199
N2852 G1 Z0.0000
N2853  Y62.3025
N2854  X69.6979
N2855  Y61.5244
N2856  X68.9199
N2857 G0 Z2.0000
N2858  X65.2626 Y64.5496
N2859 G1 Z0.0000
N2860  X65.0608 Y64.6339
N2861  X64.8878 Y64.7364
N2862  X64.7428 Y64.8561
N2863  X64.6256 Y64.9919
N2864  X64.5340 Y65.1414
N2865  X64.4693 Y65.3064
N2866  X64.4311 Y65.4862
N2867  X64.4185 Y65.6799
N2868  X64.4446 Y65.9700
N2869  X64.5265 Y66.2362
N2870  X64.6636 Y66.4786
N2871  X64.8549 Y66.6968
N2872  X65.0912 Y66.8762
N2873  X65.3636 Y67.0050
N2874  X65.6722 Y67.0826
N2875  X66.0168 Y67.1086
N2876  X66.3621 Y67.0822
N2877  X66.6732 Y67.0032
N2878  X66.9494 Y66.8715
N2879  X67.1897 Y66.6872
N2880  X67.3839 Y66.4636
N2881  X67.5228 Y66.2188
N2882  X67.6064 Y65.9515
N2883  X67.6342 Y65.6610
N2884  X67.6211 Y65.4729
N2885  X67.5828 Y65.2992
N2886  X67.5190 Y65.1386
N2887  X67.4296 Y64.9901
N2888  X67.3133 Y64.8546
N2889  X67.1714 Y64.7364
N2890  X67.0032 Y64.6350
N2891  X66.8085 Y64.5496
N2892  X67.0487 Y64.4518
N2893  X67.2597 Y64.3301
N2894  X67.4407 Y64.1835
N2895  X67.5906 Y64.0108
N2896  X67.7060 Y63.8158
N2897  X67.7900 Y63.6029
N2898  X67.8414 Y63.3719
N2899  X67.8589 Y63.1228
N2900  X67.8267 Y62.7803
N2901  X67.7321 Y62.4662
N2902  X67.5749 Y62.1808
N2903  X67.3543 Y61.9237
N2904  X67.0801 Y61.7099
N2905  X66.7683 Y61.5582
N2906  X66.4174 Y61.4681
N2907  X66.0264 Y61.4381
N2908  X65.6337 Y61.4671
N2909  X65.2819 Y61.5586
N2910  X64.9703 Y61.7118
N2911  X64.6982 Y61.9256
N2912  X64.4760 Y62.1828
N2913  X64.3185 Y62.4719
N2914  X64.2247 Y62.7921
N2915  X64.1938 Y63.1418
N2916  X64.2103 Y63.4013
N2917  X64.2624 Y63.6396
N2918  X64.3496 Y63.8561
N2919  X64.4715 Y64.0506
N2920  X64.6243 Y64.2174
N2921  X64.8075 Y64.3569
N2922  X65.0204 Y64.4681
N2923  X65.2626 Y64.5496
N2924 G0 Z2.0000
N2925  X60.2400 Y64.7921
N2926 G1 Z0.0000
N2927  Y65.5700
N2928  X61.0181
N2929  Y64.7921
N2930  X60.2400
N2931 G0 Z2.0000
N2932  Y61.5244
N2933 G1 Z0.0000
N2934  Y62.3025
N2935  X61.0181
N2936  Y61.5244
N2937  X60.2400
N2938 G0 Z2.0000
N2939  X55.5822 Y61.2307
N2940 G1 Z0.0000
N2941  X56.2739 Y61.1440
N2942  X56.3022 Y60.9915
N2943  X56.3506 Y60.8622
N2944  X56.4179 Y60.7554
N2945  X56.5035 Y60.6706
N2946  X56.6404 Y60.5817
N2947  X56.8011 Y60.5192
N2948  X56.9851 Y60.4821
N2949  X57.1922 Y60.4697
N2950  X57.4124 Y60.4812
N2951  X57.6074 Y60.5160
N2952  X57.7765 Y60.5738
N2953  X57.9183 Y60.6547
N2954  X58.0358 Y60.7556
N2955  X58.1328 Y60.8758
N2956  X58.2093 Y61.0149
N2957  X58.2649 Y61.1722
N2958  X58.2876 Y61.3006
N2959  X58.3033 Y61.4861
N2960  X58.3121 Y61.7282
N2961  X58.3137 Y62.0258
N2962  X58.0739 Y61.8062
N2963  X57.8078 Y61.6496
N2964  X57.5144 Y61.5558
N2965  X57.1933 Y61.5244
N2966  X56.9893 Y61.5339
N2967  X56.7978 Y61.5621
N2968  X56.6186 Y61.6090
N2969  X56.4514 Y61.6747
N2970  X56.2963 Y61.7593
N2971  X56.1529 Y61.8626
N2972  X56.0213 Y61.9847
N2973  X55.9012 Y62.1256
N2974  X55.6994 Y62.4407
N2975  X55.5568 Y62.7862
N2976  X55.4719 Y63.1619
N2977  X55.4439 Y63.5675
N2978  X55.4551 Y63.8508
N2979  X55.4947 Y64.1233
N2980  X55.5614 Y64.3846
N2981  X55.6538 Y64.6347
N2982  X55.7704 Y64.8635
N2983  X55.9108 Y65.0664
N2984  X56.0749 Y65.2424
N2985  X56.2625 Y65.3899
N2986  X56.4689 Y65.5060
N2987  X56.6947 Y65.5893
N2988  X56.9387 Y65.6396
N2989  X57.1999 Y65.6564
N2990  X57.5421 Y65.6187
N2991  X57.8536 Y65.5086
N2992  X58.1342 Y65.3256
N2993  X58.3829 Y65.0688
N2994  Y65.5700
N2995  X59.0054
N2996  Y62.0833
N2997  X58.9926 Y61.6462
N2998  X58.9567 Y61.2782
N2999  X58.8971 Y60.9790
N3000  X58.8133 Y60.7482
N3001  X58.7021 Y60.5618
N3002  X58.5642 Y60.3961
N3003  X58.3985 Y60.2514
N3004  X58.2046 Y60.1271
N3005  X57.9829 Y60.0267
N3006  X57.7389 Y59.9556
N3007  X57.4715 Y59.9132
N3008  X57.1799 Y59.8993
N3009  X56.8339 Y59.9182
N3010  X56.5249 Y59.9806
N3011  X56.2511 Y60.0854
N3012  X56.0119 Y60.2312
N3013  X55.8165 Y60.4165
N3014  X55.6806 Y60.6456
N3015  X55.6028 Y60.9174
N3016  X55.5822 Y61.2307
N3017 G0 Z2.0000
N3018  X54.0129 Y62.0258
N3019 G1 Z0.0000
N3020  X53.8279 Y61.8762
N3021  X53.6463 Y61.7507
N3022  X53.4667 Y61.6489
N3023  X53.2883 Y61.5707
N3024  X52.9181 Y61.4707
N3025  X52.5240 Y61.4381
N3026  X52.2053 Y61.4568
N3027  X51.9268 Y61.5178
N3028  X51.6879 Y61.6199
N3029  X51.4878 Y61.7621
N3030  X51.3274 Y61.9351
N3031  X51.2146 Y62.1310
N3032  X51.1478 Y62.3494
N3033  X51.1257 Y62.5903
N3034  X51.1325 Y62.7333
N3035  X51.1583 Y62.8715
N3036  X51.2021 Y63.0042
N3037  X51.2625 Y63.1301
N3038  X51.4192 Y63.3494
N3039  X51.6210 Y63.5224
N3040  X51.8556 Y63.6506
N3041  X52.1203 Y63.7458
N3042  X52.2344 Y63.7703
N3043  X52.3757 Y63.7964
N3044  X52.5435 Y63.8228
N3045  X52.7371 Y63.8482
N3046  X53.1276 Y63.8993
N3047  X53.4649 Y63.9557
N3048  X53.7476 Y64.0172
N3049  X53.9744 Y64.0833
N3050  X53.9774 Y64.1981
N3051  X53.9785 Y64.2624
N3052  X53.9656 Y64.4564
N3053  X53.9290 Y64.6196
N3054  X53.8683 Y64.7519
N3055  X53.7831 Y64.8532
N3056  X53.6344 Y64.9537
N3057  X53.4544 Y65.0265
N3058  X53.2425 Y65.0710
N3059  X52.9986 Y65.0858
N3060  X52.7699 Y65.0746
N3061  X52.5746 Y65.0432
N3062  X52.4119 Y64.9913
N3063  X52.2807 Y64.9182
N3064  X52.1724 Y64.8176
N3065  X52.0793 Y64.6856
N3066  X52.0013 Y64.5215
N3067  X51.9382 Y64.3253
N3068  X51.2467 Y64.4117
N3069  X51.2988 Y64.6146
N3070  X51.3671 Y64.7989
N3071  X51.4507 Y64.9631
N3072  X51.5489 Y65.1062
N3073  X51.6651 Y65.2292
N3074  X51.8056 Y65.3389
N3075  X51.9699 Y65.4340
N3076  X52.1575 Y65.5136
N3077  X52.3639 Y65.5757
N3078  X52.5867 Y65.6203
N3079  X52.8253 Y65.6474
N3080  X53.0797 Y65.6564
N3081  X53.3265 Y65.6478
N3082  X53.5503 Y65.6250
N3083  X53.7501 Y65.5875
N3084  X53.9254 Y65.5344
N3085  X54.0764 Y65.4682
N3086  X54.2069 Y65.3956
N3087  X54.3164 Y65.3157
N3088  X54.4040 Y65.2276
N3089  X54.5324 Y65.0176
N3090  X54.6182 Y64.7613
N3091  X54.6325 Y64.6560
N3092  X54.6433 Y64.5158
N3093  X54.6503 Y64.3406
N3094  X54.6526 Y64.1304
N3095  Y63.2196
N3096  X54.6535 Y62.7868
N3097  X54.6615 Y62.4414
N3098  X54.6756 Y62.1832
N3099  X54.6943 Y62.0124
N3100  X54.7551 Y61.7629
N3101  X54.8601 Y61.5244
N3102  X54.1511
N3103  X54.0615 Y61.7569
N3104  X54.0129 Y62.0258
N3105 G0 Z2.0000
N3106  X49.6412 Y61.5244
N3107 G1 Z0.0000
N3108  Y65.5700
N3109  X50.3326
N3110  Y61.5244
N3111  X49.6412
N3112 G0 Z2.0000
N3113  Y66.3133
N3114 G1 Z0.0000
N3115  Y67.0912
N3116  X50.3326
N3117  Y66.3133
N3118  X49.6412
N3119 G0 Z2.0000
N3120  X44.0672 Y61.5244
N3121 G1 Z0.0000
N3122  Y67.0912
N3123  X45.9835
N3124  X46.2876 Y67.0847
N3125  X46.5546 Y67.0700
N3126  X46.7835 Y67.0460
N3127  X46.9738 Y67.0117
N3128  X47.2024 Y66.9453
N3129  X47.4153 Y66.8568
N3130  X47.6114 Y66.7460
N3131  X47.7894 Y66.6131
N3132  X47.9946 Y66.4132
N3133  X48.1732 Y66.1885
N3134  X48.3246 Y65.9381
N3135  X48.4479 Y65.6617
N3136  X48.5414 Y65.3601
N3137  X48.6097 Y65.0397
N3138  X48.6518 Y64.6996
N3139  X48.6660 Y64.3383
N3140  X48.6554 Y64.0290
N3141  X48.6278 Y63.7392
N3142  X48.5824 Y63.4678
N3143  X48.5181 Y63.2142
N3144  X48.4388 Y62.9785
N3145  X48.3492 Y62.7654
N3146  X48.2490 Y62.5740
N3147  X48.1386 Y62.4033
N3148  X47.8951 Y62.1163
N3149  X47.6322 Y61.8983
N3150  X47.4869 Y61.8101
N3151  X47.3282 Y61.7350
N3152  X47.1553 Y61.6718
N3153  X46.9681 Y61.6193
N3154  X46.7657 Y61.5763
N3155  X46.5496 Y61.5468
N3156  X46.3193 Y61.5299
N3157  X46.0744 Y61.5244
N3158  X44.0672
N3159 G0 Z2.0000
N3160  X25.4000 Y177.8000
N3161 G1 Z0.0000
N3162  X177.8000
N3163  Y25.4000
N3164  X25.4000
N3165  Y177.8000
N3166 G0 Z2.0000
N3167  X16.9333 Y25.4000
N3168 G1 Z0.0000
N3169  X22.5778
N3170 G0 Z2.0000
N3171  X19.7556
N3172 G1 Z0.0000
N3173  Y177.8000
N3174 G0 Z2.0000
N3175  X16.9333
N3176 G1 Z0.0000
N3177  X22.5778
N3178 G0 Z2.0000
N3179  X26.4783 Y184.3470
N3180 G1 Z0.0000
N3181  X27.4790 Y184.4280
N3182  X27.5261 Y184.1380
N3183  X27.5969 Y183.8750
N3184  X27.6914 Y183.6400
N3185  X27.8093 Y183.4320
N3186  X27.9554 Y183.2470
N3187  X28.1390 Y183.0810
N3188  X28.3593 Y182.9320
N3189  X28.6151 Y182.8030
N3190  X28.8951 Y182.6960
N3191  X29.1942 Y182.6210
N3192  X29.5110 Y182.5780
N3193  X29.8444 Y182.5630
N3194  X30.1381 Y182.5740
N3195  X30.4147 Y182.6070
N3196  X30.6739 Y182.6650
N3197  X30.9151 Y182.7440
N3198  X31.1317 Y182.8430
N3199  X31.3193 Y182.9600
N3200  X31.4776 Y183.0930
N3201  X31.6061 Y183.2440
N3202  X31.7050 Y183.4060
N3203  X31.7758 Y183.5750
N3204  X31.8186 Y183.7510
N3205  X31.8329 Y183.9350
N3206  X31.8179 Y184.1170
N3207  X31.7762 Y184.2880
N3208  X31.7074 Y184.4470
N3209  X31.6103 Y184.5940
N3210  X31.4806 Y184.7280
N3211  X31.3169 Y184.8530
N3212  X31.1190 Y184.9670
N3213  X30.8861 Y185.0690
N3214  X30.7929 Y185.1010
N3215  X30.6756 Y185.1390
N3216  X30.5342 Y185.1820
N3217  X30.3685 Y185.2290
N3218  X30.1785 Y185.2810
N3219  X29.9640 Y185.3360
N3220  X29.7253 Y185.3970
N3221  X29.4621 Y185.4620
N3222  X28.9506 Y185.5930
N3223  X28.5231 Y185.7210
N3224  X28.1785 Y185.8440
N3225  X27.9158 Y185.9650
N3226  X27.6454 Y186.1250
N3227  X27.4126 Y186.3040
N3228  X27.2171 Y186.5010
N3229  X27.0581 Y186.7170
N3230  X26.9331 Y186.9460
N3231  X26.8451 Y187.1920
N3232  X26.7931 Y187.4500
N3233  X26.7758 Y187.7210
N3234  X26.7965 Y188.0210
N3235  X26.8613 Y188.3110
N3236  X26.9694 Y188.5930
N3237  X27.1206 Y188.8640
N3238  X27.3122 Y189.1120
N3239  X27.5443 Y189.3310
N3240  X27.8163 Y189.5170
N3241  X28.1279 Y189.6710
N3242  X28.4669 Y189.7900
N3243  X28.8261 Y189.8760
N3244  X29.2043 Y189.9280
N3245  X29.6006 Y189.9460
N3246  X30.0319 Y189.9280
N3247  X30.4389 Y189.8740
N3248  X30.8200 Y189.7830
N3249  X31.1746 Y189.6570
N3250  X31.4954 Y189.4960
N3251  X31.7772 Y189.3000
N3252  X32.0197 Y189.0710
N3253  X32.2229 Y188.8080
N3254  X32.3839 Y188.5180
N3255  X32.5039 Y188.2100
N3256  X32.5819 Y187.8830
N3257  X32.6172 Y187.5390
N3258  X31.5897 Y187.4570
N3259  X31.5243 Y187.8140
N3260  X31.4101 Y188.1250
N3261  X31.2474 Y188.3900
N3262  X31.0358 Y188.6100
N3263  X30.7715 Y188.7780
N3264  X30.4513 Y188.9000
N3265  X30.0747 Y188.9740
N3266  X29.6419 Y188.9990
N3267  X29.4090 Y188.9920
N3268  X29.1929 Y188.9750
N3269  X28.9936 Y188.9470
N3270  X28.8107 Y188.9080
N3271  X28.6443 Y188.8600
N3272  X28.4943 Y188.7990
N3273  X28.3604 Y188.7280
N3274  X28.2426 Y188.6440
N3275  X28.0504 Y188.4570
N3276  X27.9132 Y188.2530
N3277  X27.8308 Y188.0310
N3278  X27.8035 Y187.7900
N3279  X27.8221 Y187.5810
N3280  X27.8804 Y187.3930
N3281  X27.9781 Y187.2250
N3282  X28.1144 Y187.0750
N3283  X28.2051 Y187.0040
N3284  X28.3271 Y186.9330
N3285  X28.4804 Y186.8620
N3286  X28.6647 Y186.7900
N3287  X28.8800 Y186.7190
N3288  X29.1260 Y186.6470
N3289  X29.4028 Y186.5740
N3290  X29.7101 Y186.5000
N3291  X30.0192 Y186.4260
N3292  X30.3036 Y186.3570
N3293  X30.5631 Y186.2890
N3294  X30.7978 Y186.2240
N3295  X31.0074 Y186.1610
N3296  X31.1918 Y186.1010
N3297  X31.3510 Y186.0430
N3298  X31.4849 Y185.9870
N3299  X31.8131 Y185.8150
N3300  X32.0962 Y185.6210
N3301  X32.3338 Y185.4040
N3302  X32.5250 Y185.1670
N3303  X32.6711 Y184.9080
N3304  X32.7761 Y184.6320
N3305  X32.8394 Y184.3370
N3306  X32.8607 Y184.0240
N3307  X32.8368 Y183.7060
N3308  X32.7681 Y183.3990
N3309  X32.6542 Y183.1030
N3310  X32.4942 Y182.8140
N3311  X32.2907 Y182.5460
N3312  X32.0476 Y182.3080
N3313  X31.7646 Y182.1040
N3314  X31.4415 Y181.9310
N3315  X31.0868 Y181.7920
N3316  X30.7114 Y181.6930
N3317  X30.3147 Y181.6350
N3318  X29.8964 Y181.6150
N3319  X29.3740 Y181.6350
N3320  X28.8961 Y181.6960
N3321  X28.4624 Y181.7960
N3322  X28.0725 Y181.9350
N3323  X27.7229 Y182.1150
N3324  X27.4147 Y182.3350
N3325  X27.1469 Y182.5960
N3326  X26.9185 Y182.8960
N3327  X26.7328 Y183.2260
N3328  X26.5981 Y183.5790
N3329  X26.5136 Y183.9530
N3330  X26.4783 Y184.3470
N3331 G0 Z2.0000
N3332  X34.2896 Y181.7510
N3333 G1 Z0.0000
N3334  Y189.8100
N3335  X35.2903
N3336  Y186.9380
N3337  X35.4642 Y187.1220
N3338  X35.6496 Y187.2830
N3339  X35.8464 Y187.4180
N3340  X36.0544 Y187.5290
N3341  X36.2736 Y187.6170
N3342  X36.5040 Y187.6780
N3343  X36.7454 Y187.7150
N3344  X36.9978 Y187.7280
N3345  X37.3031 Y187.7110
N3346  X37.5887 Y187.6640
N3347  X37.8539 Y187.5830
N3348  X38.0982 Y187.4720
N3349  X38.3138 Y187.3310
N3350  X38.4978 Y187.1650
N3351  X38.6490 Y186.9780
N3352  X38.7668 Y186.7650
N3353  X38.8533 Y186.5130
N3354  X38.9164 Y186.2100
N3355  X38.9551 Y185.8580
N3356  X38.9682 Y185.4560
N3357  Y181.7510
N3358  X37.9675
N3359  Y185.4650
N3360  X37.9476 Y185.8130
N3361  X37.8894 Y186.1080
N3362  X37.7929 Y186.3540
N3363  X37.6575 Y186.5500
N3364  X37.4844 Y186.6970
N3365  X37.2814 Y186.8040
N3366  X37.0471 Y186.8680
N3367  X36.7803 Y186.8890
N3368  X36.5697 Y186.8740
N3369  X36.3672 Y186.8310
N3370  X36.1717 Y186.7600
N3371  X35.9821 Y186.6600
N3372  X35.8081 Y186.5350
N3373  X35.6615 Y186.3900
N3374  X35.5421 Y186.2250
N3375  X35.4493 Y186.0390
N3376  X35.3778 Y185.8240
N3377  X35.3283 Y185.5720
N3378  X35.2996 Y185.2830
N3379  X35.2903 Y184.9580
N3380  Y181.7510
N3381  X34.2896
N3382 G0 Z2.0000
N3383  X25.4000 Y177.8000
N3384 G1 Z0.0000
N3385  X177.8000 Y25.4000
N3386 G0 Z2.0000
N3387  Y22.5778
N3388 G1 Z0.0000
N3389  Y16.9333
N3390 G0 Z2.0000
N3391  X104.8310 Y13.6592
N3392 G1 Z0.0000
N3393  X104.5600 Y15.2001
N3394  Y16.5260
N3395  X105.6950
N3396  Y15.2001
N3397  X105.4300 Y13.6592
N3398  X104.8310
N3399 G0 Z2.0000
N3400  X103.0250
N3401 G1 Z0.0000
N3402  X102.7480 Y15.2001
N3403  Y16.5260
N3404  X103.8840
N3405  Y15.2001
N3406  X103.6340 Y13.6592
N3407  X103.0250
N3408 G0 Z2.0000
N3409  X101.5540 Y14.5515
N3410 G1 Z0.0000
N3411  X100.5260 Y14.4704
N3412  X100.4550 Y14.7415
N3413  X100.3720 Y14.9735
N3414  X100.2740 Y15.1657
N3415  X100.1640 Y15.3178
N3416  X99.9582 Y15.5028
N3417  X99.7300 Y15.6351
N3418  X99.4790 Y15.7150
N3419  X99.2056 Y15.7417
N3420  X98.9826 Y15.7236
N3421  X98.7721 Y15.6742
N3422  X98.5738 Y15.5924
N3423  X98.3879 Y15.4771
N3424  X98.1790 Y15.2853
N3425  X97.9928 Y15.0557
N3426  X97.8289 Y14.7875
N3427  X97.6874 Y14.4797
N3428  X97.5712 Y14.1154
N3429  X97.4878 Y13.6840
N3430  X97.4363 Y13.1842
N3431  X97.4158 Y12.6149
N3432  X97.6014 Y12.8680
N3433  X97.8068 Y13.0876
N3434  X98.0321 Y13.2727
N3435  X98.2769 Y13.4224
N3436  X98.5343 Y13.5362
N3437  X98.7981 Y13.6188
N3438  X99.0681 Y13.6691
N3439  X99.3440 Y13.6861
N3440  X99.5818 Y13.6737
N3441  X99.8113 Y13.6391
N3442  X100.0320 Y13.5823
N3443  X100.2450 Y13.5030
N3444  X100.4480 Y13.4012
N3445  X100.6420 Y13.2766
N3446  X100.8280 Y13.1293
N3447  X101.0040 Y12.9591
N3448  X101.1640 Y12.7701
N3449  X101.3020 Y12.5682
N3450  X101.4200 Y12.3532
N3451  X101.5170 Y12.1251
N3452  X101.5920 Y11.8838
N3453  X101.6460 Y11.6293
N3454  X101.6780 Y11.3614
N3455  X101.6890 Y11.0802
N3456  X101.6670 Y10.7080
N3457  X101.6060 Y10.3495
N3458  X101.5050 Y10.0045
N3459  X101.3630 Y9.6729
N3460  X101.1840 Y9.3652
N3461  X100.9760 Y9.0973
N3462  X100.7370 Y8.8683
N3463  X100.4680 Y8.6770
N3464  X100.1720 Y8.5256
N3465  X99.8585 Y8.4176
N3466  X99.5268 Y8.3530
N3467  X99.1754 Y8.3315
N3468  X98.8733 Y8.3454
N3469  X98.5861 Y8.3878
N3470  X98.3136 Y8.4588
N3471  X98.0556 Y8.5583
N3472  X97.8118 Y8.6862
N3473  X97.5825 Y8.8426
N3474  X97.3671 Y9.0273
N3475  X97.1658 Y9.2403
N3476  X96.9833 Y9.4851
N3477  X96.8254 Y9.7671
N3478  X96.6917 Y10.0864
N3479  X96.5824 Y10.4427
N3480  X96.4975 Y10.8359
N3481  X96.4368 Y11.2661
N3482  X96.4004 Y11.7330
N3483  X96.3883 Y12.2364
N3484  X96.4015 Y12.7994
N3485  X96.4417 Y13.3229
N3486  X96.5089 Y13.8068
N3487  X96.6032 Y14.2511
N3488  X96.7243 Y14.6556
N3489  X96.8722 Y15.0204
N3490  X97.0472 Y15.3453
N3491  X97.2490 Y15.6303
N3492  X97.4447 Y15.8456
N3493  X97.6569 Y16.0324
N3494  X97.8854 Y16.1910
N3495  X98.1303 Y16.3208
N3496  X98.3914 Y16.4222
N3497  X98.6689 Y16.4947
N3498  X98.9626 Y16.5383
N3499  X99.2726 Y16.5528
N3500  X99.5033 Y16.5443
N3501  X99.7240 Y16.5192
N3502  X99.9343 Y16.4776
N3503  X100.1340 Y16.4196
N3504  X100.3240 Y16.3449
N3505  X100.5020 Y16.2535
N3506  X100.6700 Y16.1456
N3507  X100.8270 Y16.0210
N3508  X100.9700 Y15.8804
N3509  X101.0980 Y15.7279
N3510  X101.2120 Y15.5632
N3511  X101.3110 Y15.3861
N3512  X101.3940 Y15.1967
N3513  X101.4620 Y14.9944
N3514  X101.5160 Y14.7794
N3515  X101.5540 Y14.5515
N3516 G0 Z2.0000
N3517  X25.4000 Y22.5778
N3518 G1 Z0.0000
N3519  Y16.9333
N3520 G0 Z2.0000
N3521  Y19.7556
N3522 G1 Z0.0000
N3523  X177.8000
N3524 G0 Z2.0000
N3525  Y101.6000
N3526 G1 Z0.0000
N3527  X177.7750 Y99.6332
N3528  X177.7010 Y97.6788
N3529  X177.5780 Y95.7372
N3530  X177.4070 Y93.8090
N3531  X177.1880 Y91.8950
N3532  X176.9220 Y89.9956
N3533  X176.6100 Y88.1114
N3534  X176.2510 Y86.2431
N3535  X175.8490 Y84.3912
N3536  X175.4010 Y82.5565
N3537  X174.9100 Y80.7393
N3538  X174.3740 Y78.9406
N3539  X173.7960 Y77.1606
N3540  X173.1760 Y75.4000
N3541  X172.5140 Y73.6594
N3542  X171.8110 Y71.9396
N3543  X171.0680 Y70.2410
N3544  X170.2860 Y68.5643
N3545  X169.4640 Y66.9100
N3546  X168.6030 Y65.2786
N3547  X167.7040 Y63.6710
N3548  X166.7680 Y62.0876
N3549  X165.7960 Y60.5290
N3550  X164.7860 Y58.9960
N3551  X163.7420 Y57.4889
N3552  X162.6610 Y56.0085
N3553  X161.5470 Y54.5553
N3554  X160.4000 Y53.1299
N3555  X159.2180 Y51.7329
N3556  X158.0040 Y50.3649
N3557  X156.7580 Y49.0267
N3558  X155.4820 Y47.7185
N3559  X154.1740 Y46.4413
N3560  X152.8350 Y45.1954
N3561  X151.4670 Y43.9817
N3562  X150.0710 Y42.8004
N3563  X148.6440 Y41.6525
N3564  X147.1920 Y40.5383
N3565  X145.7110 Y39.4586
N3566  X144.2040 Y38.4139
N3567  X142.6710 Y37.4047
N3568  X141.1120 Y36.4318
N3569  X139.5290 Y35.4957
N3570  X137.9210 Y34.5969
N3571  X136.2900 Y33.7363
N3572  X134.6360 Y32.9142
N3573  X132.9590 Y32.1314
N3574  X131.2600 Y31.3882
N3575  X129.5410 Y30.6856
N3576  X127.8000 Y30.0239
N3577  X126.0390 Y29.4038
N3578  X124.2590 Y28.8258
N3579  X122.4610 Y28.2907
N3580  X120.6430 Y27.7990
N3581  X118.8090 Y27.3513
N3582  X116.9570 Y26.9482
N3583  X115.0890 Y26.5903
N3584  X113.2040 Y26.2781
N3585  X111.3050 Y26.0122
N3586  X109.3910 Y25.7935
N3587  X107.4630 Y25.6222
N3588  X105.5210 Y25.4992
N3589  X103.5670 Y25.4249
N3590  X101.6000 Y25.4000
N3591  X99.6332 Y25.4249
N3592  X97.6788 Y25.4992
N3593  X95.7371 Y25.6222
N3594  X93.8090 Y25.7935
N3595  X91.8949 Y26.0122
N3596  X89.9956 Y26.2781
N3597  X88.1114 Y26.5903
N3598  X86.2431 Y26.9482
N3599  X84.3912 Y27.3513
N3600  X82.5565 Y27.7990
N3601  X80.7393 Y28.2907
N3602  X78.9404 Y28.8258
N3603  X77.1604 Y29.4038
N3604  X75.3999 Y30.0239
N3605  X73.6594 Y30.6856
N3606  X71.9396 Y31.3882
N3607  X70.2410 Y32.1314
N3608  X68.5642 Y32.9142
N3609  X66.9099 Y33.7363
N3610  X65.2786 Y34.5969
N3611  X63.6710 Y35.4957
N3612  X62.0875 Y36.4318
N3613  X60.5290 Y37.4047
N3614  X58.9958 Y38.4139
N3615  X57.4889 Y39.4586
N3616  X56.0083 Y40.5383
N3617  X54.5551 Y41.6525
N3618  X53.1297 Y42.8004
N3619  X51.7328 Y43.9817
N3620  X50.3649 Y45.1954
N3621  X49.0265 Y46.4413
N3622  X47.7185 Y47.7185
N3623  X46.4413 Y49.0267
N3624  X45.1954 Y50.3649
N3625  X43.9817 Y51.7329
N3626  X42.8004 Y53.1299
N3627  X41.6525 Y54.5553
N3628  X40.5382 Y56.0085
N3629  X39.4585 Y57.4889
N3630  X38.4138 Y58.9960
N3631  X37.4047 Y60.5290
N3632  X36.4318 Y62.0876
N3633  X35.4957 Y63.6710
N3634  X34.5969 Y65.2786
N3635  X33.7363 Y66.9100
N3636  X32.9142 Y68.5643
N3637  X32.1312 Y70.2410
N3638  X31.3882 Y71.9396
N3639  X30.6856 Y73.6594
N3640  X30.0237 Y75.4000
N3641  X29.4038 Y77.1606
N3642  X28.8258 Y78.9406
N3643  X28.2907 Y80.7393
N3644  X27.7990 Y82.5565
N3645  X27.3513 Y84.3912
N3646  X26.9481 Y86.2431
N3647  X26.5901 Y88.1114
N3648  X26.2781 Y89.9956
N3649  X26.0122 Y91.8950
N3650  X25.7935 Y93.8090
N3651  X25.6222 Y95.7372
N3652  X25.4992 Y97.6788
N3653  X25.4249 Y99.6332
N3654  X25.4000 Y101.6000
N3655  X25.4249 Y103.5670
N3656  X25.4992 Y105.5210
N3657  X25.6222 Y107.4630
N3658  X25.7935 Y109.3910
N3659  X26.0122 Y111.3050
N3660  X26.2781 Y113.2040
N3661  X26.5901 Y115.0890
N3662  X26.9481 Y116.9570
N3663  X27.3513 Y118.8090
N3664  X27.7990 Y120.6430
N3665  X28.2907 Y122.4610
N3666  X28.8258 Y124.2590
N3667  X29.4038 Y126.0390
N3668  X30.0237 Y127.8000
N3669  X30.6856 Y129.5410
N3670  X31.3882 Y131.2600
N3671  X32.1312 Y132.9590
N3672  X32.9142 Y134.6360
N3673  X33.7363 Y136.2900
N3674  X34.5969 Y137.9210
N3675  X35.4957 Y139.5290
N3676  X36.4318 Y141.1120
N3677  X37.4047 Y142.6710
N3678  X38.4138 Y144.2040
N3679  X39.4585 Y145.7110
N3680  X40.5382 Y147.1920
N3681  X41.6525 Y148.6440
N3682  X42.8004 Y150.0710
N3683  X43.9817 Y151.4670
N3684  X45.1954 Y152.8350
N3685  X46.4413 Y154.1740
N3686  X47.7185 Y155.4820
N3687  X49.0265 Y156.7580
N3688  X50.3649 Y158.0040
N3689  X51.7328 Y159.2180
N3690  X53.1297 Y160.4000
N3691  X54.5551 Y161.5470
N3692  X56.0083 Y162.6610
N3693  X57.4889 Y163.7420
N3694  X58.9958 Y164.7860
N3695  X60.5290 Y165.7960
N3696  X62.0875 Y166.7680
N3697  X63.6710 Y167.7040
N3698  X65.2786 Y168.6030
N3699  X66.9099 Y169.4640
N3700  X68.5642 Y170.2860
N3701  X70.2410 Y171.0680
N3702  X71.9396 Y171.8110
N3703  X73.6594 Y172.5140
N3704  X75.3999 Y173.1760
N3705  X77.1604 Y173.7960
N3706  X78.9404 Y174.3740
N3707  X80.7393 Y174.9100
N3708  X82.5565 Y175.4010
N3709  X84.3912 Y175.8490
N3710  X86.2431 Y176.2510
N3711  X88.1114 Y176.6100
N3712  X89.9956 Y176.9220
N3713  X91.8949 Y177.1880
N3714  X93.8090 Y177.4070
N3715  X95.7371 Y177.5780
N3716  X97.6788 Y177.7010
N3717  X99.6332 Y177.7750
N3718  X101.6000 Y177.8000
N3719  X103.5670 Y177.7750
N3720  X105.5210 Y177.7010
N3721  X107.4630 Y177.5780
N3722  X109.3910 Y177.4070
N3723  X111.3050 Y177.1880
N3724  X113.2040 Y176.9220
N3725  X115.0890 Y176.6100
N3726  X116.9570 Y176.2510
N3727  X118.8090 Y175.8490
N3728  X120.6430 Y175.4010
N3729  X122.4610 Y174.9100
N3730  X124.2590 Y174.3740
N3731  X126.0390 Y173.7960
N3732  X127.8000 Y173.1760
N3733  X129.5410 Y172.5140
N3734  X131.2600 Y171.8110
N3735  X132.9590 Y171.0680
N3736  X134.6360 Y170.2860
N3737  X136.2900 Y169.4640
N3738  X137.9210 Y168.6030
N3739  X139.5290 Y167.7040
N3740  X141.1120 Y166.7680
N3741  X142.6710 Y165.7960
N3742  X144.2040 Y164.7860
N3743  X145.7110 Y163.7420
N3744  X147.1920 Y162.6610
N3745  X148.6440 Y161.5470
N3746  X150.0710 Y160.4000
N3747  X151.4670 Y159.2180
N3748  X152.8350 Y158.0040
N3749  X154.1740 Y156.7580
N3750  X155.4820 Y155.4820
N3751  X156.7580 Y154.1740
N3752  X158.0040 Y152.8350
N3753  X159.2180 Y151.4670
N3754  X160.4000 Y150.0710
N3755  X161.5470 Y148.6440
N3756  X162.6610 Y147.1920
N3757  X163.7420 Y145.7110
N3758  X164.7860 Y144.2040
N3759  X165.7960 Y142.6710
N3760  X166.7680 Y141.1120
N3761  X167.7040 Y139.5290
N3762  X168.6030 Y137.9210
N3763  X169.4640 Y136.2900
N3764  X170.2860 Y134.6360
N3765  X171.0680 Y132.9590
N3766  X171.8110 Y131.2600
N3767  X172.5140 Y129.5410
N3768  X173.1760 Y127.8000
