( Code generated by dmap2gcode-0.04.py widget )
( by Scorch - 2014 )
(Settings used in dmap2gcode when this file was created)
(=========================================================)
(dmap2gcode_set show_axis  1 )
(dmap2gcode_set invert     1 )
(dmap2gcode_set normalize  0 )
(dmap2gcode_set cuttop     1 )
(dmap2gcode_set cutperim     1 )
(dmap2gcode_set disable_arcs 0 )
(dmap2gcode_set yscale     80 )
(dmap2gcode_set toptol     -0.127 )
(dmap2gcode_set vangle     45 )
(dmap2gcode_set stepover   1.02 )
(dmap2gcode_set plfeed     254 )
(dmap2gcode_set z_safe      5.0 )
(dmap2gcode_set z_cut       -3.5 )
(dmap2gcode_set diatool    3.17 )
(dmap2gcode_set origin     Top-Center )
(dmap2gcode_set tool       Flat )
(dmap2gcode_set units      mm )
(dmap2gcode_set plunge     simple )
(dmap2gcode_set feed       500 )
(dmap2gcode_set lace       None )
(dmap2gcode_set cangle     45.0 )
(dmap2gcode_set tolerance  0.0254 )
(dmap2gcode_set splitstep  0.25 )
(dmap2gcode_set gpre       "G17 G90 G64 M3 S3000 M7" )
(dmap2gcode_set gpost      "M5 M9 M2" )
(dmap2gcode_set scanpat    "Rows" )
(dmap2gcode_set scandir    "Alternating" )
(dmap2gcode_set imagefile  "C:/Users/HAL/Downloads/celtic-knot-hi.png" )
(dmap2gcode_set ROUGH_TOOL     Flat )
(dmap2gcode_set ROUGH_DIA      3.17 )
(dmap2gcode_set ROUGH_V_ANGLE  45 )
(dmap2gcode_set ROUGH_R_FEED   381 )
(dmap2gcode_set ROUGH_P_FEED   254 )
(dmap2gcode_set ROUGH_STEPOVER 1.02 )
(dmap2gcode_set ROUGH_DEPTH_PP 2.54 )
(dmap2gcode_set ROUGH_OFFSET   0.508 )
(dmap2gcode_set ROUGH_SCANPAT  "Rows" )
(dmap2gcode_set ROUGH_SCANDIR  "Alternating" )
(=========================================================)
G17 G90 G64 M3 S3000 M7
G21
G91.1
G0 Z5.0000
G64 P0.0254
F500.0000
G18
F254.0000
G0 X43.0162 Y0.0000
F500.0000
G1 Z-3.5000
 X2.0826
 X1.9390 Z0.0000
 X-1.9390
 X-2.0826 Z-3.5000
 X-43.0162
 Y-0.4309
 X-2.6571
 X-2.5135 Z0.0000
 X2.5135
 X2.6571 Z-3.5000
 X43.0162
 Y-0.8618
 X3.2316
 X3.0880 Z0.0000
 X-3.0880
 X-3.2316 Z-3.5000
 X-43.0162
 Y-1.2926
 X-3.6625
 X-3.5189 Z0.0000
 X3.5189
 X3.6625 Z-3.5000
 X43.0162
 Y-1.7235
 X4.2370
 X4.0934 Z0.0000
 X-4.0934
 X-4.2370 Z-3.5000
 X-43.0162
 Y-2.1544
 X-4.8115
 X-4.6679 Z0.0000
 X4.6679
 X4.8115 Z-3.5000
 X43.0162
 Y-2.5853
 X5.2424
 X5.0987 Z0.0000
 X-5.0987
 X-5.2424 Z-3.5000
 X-43.0162
 Y-3.0162
 X-5.6732
 X-5.5296 Z0.0000
 X5.5296
 X5.6732 Z-3.5000
 X43.0162
 Y-3.4470
 X6.2478
 X6.1041 Z0.0000
 X-6.1041
 X-6.2478 Z-3.5000
 X-43.0162
 Y-3.8779
 X-6.6786
 X-6.5350 Z0.0000
 X6.5350
 X6.6786 Z-3.5000
 X43.0162
 Y-4.3088
 X7.1095
 X6.9659 Z0.0000
 X-6.9659
 X-7.1095 Z-3.5000
 X-43.0162
 Y-4.7397
 X-7.5404
 X-7.3968 Z0.0000
 X7.3968
 X7.5404 Z-3.5000
 X43.0162
 Y-5.1706
 X7.9713
 X7.8276 Z0.0000
 X0.3591
 X0.2154 Z-0.2608
 X0.0718 Z-2.5255
 X-0.0718
 X-0.2154 Z-0.2608
 X-0.3591 Z0.0000
 X-7.8276
 X-7.9713 Z-3.5000
 X-43.0162
 Y-5.6014
 X-8.2585
 X-8.1149 Z0.0000
 X-0.9336
 X-0.7899 Z-0.1098
G2 X-0.5027 Y-5.6014 Z-3.5000 I48.9439 K2.4399
G1 X0.5027
G2 X0.7899 Y-5.6014 Z-0.1098 I-48.6567 K5.8301
G1 X0.9336 Z0.0000
 X8.1149
 X8.2585 Z-3.5000
 X43.0162
 Y-6.0323
 X8.6894
 X8.5458 Z0.0000
 X1.3645
G2 X1.0772 Y-6.0323 Z-3.4039 I30.8832 K-4.3203
G1 X0.9336 Z-3.5000
 X-0.9336
 X-1.0772 Z-3.4039
G2 X-1.3645 Y-6.0323 Z0.0000 I-31.1705 K-0.9164
G1 X-8.5458
 X-8.6894 Z-3.5000
 X-43.0162
 Y-6.4632
 X-9.1203
 X-8.9767 Z0.0000
 X-1.9390
 X-1.7953 Z-0.1510
G2 X-1.5081 Y-6.4632 Z-3.5000 I22.5424 K0.2467
G1 X1.5081
G2 X1.7953 Y-6.4632 Z-0.1510 I-22.2551 K3.5957
G1 X1.9390 Z0.0000
 X8.9767
 X9.1203 Z-3.5000
 X43.0162
 Y-6.8941
 X9.5512
 X9.4075 Z0.0000
 X2.3698
 X2.2262 Z-0.8510
 X2.0826 Z-3.2667
 X1.9390 Z-3.5000
 X0.7899
 X0.6463 Z-3.3490
 X0.3591
 X0.2154 Z-3.1706
 X0.0718 Z-0.7000
 X-0.0718
 X-0.2154 Z-3.1706
 X-0.3591 Z-3.3490
 X-0.6463
 X-0.7899 Z-3.5000
 X-1.9390
 X-2.0826 Z-3.2667
 X-2.2262 Z-0.8510
 X-2.3698 Z0.0000
 X-9.4075
 X-9.5512 Z-3.5000
 X-43.0162
 Y-7.3250
 X-9.8384
 X-9.6948 Z0.0000
 X-2.8007 Z-0.0137
G2 X-2.5135 Y-7.3250 Z-3.5000 I59.7893 K3.1717
G1 X-1.3645
 X-1.2208 Z-2.9373
 X-1.0772 Z-0.4392
 X-0.9336 Z0.0000
 X0.9336
 X1.0772 Z-0.4392
 X1.2208 Z-2.9373
 X1.3645 Z-3.5000
 X2.5135
G2 X2.8007 Y-7.3250 Z-0.0137 I-59.5020 K6.6580
G1 X2.9443 Z0.0000
 X9.6948
 X9.8384 Z-3.5000
 X43.0162
 Y-7.7558
 X10.2693
 X10.1257 Z0.0000
 X3.3752
 X3.2316 Z-0.0275
G3 X2.9443 Y-7.7558 Z-3.5000 I-41.4385 K1.6798
G1 X1.7953
G3 X1.5081 Y-7.7558 Z-0.0137 I149.3852 K14.0639
G1 X1.3645 Z0.0000
 X-1.5081 Z-0.0137
G3 X-1.7953 Y-7.7558 Z-3.5000 I-149.6725 K10.5776
G1 X-2.9443
G3 X-3.2316 Y-7.7558 Z-0.0275 I41.1513 K5.1523
G1 X-3.3752 Z0.0000
 X-10.1257
 X-10.2693 Z-3.5000
 X-43.0162
 Y-8.1867
 X-10.5566
 X-10.4129 Z0.0000
 X-3.8061
 X-3.6625 Z-0.0549
G2 X-3.3752 Y-8.1867 Z-3.5000 I30.8802 K0.8402
G1 X-2.2262
G3 X-1.9390 Y-8.1867 Z0.0000 I210.1352 K-15.4845
G1 X1.9390
G3 X2.2262 Y-8.1867 Z-3.5000 I-209.8480 K-18.9845
G1 X3.3752
G2 X3.6625 Y-8.1867 Z-0.0549 I-30.5930 K4.2853
G1 X3.8061 Z0.0000
 X10.4129
 X10.5566 Z-3.5000
 X43.0162
 Y-8.6176
 X10.8438
 X10.7002 Z0.0000
 X4.2370
 X4.0934 Z-0.0275
G3 X3.8061 Y-8.6176 Z-3.5000 I-26.4893 K0.4431
G1 X2.6571
G2 X2.3698 Y-8.6176 Z0.0000 I-93.3089 K-5.8963
G1 X-2.3698
G2 X-2.6571 Y-8.6176 Z-3.5000 I93.0216 K-9.3963
G1 X-3.8061
G3 X-4.0934 Y-8.6176 Z-0.0275 I26.2021 K3.9156
G1 X-4.2370 Z0.0000
 X-10.7002
 X-10.8438 Z-3.5000
 X-43.0162
 Y-9.0485
 X-11.2747
 X-11.1311 Z0.0000
 X-4.5242
G3 X-4.2370 Y-9.0485 Z-3.5000 I-47.3199 K-5.6454
G1 X-3.0880 Z-3.4863
G3 X-2.8007 Y-9.0485 Z0.0000 I62.8001 K-3.4194
G1 X2.8007
G3 X3.0880 Y-9.0485 Z-3.4863 I-62.5128 K-6.9057
G1 X3.2316 Z-3.5000
 X4.2370
G3 X4.5242 Y-9.0485 Z0.0000 I47.6071 K-2.1454
G1 X11.1311
 X11.2747 Z-3.5000
 X43.0162
 Y-9.4794
 X11.5619
 X11.4183 Z0.0000
 X4.9551
 X4.8115 Z-0.5627
 X4.6679 Z-3.2529
 X4.5242 Z-3.5000
 X3.5189 Z-3.4863
G2 X3.2316 Y-9.4794 Z0.0000 I-62.8001 K-3.4194
G1 X-3.2316
G2 X-3.5189 Y-9.4794 Z-3.4863 I62.5128 K-6.9057
G1 X-3.6625 Z-3.5000
 X-4.5242
 X-4.6679 Z-3.2529
 X-4.8115 Z-0.5627
 X-4.9551 Z0.0000
 X-11.4183
 X-11.5619 Z-3.5000
 X-43.0162
 Y-9.9102
 X-11.8492
 X-11.7056 Z0.0000
 X-5.3860
 X-5.2424 Z-0.0961
 X-5.0987 Z-2.6490
 X-4.9551 Z-3.5000
 X-3.9497
G2 X-3.6625 Y-9.9102 Z0.0000 I-40.6661 K5.0993
G1 X3.6625
G2 X3.9497 Y-9.9102 Z-3.5000 I40.9533 K1.5993
G1 X4.9551
 X5.0987 Z-2.6490
 X5.2424 Z-0.0961
 X5.3860 Z0.0000
 X11.7056
 X11.8492 Z-3.5000
 X43.0162
 Y-10.3411
 X12.1364
 X11.9928 Z0.0000
 X5.6732
G2 X5.3860 Y-10.3411 Z-3.5000 I56.1244 K-6.3680
G1 X4.3806
 X4.2370 Z-2.9647
 X4.0934 Z-0.2608
 X3.9497 Z0.0000
 X-3.9497
 X-4.0934 Z-0.2608
 X-4.2370 Z-2.9647
 X-4.3806 Z-3.5000
 X-5.3860
G2 X-5.6732 Y-10.3411 Z0.0000 I-53.9511 K-2.6661
G1 X-11.9928
 X-12.1364 Z-3.5000
 X-43.0162
 Y-10.7720
 X-12.4237
 X-12.2801 Z0.0000
 X-6.1041
 X-5.9605 Z-0.0824
 X-5.8169 Z-2.7314
 X-5.6732 Z-3.5000
 X-4.8115
 X-4.6679 Z-3.4039
 X-4.5242 Z-0.8647
 X-4.3806 Z0.0000
 X4.3806
 X4.5242 Z-0.8647
 X4.6679 Z-3.4039
 X4.8115 Z-3.5000
 X5.6732
 X5.8169 Z-2.7314
 X5.9605 Z-0.0824
 X6.1041 Z0.0000
 X12.2801
 X12.4237 Z-3.5000
 X43.0162
 Y-11.2029
 X12.7110
 X12.5673 Z0.0000
 X6.3914
 X6.2478 Z-0.7961
 X6.1041 Z-3.4176
 X5.9605 Z-3.5000
 X5.0987
G3 X4.8115 Y-11.2029 Z0.0000 I93.0215 K9.3963
G1 X-4.8115
G3 X-5.0987 Y-11.2029 Z-3.5000 I-93.3088 K5.8963
G1 X-5.9605
 X-6.1041 Z-3.4176
 X-6.2478 Z-0.7961
 X-6.3914 Z0.0000
 X-12.5673
 X-12.7110 Z-3.5000
 X-43.0162
 Y-11.6338
 X-12.9982
 X-12.8546 Z0.0000
 X-6.6786
G2 X-6.3914 Y-11.6338 Z-3.5000 I47.6069 K2.1454
G1 X-5.5296
 X-5.3860 Z-3.3627
 X-5.2424 Z-0.6588
 X-5.0987 Z0.0000
 X5.0987
 X5.2424 Z-0.6588
 X5.3860 Z-3.3627
 X5.5296 Z-3.5000
 X6.3914
G2 X6.6786 Y-11.6338 Z0.0000 I-47.3196 K5.6454
G1 X12.8546
 X12.9982 Z-3.5000
 X43.0162
 Y-12.0646
 X13.2855
 X13.1418 Z0.0000
 X7.1095
 X6.9659 Z-0.2608
 X6.8223 Z-3.1431
 X6.6786 Z-3.5000
 X5.8169
 X5.6732 Z-2.5529
 X5.5296 Z-0.0412
 X5.3860 Z0.0000
 X-5.3860
 X-5.5296 Z-0.0412
 X-5.6732 Z-2.5529
 X-5.8169 Z-3.5000
 X-6.6786
 X-6.8223 Z-3.1431
 X-6.9659 Z-0.2608
 X-7.1095 Z0.0000
 X-13.1418
 X-13.2855 Z-3.5000
 X-43.0162
 Y-12.4955
 X-13.5727
 X-13.4291 Z0.0000
 X-7.3968
 X-7.2531 Z-0.4804
 X-7.1095 Z-3.3353
 X-6.9659 Z-3.5000
 X-6.1041
G3 X-5.8169 Y-12.4955 Z0.0000 I29.6489 K-0.6716
G1 X5.8169
G3 X6.1041 Y-12.4955 Z-3.5000 I-29.3617 K-4.1716
G1 X6.9659
 X7.1095 Z-3.3353
 X7.2531 Z-0.4804
 X7.3968 Z0.0000
 X13.4291
 X13.5727 Z-3.5000
 X43.0162
 Y-12.9264
 X13.8600
 X13.7163 Z0.0000
 X7.6840
 X7.5404 Z-0.7686
 X7.3968 Z-3.4588
 X7.2531 Z-3.5000
 X6.5350
 X6.3914 Z-3.3216
 X6.2478 Z-0.4529
 X6.1041 Z0.0000
 X-6.1041
 X-6.2478 Z-0.4529
 X-6.3914 Z-3.3216
 X-6.5350 Z-3.5000
 X-7.2531
 X-7.3968 Z-3.4588
 X-7.5404 Z-0.7824
 X-7.6840 Z0.0000
 X-13.7163
 X-13.8600 Z-3.5000
 X-43.0162
 Y-13.3573
 X-14.0036
 X-13.8600 Z0.0000
 X-7.9713
G3 X-7.6840 Y-13.3573 Z-3.5000 I-26.8876 K-3.9685
G1 X-6.8223
 X-6.6786 Z-3.1157
 X-6.5350 Z-0.2333
 X-6.3914 Z0.0000
 X6.3914
 X6.5350 Z-0.2333
 X6.6786 Z-3.1157
 X6.8223 Z-3.5000
 X7.6840
G3 X7.9713 Y-13.3573 Z0.0000 I27.1749 K-0.4685
G1 X13.8600
 X14.0036 Z-3.5000
 X43.0162
 Y-13.7882
 X14.2908
 X14.1472 Z0.0000
 X8.2585
G2 X7.9713 Y-13.7882 Z-3.5000 I93.0216 K-9.3963
G1 X7.1095
 X6.9659 Z-2.8549
 X6.8223 Z-0.0824
 X6.6786 Z0.0000
 X-6.6786
 X-6.8223 Z-0.0824
 X-6.9659 Z-2.8549
 X-7.1095 Z-3.5000
 X-7.9713
G2 X-8.2585 Y-13.7882 Z0.0000 I-93.3089 K-5.8963
G1 X-14.1472
 X-14.2908 Z-3.5000
 X-43.0162
 Y-14.2190
 X-14.5781
 X-14.4345 Z0.0000
 X-8.5458
G3 X-8.2585 Y-14.2190 Z-3.5000 I-35.4365 K-4.6701
G1 X-7.3968
 X-7.2531 Z-2.5118
 X-7.1095 Z0.0000
 X7.1095
 X7.2531 Z-2.5118
 X7.3968 Z-3.5000
 X8.2585
G3 X8.5458 Y-14.2190 Z0.0000 I35.7238 K-1.1701
G1 X14.4345
 X14.5781 Z-3.5000
 X43.0162
 Y-14.6499
 X14.7217
 X14.5781 Z0.0000
 X8.8330
 X8.6894 Z-0.8235
 X8.5458 Z-3.4863
 X8.4022 Z-3.5000
 X7.6840
 X7.5404 Z-2.7176
 X7.3968 Z-0.0137
 X7.2531 Z0.0000
 X-7.3968 Z-0.0137
 X-7.5404 Z-2.7176
 X-7.6840 Z-3.5000
 X-8.5458 Z-3.4863
 X-8.6894 Z-0.8235
 X-8.8330 Z0.0000
 X-14.5781
 X-14.7217 Z-3.5000
 X-43.0162
 Y-15.0808
 X-15.0090
 X-14.8654 Z0.0000
 X-9.1203
 X-8.9767 Z-0.4804
 X-8.8330 Z-3.3765
 X-8.6894 Z-3.5000
 X-7.9713
 X-7.8276 Z-3.0333
 X-7.6840 Z-0.1235
 X-7.5404 Z0.0000
 X8.5458
 X8.6894 Z-0.0412
 X8.8330 Z-0.7961
G2 X9.1203 Y-15.0808 Z0.0000 I-2.7552 K1.4440
G1 X14.8654
 X15.0090 Z-3.5000
 X43.0162
 Y-15.5117
 X15.1526
 X15.0090 Z0.0000
 X-7.8276
 X-7.9713 Z-0.3020
 X-8.1149 Z-3.2667
 X-8.2585 Z-3.5000
 X-8.9767
 X-9.1203 Z-3.1843
 X-9.2639 Z-0.2196
 X-9.4075 Z0.0000
 X-15.0090
 X-15.1526 Z-3.5000
 X-43.0162
 Y-15.9425
 X-15.4399
 X-15.2962 Z0.0000
 X-9.5512
 X-9.4075 Z-2.5804
 X-9.2639 Z-3.5000
 X-8.5458
 X-8.4022 Z-3.4176
 X-8.2585 Z-0.5627
 X-8.1149 Z0.0000
 X15.2962
 X15.4399 Z-3.5000
 X43.0162
 Y-16.3734
 X15.5835
 X15.4399 Z0.0000
 X-8.4022
G2 X-8.6894 Y-16.3734 Z-3.5000 I93.0216 K-9.3963
G1 X-9.5512
G2 X-9.8384 Y-16.3734 Z0.0000 I-38.1928 K-1.3728
G1 X-15.4399
 X-15.5835 Z-3.5000
 X-43.0162
 Y-16.8043
 X-15.8707
 X-15.7271 Z0.0000
 X-10.1257
 X-9.9820 Z-0.2333
 X-9.8384 Z-3.2667
 X-9.6948 Z-3.5000
 X-8.9767
 X-8.8330 Z-2.7863
 X-8.6894 Z-0.0137
 X-8.5458 Z0.0000
 X15.7271
 X15.8707 Z-3.5000
 X43.0162
 Y-17.2352
 X16.0144
 X15.8707 Z0.0000
 X-8.8330
 X-8.9767 Z-0.5902
 X-9.1203 Z-3.4588
 X-9.2639 Z-3.5000
 X-9.9820
G3 X-10.2693 Y-17.2352 Z0.0000 I36.6375 K4.7687
G1 X-15.8707
 X-16.0144 Z-3.5000
 X-43.0162
 Y-17.6661
 X-16.1580
 X-16.0144 Z0.0000
 X-10.5566
 X-10.4129 Z-0.8922
 X-10.2693 Z-3.5000
 X-9.4075
G2 X-9.1203 Y-17.6661 Z0.0000 I-390.5559 K33.8156
G1 X16.0144
 X16.1580 Z-3.5000
 X43.0162
 Y-18.0969
 X16.7325
 X16.5889 Z0.0000
 X-9.2639
 X-9.4075 Z-0.1373
 X-9.5512 Z-3.2118
 X-9.6948 Z-3.5000
 X-10.4129
G3 X-10.7002 Y-18.0969 Z0.0000 I26.8876 K3.9685
G1 X-16.5889
 X-16.7325 Z-3.5000
 X-43.0162
 Y-18.5278
 X-17.3070
 X-17.1634 Z0.0000
 X-10.9874
 X-10.8438 Z-0.3843
 X-10.7002 Z-3.4314
 X-10.5566 Z-3.5000
 X-9.8384
G3 X-9.5512 Y-18.5278 Z0.0000 I547.3255 K-43.1585
G1 X17.3070
 X17.4506 Z-3.5000
 X43.0162
 Y-18.9587
 X18.1688
 X18.0251 Z0.0000
 X0.6463
G2 X0.0718 Y-18.9587 Z-0.3020 I0.6758 K-1.9833
G1 X-0.0718
G2 X-0.6463 Y-18.9587 Z0.0000 I-1.2503 K-1.6814
G1 X-9.6948
 X-9.8384 Z-0.3980
 X-9.9820 Z-3.4314
 X-10.1257 Z-3.5000
 X-10.8438
G3 X-11.1311 Y-18.9587 Z0.0000 I912.0408 K76.6151
G1 X-17.8815
 X-18.0251 Z-3.5000
 X-43.0162
 Y-19.3896
 X-18.7433
 X-18.5996 Z0.0000
 X-11.4183
 X-11.2747 Z-0.0824
 X-11.1311 Z-3.1431
 X-10.9874 Z-3.5000
 X-10.2693
G2 X-9.9820 Y-19.3896 Z0.0000 I-23.3632 K3.6793
G1 X-4.5242
 X-4.3806 Z-0.9882
 X-4.2370 Z-3.4588
 X-4.0934 Z-3.5000
 X4.0934
 X4.3806 Z-3.4451
G2 X4.6679 Y-19.3896 Z-2.8275 I-1.1583 K0.9143
G2 X5.0987 Y-19.3896 Z-0.2608 I-44.6226 K8.8105
G1 X5.2424 Z0.0000
 X18.5996
 X18.7433 Z-3.5000
 X43.0162
 Y-19.8205
 X19.4614
 X19.3178 Z0.0000
 X7.2531
 X7.1095 Z-0.2608
 X6.6786 Z-3.0059
 X6.5350 Z-3.5000
 X-4.3806
 X-4.5242 Z-3.2392
 X-4.6679 Z-0.2196
 X-4.8115 Z0.0000
 X-10.1257
G2 X-10.4129 Y-19.8205 Z-3.5000 I21.5326 K-3.5290
G1 X-11.2747
 X-11.4183 Z-0.7275
 X-11.5619 Z0.0000
 X-19.3178
 X-19.4614 Z-3.5000
 X-43.0162
 Y-20.2513
 X-20.0359
 X-19.8923 Z0.0000
 X-11.7056
G3 X-11.4183 Y-20.2513 Z-3.5000 I-61.7076 K-6.8264
G1 X-10.7002
 X-10.5566 Z-3.2667
 X-10.4129 Z-0.1098
 X-10.2693 Z0.0000
 X-4.9551
G2 X-4.6679 Y-20.2513 Z-3.5000 I143.3991 K10.0073
G1 X-4.5242
 X-4.3806 Z-3.1020
G3 X-3.6625 Y-20.2513 Z-0.3431 I16.6177 K-2.8528
G1 X-3.5189 Z-0.0137
 X-3.3752 Z0.0000
 X3.5189 Z-0.0137
 X4.0934 Z-2.8824
 X4.2370 Z-3.3078
 X4.3806 Z-3.4863
 X4.5242 Z-3.5000
 X8.1149
 X8.2585 Z-3.2941
 X8.6894 Z-0.0412
 X8.8330 Z0.0000
 X19.8923
 X20.0359 Z-3.5000
 X43.0162
 Y-20.6822
 X20.6104
 X20.4668 Z0.0000
 X9.9820
 X9.8384 Z-0.4255
 X9.5512 Z-2.8686
 X9.4075 Z-3.5000
 X6.5350
 X6.3914 Z-3.0745
G3 X5.9605 Y-20.6822 Z-0.4941 I78.7546 K14.4753
G1 X5.8169 Z0.0000
 X-10.5566
 X-10.7002 Z-2.6902
 X-10.8438 Z-3.5000
 X-11.5619
G3 X-11.8492 Y-20.6822 Z0.0000 I42.1741 K5.2231
G1 X-20.4668
 X-20.6104 Z-3.5000
 X-43.0162
 Y-21.1131
 X-21.1849
 X-21.0413 Z0.0000
 X-11.9928
 X-11.8492 Z-2.8961
 X-11.7056 Z-3.5000
 X-10.9874
G2 X-10.7002 Y-21.1131 Z0.0000 I-76.5916 K8.0478
G1 X7.3968
 X7.5404 Z-0.0824
 X8.1149 Z-3.4451
 X8.2585 Z-3.5000
 X10.5566
 X10.7002 Z-3.1294
 X10.9874 Z-0.2471
 X11.1311 Z0.0000
 X21.0413
 X21.1849 Z-3.5000
 X43.0162
 Y-21.5440
 X21.7594
 X21.6158 Z0.0000
 X12.1364
 X11.9928 Z-0.1235
G2 X11.7056 Y-21.5440 Z-2.9235 I77.3978 K-9.3549
G1 X11.5619 Z-3.5000
 X9.4075 Z-3.4863
G3 X8.9767 Y-21.5440 Z-0.2608 I31.8924 K5.9017
G1 X8.8330 Z0.0000
 X-10.8438
G2 X-11.1311 Y-21.5440 Z-3.5000 I39.2461 K-4.9828
G1 X-11.8492
 X-11.9928 Z-3.3765
 X-12.1364 Z-0.2196
 X-12.2801 Z0.0000
 X-21.6158
 X-21.7594 Z-3.5000
 X-43.0162
 Y-21.9749
 X-22.1903
 X-22.0467 Z0.0000
 X-12.4237
 X-12.2801 Z-0.2882
 X-12.1364 Z-3.4588
 X-11.9928 Z-3.5000
 X-11.2747
 X-11.1311 Z-0.6314
 X-10.9874 Z0.0000
 X10.1257
 X10.2693 Z-0.8647
G2 X10.5566 Y-21.9749 Z-3.4725 I30.6388 K2.0553
G1 X10.7002 Z-3.5000
 X12.5673
G2 X12.8546 Y-21.9749 Z-0.5353 I-30.0881 K4.4115
G1 X12.9982 Z0.0000
 X22.0467
 X22.1903 Z-3.5000
 X43.0162
 Y-22.4057
 X22.6212
 X22.4776 Z0.0000
 X13.8600
 X13.7163 Z-0.1098
G2 X13.4291 Y-22.4057 Z-3.2529 I152.0965 K-15.4863
G1 X13.2855 Z-3.5000
 X11.5619
 X11.4183 Z-2.7588
G2 X11.1311 Y-22.4057 Z-0.0549 I-40.0347 K-2.8859
G1 X10.9874 Z0.0000
 X-11.1311
 X-11.2747 Z-0.6039
 X-11.4183 Z-3.5000
 X-12.2801 Z-3.4725
 X-12.4237 Z-0.3157
 X-12.5673 Z0.0000
 X-22.4776
 X-22.6212 Z-3.5000
 X-43.0162
 Y-22.8366
 X-23.1957
 X-23.0521 Z0.0000
 X-12.7110
 X-12.5673 Z-0.3431
 X-12.4237 Z-3.4725
 X-12.2801 Z-3.5000
 X-11.5619
 X-11.4183 Z-0.5765
 X-11.2747 Z0.0000
 X11.9928
 X12.1364 Z-0.2745
G2 X12.4237 Y-22.8366 Z-3.3216 I89.9080 K6.9387
G1 X12.5673 Z-3.5000
 X14.1472
 X14.2908 Z-2.7039
G3 X14.5781 Y-22.8366 Z0.0000 I14.6232 K-0.1863
G1 X23.0521
 X23.1957 Z-3.5000
 X43.0162
 Y-23.2675
 X23.6266
 X23.4829 Z0.0000
 X15.2962
 X15.1526 Z-0.4255
G3 X14.8654 Y-23.2675 Z-3.5000 I-19.8015 K0.2994
G1 X13.2855
G3 X12.9982 Y-23.2675 Z-0.6176 I23.3492 K3.7823
G1 X12.8546 Z0.0000
 X-11.4183
 X-11.5619 Z-0.5627
 X-11.7056 Z-3.5000
 X-12.5673 Z-3.4863
 X-12.7110 Z-0.3843
 X-12.8546 Z0.0000
 X-23.4829
 X-23.6266 Z-3.5000
 X-43.0162
 Y-23.6984
 X-24.0575
 X-23.9138 Z0.0000
 X-12.9982
 X-12.8546 Z-0.3980
 X-12.7110 Z-3.4863
 X-12.5673 Z-3.5000
 X-11.8492
 X-11.7056 Z-0.5490
 X-11.5619 Z0.0000
 X13.5727
 X13.7163 Z-0.0412
G3 X14.0036 Y-23.6984 Z-3.1020 I-50.9825 K-6.3287
G1 X14.1472 Z-3.5000
 X15.4399
 X15.5835 Z-3.4176
 X15.8707 Z-0.0824
 X16.0144 Z0.0000
 X23.9138
 X24.0575 Z-3.5000
 X43.0162
 Y-24.1293
 X24.4883
 X24.3447 Z0.0000
 X16.5889
G2 X16.3016 Y-24.1293 Z-3.0608 I19.5394 K-3.3777
G1 X16.1580 Z-3.5000
 X14.8654
 X14.7217 Z-3.2667
G2 X14.4345 Y-24.1293 Z0.0000 I-49.0504 K-2.6673
G1 X-11.7056
 X-11.8492 Z-1.0157
 X-11.9928 Z-3.5000
 X-12.7110
 X-12.8546 Z-3.3353
 X-12.9982 Z-0.0686
 X-13.1418 Z0.0000
 X-24.3447
 X-24.4883 Z-3.5000
 X-43.0162
 Y-24.5601
 X-24.9192
 X-24.7756 Z0.0000
 X-13.1418
 X-12.9982 Z-2.7725
 X-12.8546 Z-3.5000
 X-12.1364
G3 X-11.8492 Y-24.5601 Z0.0000 I181.9801 K-13.1737
G1 X15.0090
 X15.1526 Z-0.2059
G2 X15.4399 Y-24.5601 Z-3.4863 I56.4506 K3.2899
G1 X15.5835 Z-3.5000
 X16.7325
 X16.8761 Z-3.2941
G3 X17.1634 Y-24.5601 Z0.0000 I26.3533 K-0.6385
G1 X24.7756
 X24.9192 Z-3.5000
 X43.0162
 Y-24.9910
 X25.2065
 X25.0628 Z0.0000
 X17.7379
G2 X17.4506 Y-24.9910 Z-3.2392 I20.5080 K-3.4510
G1 X17.3070 Z-3.5000
 X16.1580
 X16.0144 Z-3.0471
 X15.8707 Z-0.7137
 X15.7271 Z0.0000
 X-11.9928
G3 X-12.2801 Y-24.9910 Z-3.5000 I-33.5006 K0.9877
G1 X-12.9982
G3 X-13.2855 Y-24.9910 Z0.0000 I49.2811 K5.8064
G1 X-25.0628
 X-25.2065 Z-3.5000
 X-43.0162
 Y-25.4219
 X-25.6373
 X-25.4937 Z0.0000
 X-13.4291
G3 X-13.1418 Y-25.4219 Z-3.5000 I-64.8984 K-7.0880
G1 X-12.4237
 X-12.2801 Z-2.8961
 X-12.1364 Z0.0000
 X-3.2316
 X-3.0880 Z-3.5000
 X3.0880
 X3.2316 Z0.0000
 X16.3016
 X16.4452 Z-0.8098
 X16.5889 Z-3.1294
 X16.7325 Z-3.5000
 X17.8815
 X18.0251 Z-3.1843
 X18.1688 Z-0.8922
 X18.3124 Z0.0000
 X25.4937
 X25.6373 Z-3.5000
 X43.0162
 Y-25.8528
 X26.0682
 X25.9246 Z0.0000
 X18.8869
 X18.7433 Z-0.1922
 X18.5996 Z-2.5804
 X18.4560 Z-3.5000
 X17.3070
 X17.1634 Z-3.1980
 X17.0197 Z-0.9196
 X16.8761 Z0.0000
 X5.5296
 X5.3860 Z-3.5000
 X-5.3860
 X-5.5296 Z0.0000
 X-12.1364
 X-12.2801 Z-0.1510
 X-12.4237 Z-3.4588
 X-12.5673 Z-3.5000
 X-13.2855
 X-13.4291 Z-0.4255
 X-13.5727 Z0.0000
 X-18.4560
 X-18.5996 Z-1.3451
 X-18.7433 Z-0.1373
 X-18.8869 Z0.0000
 X-25.9246
 X-26.0682 Z-3.5000
 X-43.0162
 Y-26.2837
 X-26.3555
 X-26.2118 Z0.0000
 X-19.3178
 X-19.1741 Z-0.5627
 X-19.0305 Z-3.1020
 X-18.8869 Z-3.5000
 X-18.7433 Z-2.5529
 X-18.5996 Z0.0000
 X-13.5727
 X-13.4291 Z-2.6353
 X-13.2855 Z-3.5000
 X-12.5673
 X-12.4237 Z-0.9745
 X-12.2801 Z0.0000
 X-6.9659
 X-6.8223 Z-3.5000
 X6.8223
 X6.9659 Z0.0000
 X17.4506
G3 X17.7379 Y-26.2837 Z-3.4314 I-36.2388 K-4.7614
G1 X17.8815 Z-3.5000
 X18.8869
 X19.0305 Z-3.2529
 X19.1741 Z-0.7961
 X19.3178 Z0.0000
 X26.2118
 X26.3555 Z-3.5000
 X43.0162
 Y-26.7145
 X26.7864
 X26.6427 Z0.0000
 X19.7487
G3 X19.4614 Y-26.7145 Z-3.5000 I-24.3041 K0.2329
G1 X18.3124
 X18.1688 Z-2.9647
 X18.0251 Z-0.4392
 X17.8815 Z0.0000
 X7.2531
 X7.1095 Z-3.5000
 X-7.1095
 X-7.2531 Z0.0000
 X-12.4237
G3 X-12.7110 Y-26.7145 Z-3.5000 I-45.7772 K1.9953
G1 X-13.4291
G2 X-13.7163 Y-26.7145 Z0.0000 I-42.4613 K-1.7231
G1 X-18.5996
 X-18.7433 Z-0.2471
 X-18.8869 Z-3.5000
 X-19.3178
 X-19.4614 Z-3.4314
G2 X-19.7487 Y-26.7145 Z0.0000 I-36.5260 K-1.3300
G1 X-26.6427
 X-26.7864 Z-3.5000
 X-43.0162
 Y-27.1454
 X-27.0736
 X-26.9300 Z0.0000
 X-20.3232
 X-20.1795 Z-0.0412
G2 X-19.8923 Y-27.1454 Z-3.5000 I43.2973 K1.8545
G1 X-19.0305
G3 X-18.7433 Y-27.1454 Z0.0000 I547.3255 K-43.1585
G1 X-13.8600
 X-13.7163 Z-0.0961
 X-13.5727 Z-3.4314
 X-13.4291 Z-3.5000
 X-12.8546
 X-12.7110 Z-3.3765
 X-12.5673 Z-0.0549
 X-12.4237 Z0.0000
 X-7.3968
 X-7.2531 Z-3.5000
 X7.2531
 X7.3968 Z0.0000
 X18.3124
 X18.4560 Z-0.1235
 X18.5996 Z-2.7176
 X18.7433 Z-3.5000
 X19.8923
G2 X20.1795 Y-27.1454 Z-0.0961 I-22.8281 K3.6405
G1 X20.3232 Z0.0000
 X26.9300
 X27.0736 Z-3.5000
 X43.0162
 Y-27.5763
 X27.3609
 X27.2172 Z0.0000
 X20.7540
 X20.6104 Z-0.0549
G3 X20.3232 Y-27.5763 Z-3.5000 I-21.2515 K0.0375
G1 X19.1741
G3 X18.8869 Y-27.5763 Z0.0000 I47.3196 K5.6454
G1 X7.5404
 X7.3968 Z-3.5000
 X-7.3968
 X-7.5404 Z0.0000
 X-12.5673
G2 X-12.8546 Y-27.5763 Z-3.5000 I33.2134 K-4.4877
G1 X-13.5727
G3 X-13.8600 Y-27.5763 Z0.0000 I35.4365 K4.6701
G1 X-18.8869
G2 X-19.1741 Y-27.5763 Z-3.4863 I111.5661 K-10.9475
G1 X-20.3232 Z-3.5000
G3 X-20.6104 Y-27.5763 Z-0.0549 I20.9643 K3.4826
G1 X-20.7540 Z0.0000
 X-27.2172
 X-27.3609 Z-3.5000
 X-43.0162
 Y-28.0072
 X-27.6481
 X-27.5045 Z0.0000
 X-21.0413
G3 X-20.7540 Y-28.0072 Z-3.5000 I-108.2893 K-10.6493
G1 X-19.7487
 X-19.6050 Z-3.3765
G3 X-19.3178 Y-28.0072 Z0.0000 I20.6954 K-0.0602
G1 X-14.0036
 X-13.8600 Z-0.3980
 X-13.7163 Z-3.5000
 X-12.9982
 X-12.8546 Z-2.5529
 X-12.7110 Z0.0000
 X-7.5404
 X-7.3968 Z-3.5000
 X7.3968
 X7.5404 Z0.0000
 X19.3178
G3 X19.6050 Y-28.0072 Z-3.3765 I-20.4082 K-3.4367
G1 X19.7487 Z-3.5000
 X20.7540
G3 X21.0413 Y-28.0072 Z0.0000 I108.5765 K-7.1493
G1 X27.5045
 X27.6481 Z-3.5000
 X43.0162
 Y-28.4381
 X28.0790
 X27.9354 Z0.0000
 X21.4722
 X21.3285 Z-0.7549
 X21.1849 Z-3.3627
 X21.0413 Z-3.5000
 X20.1795
 X20.0359 Z-3.4451
G2 X19.7487 Y-28.4381 Z0.0000 I-22.4404 K-0.1366
G1 X7.6840
 X7.5404 Z-3.5000
 X-7.5404
 X-7.6840 Z0.0000
 X-12.7110
 X-12.8546 Z-0.4941
 X-12.9982 Z-3.5000
 X-13.7163
G3 X-14.0036 Y-28.4381 Z0.0000 I86.8490 K8.8897
G1 X-19.7487
G2 X-20.0359 Y-28.4381 Z-3.4451 I22.1532 K-3.5817
G1 X-20.1795 Z-3.5000
 X-21.0413
 X-21.1849 Z-3.3627
 X-21.3285 Z-0.7549
 X-21.4722 Z0.0000
 X-27.9354
 X-28.0790 Z-3.5000
 X-43.0162
 Y-28.8689
 X-28.3662
 X-28.2226 Z0.0000
 X-21.9031
 X-21.7594 Z-0.2333
 X-21.6158 Z-2.9098
 X-21.4722 Z-3.5000
 X-20.4668
G2 X-20.1795 Y-28.8689 Z0.0000 I-93.0215 K9.3963
G1 X-14.1472
 X-14.0036 Z-0.0686
 X-13.8600 Z-3.4588
 X-13.7163 Z-3.5000
 X-13.1418
G2 X-12.8546 Y-28.8689 Z0.0000 I-23.3632 K3.6793
G1 X-7.6840
 X-7.5404 Z-3.5000
 X7.5404
 X7.6840 Z0.0000
 X20.1795
G2 X20.4668 Y-28.8689 Z-3.5000 I93.3088 K5.8963
G1 X21.4722
 X21.6158 Z-2.9098
 X21.7594 Z-0.2333
 X21.9031 Z0.0000
 X28.2226
 X28.3662 Z-3.5000
 X43.0162
 Y-29.2998
 X28.6535
 X28.5099 Z0.0000
 X22.1903
G3 X21.9031 Y-29.2998 Z-3.5000 I-45.7772 K1.9953
G1 X20.8977
 X20.7540 Z-2.7588
 X20.6104 Z-0.1510
 X20.4668 Z0.0000
 X13.2855
 X13.1418 Z-1.0020
 X12.9982 Z-0.8510
 X12.8546 Z0.0000
 X7.8276
 X7.6840 Z-3.5000
 X-7.6840
 X-7.8276 Z0.0000
 X-12.8546
 X-12.9982 Z-0.8510
 X-13.1418 Z-3.5000
 X-13.8600
G2 X-14.1472 Y-29.2998 Z0.0000 I-108.5765 K-7.1493
G1 X-20.4668
 X-20.6104 Z-0.1510
 X-20.7540 Z-2.7588
 X-20.8977 Z-3.5000
 X-21.9031
G3 X-22.1903 Y-29.2998 Z0.0000 I40.6661 K5.0993
G1 X-28.5099
 X-28.6535 Z-3.5000
 X-43.0162
 Y-29.7307
 X-28.7971
 X-28.6535 Z0.0000
 X-22.6212
 X-22.4776 Z-0.1510
 X-22.3339 Z-2.9510
 X-22.1903 Z-3.5000
 X-21.3285
 X-21.1849 Z-3.2667
 X-21.0413 Z-0.6039
 X-20.8977 Z0.0000
 X-14.1472
 X-14.0036 Z-3.1431
 X-13.8600 Z-3.5000
 X-13.2855
 X-13.1418 Z-2.7863
 X-12.9982 Z0.0000
 X-7.8276
 X-7.6840 Z-3.5000
 X7.6840
 X7.8276 Z0.0000
 X12.9982
 X13.1418 Z-2.7863
 X13.2855 Z-3.5000
 X13.4291
 X13.5727 Z-3.3353
G3 X13.8600 Y-29.7307 Z0.0000 I41.0449 K-1.8549
G1 X20.8977
 X21.0413 Z-0.6039
 X21.1849 Z-3.2667
 X21.3285 Z-3.5000
 X22.1903
 X22.3339 Z-2.9510
 X22.4776 Z-0.1510
 X22.6212 Z0.0000
 X28.6535
 X28.7971 Z-3.5000
 X43.0162
 Y-30.1616
 X29.0844
 X28.9408 Z0.0000
 X22.9084
 X22.7648 Z-0.5902
 X22.6212 Z-3.3627
 X22.4776 Z-3.5000
 X21.6158
G2 X21.3285 Y-30.1616 Z0.0000 I-44.0649 K-1.8548
G1 X14.2908
 X14.1472 Z-0.8922
 X14.0036 Z-3.5000
 X13.2855
G2 X12.9982 Y-30.1616 Z0.0000 I-31.4860 K-0.8223
G1 X7.9713
 X7.8276 Z-3.5000
 X-7.8276
 X-7.9713 Z0.0000
 X-12.9982
G2 X-13.2855 Y-30.1616 Z-3.5000 I31.1987 K-4.3223
G1 X-14.0036
 X-14.1472 Z-0.7961
 X-14.2908 Z0.0000
 X-21.3285
G2 X-21.6158 Y-30.1616 Z-3.5000 I43.7777 K-5.3548
G1 X-22.4776
 X-22.6212 Z-3.3627
 X-22.7648 Z-0.5902
 X-22.9084 Z0.0000
 X-28.9408
 X-29.0844 Z-3.5000
 X-43.0162
 Y-30.5925
 X-29.3716
 X-29.2280 Z0.0000
 X-23.1957
G3 X-22.9084 Y-30.5925 Z-3.5000 I-37.9060 K-4.8728
G1 X-22.0467
 X-21.9031 Z-3.3216
 X-21.7594 Z-0.5078
 X-21.6158 Z0.0000
 X-14.2908
G2 X-14.0036 Y-30.5925 Z-3.5000 I2736.9996 K222.8701
G1 X-13.2855 Z-3.4863
 X-13.1418 Z-0.0549
 X-12.9982 Z0.0000
 X-7.9713
 X-7.8276 Z-3.5000
 X7.8276
 X7.9713 Z0.0000
 X12.9982
 X13.1418 Z-0.0549
 X13.2855 Z-3.4863
 X14.0036 Z-3.5000
G2 X14.2908 Y-30.5925 Z0.0000 I-248.2101 K22.1330
G1 X21.6158
 X21.7594 Z-0.5078
 X21.9031 Z-3.3216
 X22.0467 Z-3.5000
 X22.9084
G3 X23.1957 Y-30.5925 Z0.0000 I38.1932 K-1.3728
G1 X29.2280
 X29.3716 Z-3.5000
 X43.0162
 Y-31.0233
 X29.6589
 X29.5153 Z0.0000
 X23.4829
G3 X23.1957 Y-31.0233 Z-3.5000 I-47.6069 K2.1454
G1 X22.3339
 X22.1903 Z-2.8824
 X22.0467 Z-0.1235
 X21.9031 Z0.0000
 X14.2908
 X14.1472 Z-2.7588
 X14.0036 Z-3.5000
 X13.4291
 X13.2855 Z-2.5804
 X13.1418 Z0.0000
 X7.9713
 X7.8276 Z-3.5000
 X-7.8276
 X-7.9713 Z0.0000
 X-13.1418
 X-13.2855 Z-2.5804
 X-13.4291 Z-3.5000
 X-14.0036
 X-14.1472 Z-2.7039
 X-14.2908 Z0.0000
 X-21.9031
 X-22.0467 Z-0.1235
 X-22.1903 Z-2.8824
 X-22.3339 Z-3.5000
 X-23.1957
G3 X-23.4829 Y-31.0233 Z0.0000 I47.3196 K5.6454
G1 X-29.5153
 X-29.6589 Z-3.5000
 X-43.0162
 Y-31.4542
 X-29.9461
 X-29.8025 Z0.0000
 X-23.9138
 X-23.7702 Z-0.1098
 X-23.6266 Z-2.8549
 X-23.4829 Z-3.5000
 X-22.6212
G2 X-22.3339 Y-31.4542 Z0.0000 I-42.1741 K5.2231
G1 X-14.4345
 X-14.2908 Z-0.1510
 X-14.1472 Z-3.5000
 X-13.4291
G3 X-13.1418 Y-31.4542 Z0.0000 I129.5967 K-8.8745
G1 X-8.1149
 X-7.9713 Z-3.5000
 X7.9713
 X8.1149 Z0.0000
 X13.1418
G3 X13.4291 Y-31.4542 Z-3.5000 I-129.3094 K-12.3745
G1 X14.1472
 X14.2908 Z-0.1922
 X14.4345 Z0.0000
 X22.3339
G2 X22.6212 Y-31.4542 Z-3.5000 I42.4613 K1.7231
G1 X23.4829
 X23.6266 Z-2.8549
 X23.7702 Z-0.1098
 X23.9138 Z0.0000
 X29.8025
 X29.9461 Z-3.5000
 X43.0162
 Y-31.8851
 X30.0898
 X29.9461 Z0.0000
 X24.2011
 X24.0575 Z-0.0961
 X23.9138 Z-3.0059
 X23.7702 Z-3.5000
 X22.9084
G2 X22.6212 Y-31.8851 Z0.0000 I-42.4613 K-1.7231
G1 X14.4345
G2 X14.1472 Y-31.8851 Z-3.5000 I26.1281 K-3.9062
G1 X13.4291
 X13.2855 Z-0.6314
 X13.1418 Z0.0000
 X8.1149
 X7.9713 Z-3.5000
 X4.5242
 X4.3806 Z0.0000
 X-4.3806
 X-4.5242 Z-3.5000
 X-7.9713
 X-8.1149 Z0.0000
 X-13.1418
 X-13.2855 Z-0.6314
 X-13.4291 Z-3.5000
 X-14.1472
G2 X-14.4345 Y-31.8851 Z0.0000 I-25.6847 K-0.3462
G1 X-22.6212
G2 X-22.9084 Y-31.8851 Z-3.5000 I42.1741 K-5.2231
G1 X-23.7702
 X-23.9138 Z-3.0059
 X-24.0575 Z-0.0961
 X-24.2011 Z0.0000
 X-29.9461
 X-30.0898 Z-3.5000
 X-43.0162
 Y-32.3160
 X-30.3770
 X-30.2334 Z0.0000
 X-24.3447
 X-24.2011 Z-2.4843
 X-24.0575 Z-3.5000
 X-23.1957
 X-23.0521 Z-0.8922
 X-22.9084 Z0.0000
 X-14.4345
G2 X-14.1472 Y-32.3160 Z-3.5000 I390.8431 K30.3156
G1 X-13.5727
 X-13.4291 Z-3.1843
 X-13.2855 Z0.0000
 X-8.1149
 X-7.9713 Z-3.5000
 X-7.3968
 X-7.2531 Z0.0000
 X7.2531
 X7.3968 Z-3.5000
 X7.9713
 X8.1149 Z0.0000
 X13.2855
 X13.4291 Z-3.1843
 X13.5727 Z-3.5000
 X14.1472
G2 X14.4345 Y-32.3160 Z0.0000 I-390.5559 K33.8156
G1 X22.9084
 X23.0521 Z-0.8922
 X23.1957 Z-3.5000
 X24.0575
 X24.2011 Z-2.4843
 X24.3447 Z0.0000
 X30.2334
 X30.3770 Z-3.5000
 X43.0162
 Y-32.7469
 X30.5206
 X30.3770 Z0.0000
 X24.6320
G3 X24.3447 Y-32.7469 Z-3.5000 I-181.9797 K13.1737
G1 X23.4829
G2 X23.1957 Y-32.7469 Z0.0000 I-72.5684 K-4.1941
G1 X14.4345
G3 X14.1472 Y-32.7469 Z-3.5000 I-47.6069 K2.1454
G1 X13.5727
 X13.4291 Z-2.8000
 X13.2855 Z0.0000
 X-13.2855
 X-13.4291 Z-2.8000
 X-13.5727 Z-3.5000
 X-14.1472
G3 X-14.4345 Y-32.7469 Z0.0000 I47.3196 K5.6454
G1 X-23.1957
G2 X-23.4829 Y-32.7469 Z-3.5000 I72.2811 K-7.6941
G1 X-24.3447
G3 X-24.6320 Y-32.7469 Z0.0000 I181.6925 K16.6737
G1 X-30.3770
 X-30.5206 Z-3.5000
 X-43.0162
 Y-33.1777
 X-30.6643
 X-30.5206 Z0.0000
 X-24.9192
G3 X-24.6320 Y-33.1777 Z-3.5000 I-32.1825 K-4.4030
G1 X-23.7702
G2 X-23.4829 Y-33.1777 Z0.0000 I-49.2811 K5.8064
G1 X-14.4345
G2 X-14.1472 Y-33.1777 Z-3.5000 I22.4096 K0.0774
G1 X-13.5727
G2 X-13.2855 Y-33.1777 Z0.0000 I-22.1224 K3.5774
G1 X13.2855
G2 X13.5727 Y-33.1777 Z-3.5000 I22.4096 K0.0774
G1 X14.1472
G2 X14.4345 Y-33.1777 Z0.0000 I-22.1224 K3.5774
G1 X23.4829
G2 X23.7702 Y-33.1777 Z-3.5000 I49.5683 K2.3064
G1 X24.6320
G3 X24.9192 Y-33.1777 Z0.0000 I32.4698 K-0.9030
G1 X30.5206
 X30.6643 Z-3.5000
 X43.0162
 Y-33.6086
 X30.9515
 X30.8079 Z0.0000
 X25.2065
 X25.0628 Z-0.6451
 X24.9192 Z-3.4588
 X24.7756 Z-3.5000
 X24.0575
 X23.9138 Z-2.7039
 X23.7702 Z-0.0137
 X23.6266 Z0.0000
 X14.4345
 X14.2908 Z-2.7725
 X14.1472 Z-3.5000
 X13.5727
G3 X13.2855 Y-33.6086 Z0.0000 I47.3196 K5.6454
G1 X-13.2855
G3 X-13.5727 Y-33.6086 Z-3.5000 I-47.6069 K2.1454
G1 X-14.1472
 X-14.2908 Z-2.7725
 X-14.4345 Z0.0000
 X-23.7702 Z-0.0137
 X-23.9138 Z-2.7039
 X-24.0575 Z-3.5000
 X-24.7756
 X-24.9192 Z-3.4588
 X-25.0628 Z-0.6451
 X-25.2065 Z0.0000
 X-30.8079
 X-30.9515 Z-3.5000
 X-43.0162
 Y-34.0395
 X-31.0952
 X-30.9515 Z0.0000
 X-25.4937
 X-25.3501 Z-0.2471
 X-25.2065 Z-3.2255
 X-25.0628 Z-3.5000
 X-24.3447
 X-24.2011 Z-3.1431
 X-24.0575 Z-0.1784
 X-23.9138 Z0.0000
 X-14.4345
 X-14.2908 Z-3.1020
 X-14.1472 Z-3.5000
 X-14.0036
 X-13.8600 Z-2.8137
 X-13.5727 Z-0.4667
 X-13.4291 Z0.0000
 X13.2855
G2 X13.5727 Y-34.0395 Z-3.5000 I547.3236 K43.1583
G1 X14.1472
 X14.2908 Z-3.1020
 X14.4345 Z0.0000
 X23.9138
 X24.0575 Z-0.1784
 X24.2011 Z-3.1431
 X24.3447 Z-3.5000
 X25.0628
 X25.2065 Z-3.2255
 X25.3501 Z-0.2471
 X25.4937 Z0.0000
 X30.9515
 X31.0952 Z-3.5000
 X43.0162
 Y-34.4704
 X31.3824
 X31.2388 Z0.0000
 X25.6373
G2 X25.3501 Y-34.4704 Z-3.5000 I2736.8074 K-226.3779
G1 X24.4883
 X24.3447 Z-0.6863
 X24.2011 Z0.0000
 X14.4345
 X14.2908 Z-3.3902
 X14.1472 Z-3.5000
 X13.5727
G2 X13.2855 Y-34.4704 Z0.0000 I-61.9971 K-3.3264
G1 X-24.2011
 X-24.3447 Z-0.6863
 X-24.4883 Z-3.5000
 X-25.3501
G2 X-25.6373 Y-34.4704 Z0.0000 I-2737.0946 K-222.8779
G1 X-31.2388
 X-31.3824 Z-3.5000
 X-43.0162
 Y-34.9013
 X-31.5260
 X-31.3824 Z0.0000
 X-25.9246
 X-25.7810 Z-0.1235
 X-25.6373 Z-3.1843
 X-25.4937 Z-3.5000
 X-24.7756
 X-24.6320 Z-2.4980
 X-24.4883 Z0.0000
 X13.2855
G3 X13.5727 Y-34.9013 Z-3.5000 I-248.2105 K-22.1330
G1 X14.1472
 X14.2908 Z-3.1706
 X14.4345 Z0.0000
 X24.4883
 X24.6320 Z-2.4980
 X24.7756 Z-3.5000
 X25.4937
 X25.6373 Z-3.1843
 X25.7810 Z-0.1235
 X25.9246 Z0.0000
 X31.3824
 X31.5260 Z-3.5000
 X43.0162
 Y-35.3321
 X31.6697
 X31.5260 Z0.0000
 X26.0682
G2 X25.7810 Y-35.3321 Z-3.5000 I45.4887 K-5.4953
G1 X24.9192
 X24.7756 Z-0.9059
 X24.6320 Z0.0000
 X14.4345
 X14.2908 Z-2.8961
 X14.1472 Z-3.5000
 X13.5727
G3 X13.2855 Y-35.3321 Z0.0000 I93.0215 K9.3963
G1 X-24.6320
 X-24.7756 Z-0.9059
 X-24.9192 Z-3.5000
 X-25.7810
G2 X-26.0682 Y-35.3321 Z0.0000 I-45.7760 K-1.9953
G1 X-31.5260
 X-31.6697 Z-3.5000
 X-43.0162
 Y-35.7630
 X-31.8133
 X-31.6697 Z0.0000
 X-26.2118 Z-0.0137
 X-26.0682 Z-2.9098
 X-25.9246 Z-3.5000
 X-25.2065
 X-25.0628 Z-2.8275
 X-24.9192 Z0.0000
 X13.2855
 X13.4291 Z-2.9922
 X13.5727 Z-3.5000
 X14.1472
 X14.2908 Z-2.6216
 X14.4345 Z0.0000
 X24.9192
 X25.0628 Z-2.8275
 X25.2065 Z-3.5000
 X25.9246
 X26.0682 Z-2.9098
 X26.2118 Z-0.0137
 X31.6697 Z0.0000
 X31.8133 Z-3.5000
 X43.0162
 Y-36.1939
 X31.9569
 X31.8133 Z0.0000
 X26.4991
 X26.3555 Z-0.9745
 X26.2118 Z-3.5000
 X25.3501
G2 X25.0628 Y-36.1939 Z0.0000 I-34.5840 K-1.0766
G1 X14.4345
 X14.2908 Z-3.1157
 X14.1472 Z-3.5000
 X13.5727
 X13.4291 Z-3.2941
 X13.2855 Z0.0000
 X-25.0628
G2 X-25.3501 Y-36.1939 Z-3.5000 I34.2968 K-4.5766
G1 X-26.2118
 X-26.3555 Z-0.9745
 X-26.4991 Z0.0000
 X-31.8133
 X-31.9569 Z-3.5000
 X-43.0162
 Y-36.6248
 X-32.1005
 X-31.9569 Z0.0000
 X-26.6427
G2 X-26.3555 Y-36.6248 Z-3.5000 I30.5466 K0.7452
G1 X-25.6373
 X-25.4937 Z-3.0882
 X-25.3501 Z-0.0686
 X-25.2065 Z0.0000
 X13.2855
 X13.4291 Z-3.4314
 X13.5727 Z-3.5000
 X14.1472
G2 X14.4345 Y-36.6248 Z0.0000 I-160.1426 K14.9051
G1 X25.2065
 X25.3501 Z-0.0686
 X25.4937 Z-3.0882
 X25.6373 Z-3.5000
 X26.3555
G2 X26.6427 Y-36.6248 Z0.0000 I-30.2593 K4.2452
G1 X31.9569
 X32.1005 Z-3.5000
 X43.0162
 Y-37.0557
 X32.2442
 X32.1005 Z0.0000
 X26.7864
 X26.6427 Z-2.6627
 X26.4991 Z-3.5000
 X25.7810
G3 X25.4937 Y-37.0557 Z0.0000 I93.0215 K9.3963
G1 X14.4345
 X14.2908 Z-1.0020
 X14.1472 Z-3.5000
 X13.4291
 X13.2855 Z-0.5627
 X13.1418 Z0.0000
 X4.0934
 X3.9497 Z-0.1098
G3 X3.5189 Y-37.0557 Z-1.1667 I-3.5509 K0.8314
G1 X2.2262 Z-3.3902
 X2.0826 Z-3.5000
 X-2.0826
 X-2.2262 Z-3.3902
 X-3.5189 Z-1.1667
G3 X-3.9497 Y-37.0557 Z-0.1098 I3.1200 K1.8883
G1 X-4.0934 Z0.0000
 X-25.4937
G3 X-25.7810 Y-37.0557 Z-3.5000 I-93.3088 K5.8963
G1 X-26.4991
 X-26.6427 Z-2.6627
 X-26.7864 Z0.0000
 X-32.1005
 X-32.2442 Z-3.5000
 X-43.0162
 Y-37.4865
 X-32.5314
 X-32.3878 Z0.0000
 X-26.9300
 X-26.7864 Z-3.0059
 X-26.6427 Z-3.5000
 X-25.9246
G3 X-25.6373 Y-37.4865 Z0.0000 I143.3994 K-10.0073
G1 X-7.1095
 X-6.9659 Z-0.1784
 X-6.2478 Z-3.1020
 X-6.1041 Z-3.5000
 X6.1041
 X6.2478 Z-3.1020
 X6.9659 Z-0.1784
 X7.1095 Z0.0000
 X13.1418
G3 X13.4291 Y-37.4865 Z-3.5000 I-31.1987 K-4.3223
G1 X14.1472
 X14.2908 Z-0.3431
 X14.4345 Z0.0000
 X25.6373
G3 X25.9246 Y-37.4865 Z-3.5000 I-143.1121 K-13.5073
G1 X26.6427
 X26.7864 Z-3.0059
 X26.9300 Z0.0000
 X32.3878
 X32.5314 Z-3.5000
 X43.0162
 Y-37.9174
 X32.5314
 X32.3878 Z0.0000
 X27.2172
 X27.0736 Z-0.0961
 X26.9300 Z-3.2667
 X26.7864 Z-3.5000
 X26.0682
G2 X25.7810 Y-37.9174 Z0.0000 I-38.1915 K-1.3728
G1 X14.2908
 X14.1472 Z-3.1980
 X14.0036 Z-3.5000
 X13.4291
G3 X13.1418 Y-37.9174 Z0.0000 I31.1984 K4.3223
G1 X8.2585
 X8.1149 Z-0.4118
 X7.9713 Z-3.5000
 X3.3752
 X3.2316 Z-3.4588
 X1.6517 Z-0.8235
G2 X1.3645 Y-37.9174 Z-0.6039 I-1.0487 K-1.0740
G1 X0.3591 Z0.0000
 X-0.3591
 X-1.3645 Z-0.6039
G2 X-1.6517 Y-37.9174 Z-0.8235 I0.7614 K-1.2936
G1 X-3.2316 Z-3.4588
 X-3.3752 Z-3.5000
 X-8.2585
 X-8.4022 Z-3.4314
G3 X-8.9767 Y-37.9174 Z-0.4118 I29.3042 K7.1400
G1 X-9.1203 Z0.0000
 X-25.7810
G2 X-26.0682 Y-37.9174 Z-3.5000 I37.9043 K-4.8728
G1 X-26.7864
 X-26.9300 Z-3.2667
 X-27.0736 Z-0.0961
 X-27.2172 Z0.0000
 X-32.3878
 X-32.5314 Z-3.5000
 X-43.0162
 Y-38.3483
 X-32.6750
 X-32.5314 Z0.0000
 X-27.3609
 X-27.2172 Z-0.2745
 X-27.0736 Z-3.4314
 X-26.9300 Z-3.5000
 X-26.2118
 X-26.0682 Z-0.9608
 X-25.9246 Z0.0000
 X-10.7002
 X-10.5566 Z-0.1098
G3 X-10.1257 Y-38.3483 Z-3.4176 I-44.6313 K-7.4957
G1 X-9.9820 Z-3.5000
 X-6.3914 Z-3.4863
 X-6.2478 Z-3.0745
 X-5.5296 Z-0.1922
 X-5.3860 Z0.0000
 X5.3860
 X5.5296 Z-0.1922
 X6.2478 Z-3.0745
 X6.3914 Z-3.4863
 X6.5350 Z-3.5000
 X7.8276
 X7.9713 Z-2.6078
 X8.1149 Z0.0000
 X12.9982
 X13.1418 Z-0.0686
 X13.2855 Z-3.4725
 X13.4291 Z-3.5000
 X14.0036
G2 X14.2908 Y-38.3483 Z0.0000 I-58.7961 K6.5873
G1 X25.9246
 X26.0682 Z-0.9608
 X26.2118 Z-3.5000
 X26.9300
 X27.0736 Z-3.4314
 X27.2172 Z-0.2745
 X27.3609 Z0.0000
 X32.5314
 X32.6750 Z-3.5000
 X43.0162
 Y-38.7792
 X32.8187
 X32.6750 Z0.0000
 X27.5045
 X27.3609 Z-0.5627
 X27.2172 Z-3.5000
 X26.3555
 X26.2118 Z-0.6314
 X26.0682 Z0.0000
 X14.2908
 X14.1472 Z-0.7961
 X14.0036 Z-3.5000
 X13.2855
G2 X12.9982 Y-38.7792 Z0.0000 I-36.9248 K-1.2687
G1 X8.1149
 X7.9713 Z-1.2765
G2 X7.6840 Y-38.7792 Z-0.0137 I-9.5237 K-1.5024
G1 X7.5404 Z0.0000
 X-7.6840 Z-0.0137
G2 X-7.9713 Y-38.7792 Z-1.3039 I8.5430 K-2.5791
G2 X-8.2585 Y-38.7792 Z-3.0333 I84.0259 K-14.8468
G1 X-8.4022 Z-3.5000
 X-11.4183
 X-11.5619 Z-3.1431
 X-11.8492 Z-0.6588
 X-11.9928 Z0.0000
 X-26.0682
 X-26.2118 Z-0.6314
 X-26.3555 Z-3.5000
 X-27.2172
 X-27.3609 Z-0.5627
 X-27.5045 Z0.0000
 X-32.6750
 X-32.8187 Z-3.5000
 X-43.0162
 Y-39.2101
 X-32.9623
 X-32.8187 Z0.0000
 X-27.6481
 X-27.5045 Z-0.8922
 X-27.3609 Z-3.5000
 X-26.6427
 X-26.4991 Z-3.4588
 X-26.3555 Z-0.3431
 X-26.2118 Z0.0000
 X-13.2855
 X-13.1418 Z-0.0549
 X-12.7110 Z-3.3765
 X-12.5673 Z-3.5000
 X-9.9820
 X-9.8384 Z-3.2667
 X-9.4075 Z-0.0137
 X-9.2639 Z0.0000
 X12.9982
 X13.1418 Z-2.5392
 X13.2855 Z-3.5000
 X13.8600
 X14.0036 Z-3.0608
 X14.1472 Z0.0000
 X26.2118
 X26.3555 Z-0.3431
 X26.4991 Z-3.4588
 X26.6427 Z-3.5000
 X27.3609
 X27.5045 Z-0.8922
 X27.6481 Z0.0000
 X32.8187
 X32.9623 Z-3.5000
 X43.0162
 Y-39.6409
 X32.9623
 X32.8187 Z0.0000
 X27.7917
 X27.6481 Z-0.3157
 X27.5045 Z-3.5000
 X26.6427
 X26.4991 Z-0.6588
 X26.3555 Z0.0000
 X14.1472
G3 X13.8600 Y-39.6409 Z-3.5000 I-390.8431 K30.3156
G1 X13.1418
 X12.9982 Z-0.3569
 X12.8546 Z0.0000
 X-10.8438
 X-10.9874 Z-0.5078
G3 X-11.4183 Y-39.6409 Z-3.4451 I-43.4601 K4.8754
G1 X-11.5619 Z-3.5000
 X-13.7163
 X-13.8600 Z-3.4039
G3 X-14.1472 Y-39.6409 Z-0.7000 I59.5461 K7.6932
G1 X-14.2908 Z0.0000
 X-26.3555
 X-26.4991 Z-0.6588
 X-26.6427 Z-3.5000
 X-27.5045
 X-27.6481 Z-0.3157
 X-27.7917 Z0.0000
 X-32.8187
 X-32.9623 Z-3.5000
 X-43.0162
 Y-40.0718
 X-33.1059
 X-32.9623 Z0.0000
 X-27.7917
 X-27.6481 Z-3.0059
 X-27.5045 Z-3.5000
 X-26.7864
G3 X-26.4991 Y-40.0718 Z0.0000 I65.1818 K-3.5880
G1 X-15.2962
 X-15.1526 Z-0.7137
G2 X-14.8654 Y-40.0718 Z-3.4176 I54.5197 K4.4248
G1 X-14.7217 Z-3.5000
 X-12.7110
 X-12.5673 Z-3.0882
 X-12.2801 Z-0.5765
 X-12.1364 Z0.0000
 X12.8546
G2 X13.1418 Y-40.0718 Z-3.5000 I38.1924 K1.3728
G1 X13.8600
 X14.0036 Z-0.5353
 X14.1472 Z0.0000
 X26.4991
G3 X26.7864 Y-40.0718 Z-3.5000 I-64.8946 K-7.0880
G1 X27.5045
 X27.6481 Z-3.0059
 X27.7917 Z0.0000
 X32.9623
 X33.1059 Z-3.5000
 X43.0162
 Y-40.5027
 X33.2496
 X33.1059 Z0.0000
 X27.9354
G3 X27.6481 Y-40.5027 Z-3.5000 I-38.1924 K1.3728
G1 X26.9300
G3 X26.6427 Y-40.5027 Z0.0000 I33.2134 K4.4877
G1 X14.0036
G3 X13.7163 Y-40.5027 Z-3.5000 I-24.9818 K0.2885
G1 X12.9982
 X12.8546 Z-0.5353
 X12.7110 Z0.0000
 X-13.2855
 X-13.4291 Z-0.4941
 X-13.7163 Z-3.2941
 X-13.8600 Z-3.5000
 X-15.7271
 X-15.8707 Z-3.2392
 X-16.1580 Z-0.1922
 X-16.3016 Z0.0000
 X-26.6427
G3 X-26.9300 Y-40.5027 Z-3.5000 I-33.5006 K0.9877
G1 X-27.6481
G3 X-27.9354 Y-40.5027 Z0.0000 I37.9052 K4.8728
G1 X-33.1059
 X-33.2496 Z-3.5000
 X-43.0162
 Y-40.9336
 X-33.3932
 X-33.2496 Z0.0000
 X-28.0790
G3 X-27.7917 Y-40.9336 Z-3.5000 I-51.3898 K-5.9795
G1 X-27.0736
 X-26.9300 Z-3.1706
 X-26.7864 Z0.0000
 X-17.1634
 X-17.0197 Z-0.3706
 X-16.7325 Z-3.3078
 X-16.5889 Z-3.5000
 X-14.8654
 X-14.7217 Z-3.2941
 X-14.4345 Z-0.4804
 X-14.2908 Z0.0000
 X12.7110
G2 X12.9982 Y-40.9336 Z-3.5000 I25.6850 K0.3462
G1 X13.7163
 X13.8600 Z-0.5216
 X14.0036 Z0.0000
 X26.7864
 X26.9300 Z-3.0745
 X27.0736 Z-3.5000
 X27.7917
G3 X28.0790 Y-40.9336 Z0.0000 I51.6771 K-2.4795
G1 X33.2496
 X33.3932 Z-3.5000
 X43.0162
 Y-41.3645
 X33.3932
 X33.2496 Z0.0000
 X28.2226
 X28.0790 Z-0.5902
 X27.9354 Z-3.5000
 X27.0736
 X26.9300 Z-0.3706
 X26.7864 Z0.0000
 X13.8600
G3 X13.5727 Y-41.3645 Z-3.5000 I-45.7772 K1.9953
G1 X12.8546
 X12.7110 Z-0.7275
 X12.5673 Z0.0000
 X-15.2962
 X-15.4399 Z-0.8373
G3 X-15.7271 Y-41.3645 Z-3.5000 I-18.4192 K0.6402
G1 X-17.4506
 X-17.5943 Z-3.1431
G2 X-17.8815 Y-41.3645 Z-0.0549 I-74.5717 K-5.3791
G1 X-18.0251 Z0.0000
 X-26.7864
 X-26.9300 Z-0.4667
 X-27.0736 Z-3.5000
 X-27.9354
G2 X-28.2226 Y-41.3645 Z0.0000 I-24.9822 K-0.2885
G1 X-33.2496
 X-33.3932 Z-3.5000
 X-43.0162
 Y-41.7953
 X-33.5368
 X-33.3932 Z0.0000
 X-28.2226
 X-28.0790 Z-2.8275
 X-27.9354 Z-3.5000
 X-27.2172
G3 X-26.9300 Y-41.7953 Z0.0000 I47.6055 K-2.1454
G1 X-18.7433
 X-18.5996 Z-0.2745
G2 X-18.3124 Y-41.7953 Z-3.4725 I66.4004 K4.3522
G1 X-18.1688 Z-3.5000
 X-16.5889
G2 X-16.3016 Y-41.7953 Z-0.7412 I-21.5894 K3.6423
G1 X-16.1580 Z0.0000
 X12.5673
 X12.7110 Z-2.9784
 X12.8546 Z-3.5000
 X13.5727
 X13.7163 Z-0.2608
 X13.8600 Z0.0000
 X27.2172
 X27.3609 Z-0.8235
 X27.5045 Z-3.2392
 X27.6481 Z-3.5000
 X27.9354
 X28.0790 Z-3.0196
 X28.2226 Z0.0000
 X33.3932
 X33.5368 Z-3.5000
 X43.0162
 Y-42.2262
 X33.5368
 X33.3932 Z0.0000
 X28.3662
G2 X28.0790 Y-42.2262 Z-3.5000 I51.3898 K-5.9795
G1 X27.9354 Z-2.5804
 X27.7917 Z-0.1922
 X27.6481 Z0.0000
 X19.4614
 X19.3178 Z-0.4529
G3 X19.0305 Y-42.2262 Z-3.5000 I-28.1240 K1.1143
G1 X18.8869 Z-3.4176
 X18.7433 Z-0.0686
 X18.5996 Z0.0000
 X13.7163
G3 X13.4291 Y-42.2262 Z-3.5000 I-143.3991 K10.0073
G1 X12.7110
G3 X12.4237 Y-42.2262 Z0.0000 I81.4145 K8.4437
G1 X-17.0197
G2 X-17.3070 Y-42.2262 Z-2.7039 I19.4367 K-3.4321
G1 X-17.4506 Z-3.5000
 X-19.0305
G3 X-19.3178 Y-42.2262 Z-0.4529 I27.8368 K4.1613
G1 X-19.4614 Z0.0000
 X-27.0736
 X-27.2172 Z-2.5392
 X-27.3609 Z-3.5000
 X-28.0790
G2 X-28.3662 Y-42.2262 Z0.0000 I-93.3089 K-5.8963
G1 X-33.3932
 X-33.5368 Z-3.5000
 X-43.0162
 Y-42.6571
 X-33.6804
 X-33.5368 Z0.0000
 X-28.3662
 X-28.2226 Z-3.1706
 X-28.0790 Z-3.5000
 X-27.5045
 X-27.3609 Z-3.3216
 X-27.2172 Z-0.0275
 X-27.0736 Z0.0000
 X-20.1795
 X-20.0359 Z-0.1647
G2 X-19.7487 Y-42.6571 Z-3.4863 I76.9865 K4.9845
G1 X-19.6050 Z-3.5000
 X-18.3124
 X-18.1688 Z-3.3627
 X-17.8815 Z-0.0961
 X-17.7379 Z0.0000
 X12.2801
 X12.4237 Z-0.9882
 X12.5673 Z-3.5000
 X13.2855
 X13.4291 Z-3.1706
 X13.5727 Z0.0000
 X18.5996
G2 X18.8869 Y-42.6571 Z-3.5000 I76.8789 K4.5478
G1 X19.7487 Z-3.4863
G2 X20.0359 Y-42.6571 Z-0.1647 I-76.6992 K8.3060
G1 X20.1795 Z0.0000
 X33.5368
 X33.6804 Z-3.5000
 X43.0162
 Y-43.0880
 X33.6804
 X33.5368 Z0.0000
 X20.7540
G2 X20.4668 Y-43.0880 Z-3.1843 I28.6189 K-4.1868
G1 X20.3232 Z-3.5000
 X19.0305
 X18.8869 Z-3.2667
G2 X18.5996 Y-43.0880 Z-0.0412 I-84.9608 K-5.9420
G1 X18.4560 Z0.0000
 X13.5727
 X13.4291 Z-0.6588
 X13.2855 Z-3.5000
 X12.5673
 X12.4237 Z-3.4588
 X12.2801 Z-0.0961
 X12.1364 Z0.0000
 X-18.4560
 X-18.5996 Z-0.0412
G2 X-18.8869 Y-43.0880 Z-3.2667 I84.6736 K-9.1675
G1 X-19.0305 Z-3.5000
 X-20.3232
 X-20.4668 Z-3.1843
G2 X-20.7540 Y-43.0880 Z0.0000 I-28.9062 K-1.0025
G1 X-27.2172
G2 X-27.5045 Y-43.0880 Z-3.5000 I35.4365 K-4.6701
G1 X-28.2226
G2 X-28.5099 Y-43.0880 Z0.0000 I-36.9248 K-1.2687
G1 X-33.5368
 X-33.6804 Z-3.5000
 X-43.0162
 Y-43.5189
 X-33.8241
 X-33.6804 Z0.0000
 X-28.5099
 X-28.3662 Z-2.8824
 X-28.2226 Z-3.5000
 X-27.6481
 X-27.5045 Z-3.1569
 X-27.3609 Z0.0000
 X-21.4722
 X-21.3285 Z-0.2196
G2 X-21.0413 Y-43.5189 Z-3.5000 I32.2967 K1.1753
G1 X-19.7487
 X-19.6050 Z-3.4451
 X-19.3178 Z-0.0961
 X-19.1741 Z0.0000
 X-5.0987
 X-4.9551 Z-3.5000
 X4.9551
 X5.0987 Z0.0000
 X12.1364
 X12.2801 Z-2.8549
 X12.4237 Z-3.5000
 X13.1418
G3 X13.4291 Y-43.5189 Z0.0000 I210.1352 K-15.4845
G1 X19.1741
 X19.3178 Z-0.0961
 X19.6050 Z-3.4451
 X19.7487 Z-3.5000
 X21.0413
G2 X21.3285 Y-43.5189 Z-0.2196 I-32.0094 K4.4557
G1 X21.4722 Z0.0000
 X33.6804
 X33.8241 Z-3.5000
 X43.0162
 Y-43.9497
 X33.8241
 X33.6804 Z0.0000
 X22.0467
 X21.9031 Z-0.4804
 X21.7594 Z-2.7588
 X21.6158 Z-3.5000
 X20.3232
 X20.1795 Z-2.6765
 X20.0359 Z-0.5353
 X19.8923 Z0.0000
 X13.2855
 X13.1418 Z-2.9922
 X12.9982 Z-3.5000
 X12.2801
G3 X11.9928 Y-43.9497 Z0.0000 I81.4145 K8.4437
G1 X6.8223
 X6.6786 Z-3.5000
 X-6.6786
 X-6.8223 Z0.0000
 X-19.8923
 X-20.0359 Z-0.5353
 X-20.1795 Z-2.6765
 X-20.3232 Z-3.5000
 X-21.6158
 X-21.7594 Z-2.7588
 X-21.9031 Z-0.4804
 X-22.0467 Z0.0000
 X-27.3609
G2 X-27.6481 Y-43.9497 Z-3.5000 I93.0216 K-9.3963
G1 X-28.3662
 X-28.5099 Z-0.9745
 X-28.6535 Z0.0000
 X-33.6804
 X-33.8241 Z-3.5000
 X-43.0162
 Y-44.3806
 X-33.8241
 X-33.6804 Z0.0000
 X-28.6535
G2 X-28.3662 Y-44.3806 Z-3.5000 I44.0659 K1.8548
G1 X-27.7917
 X-27.6481 Z-3.4039
 X-27.5045 Z-0.0275
 X-27.3609 Z0.0000
 X-22.4776
G2 X-22.1903 Y-44.3806 Z-3.5000 I27.1749 K0.4685
G1 X-20.8977 Z-3.4725
G2 X-20.6104 Y-44.3806 Z-0.0686 I-156.6162 K14.9313
G1 X-20.4668 Z0.0000
 X-6.6786
 X-6.5350 Z-3.5000
 X6.5350
 X6.6786 Z0.0000
 X11.8492
 X11.9928 Z-0.9745
 X12.1364 Z-3.5000
 X12.8546
 X12.9982 Z-3.3078
 X13.1418 Z-0.0686
 X13.2855 Z0.0000
 X20.4668
 X20.6104 Z-0.0686
G2 X20.8977 Y-44.3806 Z-3.4725 I156.9035 K11.5274
G1 X22.1903 Z-3.5000
 X22.3339 Z-3.1020
 X22.4776 Z-0.7824
 X22.6212 Z0.0000
 X33.6804
 X33.8241 Z-3.5000
 X43.0162
 Y-44.8115
 X33.9677
 X33.8241 Z0.0000
 X23.1957
 X23.0521 Z-0.4804
 X22.9084 Z-2.8686
 X22.7648 Z-3.5000
 X21.6158
 X21.4722 Z-3.3490
G2 X21.1849 Y-44.8115 Z0.0000 I-52.9129 K-2.8516
G1 X13.1418
 X12.9982 Z-0.4118
 X12.8546 Z-3.5000
 X11.9928
 X11.8492 Z-0.4529
 X11.7056 Z0.0000
 X6.5350
 X6.3914 Z-3.5000
 X-6.3914
 X-6.5350 Z0.0000
 X-21.1849
G2 X-21.4722 Y-44.8115 Z-3.3490 I52.6256 K-6.2006
G1 X-21.6158 Z-3.5000
 X-22.3339
 X-22.4776 Z-0.2608
 X-22.6212 Z0.0000
 X-27.5045
G3 X-27.7917 Y-44.8115 Z-3.5000 I-42.4613 K1.7231
G1 X-28.3662
 X-28.5099 Z-3.1157
 X-28.6535 Z0.0000
 X-33.8241
 X-33.9677 Z-3.5000
 X-43.0162
 Y-45.2424
 X-33.9677
 X-33.8241 Z0.0000
 X-28.7971
 X-28.6535 Z-0.5627
 X-28.5099 Z-3.5000
 X-27.7917
G3 X-27.5045 Y-45.2424 Z0.0000 I32.4684 K-0.9030
G1 X-22.6212
G3 X-22.3339 Y-45.2424 Z-3.5000 I-129.3094 K-12.3745
G1 X-22.1903
 X-22.0467 Z-3.3353
G3 X-21.7594 Y-45.2424 Z0.0000 I28.7563 K-0.7966
G1 X-11.8492
 X-11.7056 Z-0.0824
 X-11.5619 Z0.0000
 X-6.3914
 X-6.2478 Z-3.5000
 X6.2478
 X6.3914 Z0.0000
 X11.5619
 X11.7056 Z-0.0824
 X11.8492 Z-3.3490
 X11.9928 Z-3.5000
 X12.7110
 X12.8546 Z-0.9333
 X12.9982 Z0.0000
 X21.7594
G3 X22.0467 Y-45.2424 Z-3.3353 I-28.4690 K-4.1319
G1 X22.1903 Z-3.5000
 X23.3393
G2 X23.6266 Y-45.2424 Z-0.2471 I-19.8943 K3.3959
G1 X23.7702 Z0.0000
 X33.8241
 X33.9677 Z-3.5000
 X43.0162
 Y-45.6732
 X33.9677
 X33.8241 Z0.0000
 X24.2011
G2 X23.9138 Y-45.6732 Z-3.4588 I71.7553 K-7.7006
G1 X23.7702 Z-3.5000
 X22.7648
 X22.6212 Z-3.4588
G2 X22.3339 Y-45.6732 Z0.0000 I-131.4128 K-9.1724
G1 X12.8546
G2 X12.5673 Y-45.6732 Z-3.5000 I29.3613 K-4.1716
G1 X11.8492
 X11.7056 Z-3.2392
 X11.5619 Z-0.0549
 X11.4183 Z0.0000
 X6.2478
 X6.1041 Z-3.5000
 X-6.1041
 X-6.2478 Z0.0000
 X-11.4183
 X-11.5619 Z-0.0549
 X-11.7056 Z-3.2392
 X-11.8492 Z-3.5000
 X-12.2801
 X-12.4237 Z-3.4039
G3 X-12.7110 Y-45.6732 Z-0.7275 I63.9690 K8.2191
G1 X-12.8546 Z0.0000
 X-22.3339
 X-22.4776 Z-1.5922
 X-22.6212 Z0.0000
 X-27.5045
 X-27.6481 Z-0.2882
 X-27.7917 Z-3.5000
 X-28.5099
G2 X-28.7971 Y-45.6732 Z0.0000 I-81.7019 K-4.9437
G1 X-33.8241
 X-33.9677 Z-3.5000
 X-43.0162
 Y-46.1041
 X-33.9677
 X-33.8241 Z0.0000
 X-28.7971
G2 X-28.5099 Y-46.1041 Z-3.5000 I39.5330 K1.4828
G1 X-27.9354
 X-27.7917 Z-2.8824
 X-27.6481 Z0.0000
 X-12.7110
G3 X-12.4237 Y-46.1041 Z-3.5000 I-26.1281 K-3.9062
G1 X-11.7056
 X-11.5619 Z-3.2667
 X-11.4183 Z-0.0686
 X-11.2747 Z0.0000
 X-5.9605
 X-5.8169 Z-3.5000
 X5.8169
 X5.9605 Z0.0000
 X11.2747
 X11.4183 Z-0.0686
 X11.5619 Z-3.2667
 X11.7056 Z-3.5000
 X12.4237
G3 X12.7110 Y-46.1041 Z0.0000 I26.4154 K-0.4062
G1 X22.7648
 X22.9084 Z-0.0961
G2 X23.1957 Y-46.1041 Z-3.5000 I33.2783 K1.0942
G1 X24.3447
 X24.4883 Z-2.8000
 X24.6320 Z-0.3431
 X24.7756 Z0.0000
 X33.8241
 X33.9677 Z-3.5000
 X43.0162
 Y-46.5350
 X33.9677
 X33.8241 Z0.0000
 X25.2065
G2 X24.9192 Y-46.5350 Z-3.4451 I58.8013 K-6.6374
G1 X24.7756 Z-3.5000
 X23.7702
 X23.6266 Z-3.2941
 X23.4829 Z-0.9196
 X23.3393 Z0.0000
 X12.5673
G2 X12.2801 Y-46.5350 Z-3.5000 I23.3634 K-3.6793
G1 X11.5619
 X11.4183 Z-3.2804
 X11.2747 Z-0.0824
 X11.1311 Z0.0000
 X5.8169
 X5.6732 Z-3.5000
 X-5.6732
 X-5.8169 Z0.0000
 X-11.1311
 X-11.2747 Z-0.0824
 X-11.4183 Z-3.2804
 X-11.5619 Z-3.5000
 X-12.2801
G2 X-12.5673 Y-46.5350 Z0.0000 I-23.6507 K-0.1793
G1 X-27.6481
 X-27.7917 Z-2.5255
 X-27.9354 Z-3.5000
 X-28.5099
 X-28.6535 Z-2.4980
 X-28.7971 Z0.0000
 X-33.8241
 X-33.9677 Z-3.5000
 X-43.0162
 Y-46.9659
 X-34.1113
 X-33.9677 Z0.0000
 X-28.7971
 X-28.6535 Z-2.8000
 X-28.5099 Z-3.5000
 X-27.9354
G2 X-27.6481 Y-46.9659 Z0.0000 I-39.2457 K4.9828
G1 X-12.4237
 X-12.2801 Z-1.0157
 X-12.1364 Z-3.5000
 X-11.4183
 X-11.2747 Z-3.2941
 X-11.1311 Z-0.1098
 X-10.9874 Z0.0000
 X-5.6732
 X-5.5296 Z-3.5000
 X5.5296
 X5.6732 Z0.0000
 X10.9874
 X11.1311 Z-0.1098
 X11.2747 Z-3.2941
 X11.4183 Z-3.5000
 X12.1364
 X12.2801 Z-1.0157
 X12.4237 Z0.0000
 X23.7702
 X23.9138 Z-0.1373
G2 X24.2011 Y-46.9659 Z-3.5000 I25.3027 K0.4678
G1 X25.3501
G2 X25.6373 Y-46.9659 Z-0.0275 I-44.3904 K5.4202
G1 X25.7810 Z0.0000
 X33.9677
 X34.1113 Z-3.5000
 X43.0162
 Y-47.3968
 X34.1113
 X33.9677 Z0.0000
 X26.2118
 X26.0682 Z-0.1922
 X25.9246 Z-2.6627
 X25.7810 Z-3.5000
 X24.6320
G2 X24.3447 Y-47.3968 Z0.0000 I-181.9801 K-13.1737
G1 X12.2801
 X12.1364 Z-0.7686
 X11.9928 Z-3.5000
 X11.1311 Z-3.4863
 X10.9874 Z-0.4804
 X10.8438 Z0.0000
 X5.3860
 X5.2424 Z-3.5000
 X-5.2424
 X-5.3860 Z0.0000
 X-10.8438
 X-10.9874 Z-0.4804
 X-11.1311 Z-3.4863
 X-11.2747 Z-3.5000
 X-11.9928
 X-12.1364 Z-0.7686
 X-12.2801 Z0.0000
 X-27.6481
G3 X-27.9354 Y-47.3968 Z-3.5000 I-160.4298 K11.4051
G1 X-28.5099
 X-28.6535 Z-3.1020
 X-28.7971 Z0.0000
 X-33.9677
 X-34.1113 Z-3.5000
 X-43.0162
 Y-47.8276
 X-34.1113
 X-33.9677 Z0.0000
 X-28.7971
 X-28.6535 Z-3.2941
 X-28.5099 Z-3.5000
 X-27.9354
G2 X-27.6481 Y-47.8276 Z0.0000 I-390.5559 K33.8156
G1 X-12.1364
 X-11.9928 Z-0.2333
 X-11.8492 Z-3.3902
 X-11.7056 Z-3.5000
 X-10.9874
G3 X-10.7002 Y-47.8276 Z0.0000 I27.1749 K-0.4685
G1 X-5.2424
 X-5.0987 Z-3.5000
 X5.0987
 X5.2424 Z0.0000
 X10.7002
G3 X10.9874 Y-47.8276 Z-3.5000 I-26.8876 K-3.9685
G1 X11.7056
 X11.8492 Z-3.3902
 X11.9928 Z-0.2333
 X12.1364 Z0.0000
 X24.7756
G3 X25.0628 Y-47.8276 Z-3.3902 I-22.2033 K-3.5886
G1 X25.2065 Z-3.5000
 X26.2118
 X26.3555 Z-2.9235
 X26.4991 Z-0.2882
 X26.6427 Z0.0000
 X33.9677
 X34.1113 Z-3.5000
 X43.0162
 Y-48.2585
 X34.1113
 X33.9677 Z0.0000
 X27.0736
 X26.9300 Z-0.1784
 X26.7864 Z-2.7451
 X26.6427 Z-3.5000
 X25.6373
 X25.4937 Z-3.3078
 X25.3501 Z-0.7549
 X25.2065 Z0.0000
 X11.8492
 X11.7056 Z-2.9647
 X11.5619 Z-3.5000
 X10.8438
G3 X10.5566 Y-48.2585 Z0.0000 I303.5851 K26.6777
G1 X5.0987
 X4.9551 Z-3.5000
 X-4.9551
 X-5.0987 Z0.0000
 X-10.5566
G3 X-10.8438 Y-48.2585 Z-3.5000 I-303.8724 K23.1777
G1 X-11.5619
 X-11.7056 Z-2.9647
 X-11.8492 Z0.0000
 X-27.6481
G3 X-27.9354 Y-48.2585 Z-3.5000 I-31.4857 K0.8223
G1 X-28.5099
 X-28.6535 Z-2.7863
 X-28.7971 Z0.0000
 X-33.9677
 X-34.1113 Z-3.5000
 X-43.0162
 Y-48.6894
 X-34.1113
 X-33.9677 Z0.0000
 X-28.7971
G2 X-28.5099 Y-48.6894 Z-3.5000 I32.4691 K0.9030
G1 X-27.9354
 X-27.7917 Z-2.8000
 X-27.6481 Z0.0000
 X-17.8815
 X-17.7379 Z-3.5000
 X-17.3070
 X-17.1634 Z0.0000
 X-11.7056
G2 X-11.4183 Y-48.6894 Z-3.5000 I28.7893 K0.6010
G1 X-10.7002
 X-10.5566 Z-2.4980
 X-10.4129 Z0.0000
 X-4.8115
 X-4.6679 Z-3.5000
 X4.6679
 X4.8115 Z0.0000
 X10.4129
 X10.5566 Z-2.4980
 X10.7002 Z-3.5000
 X11.4183
G2 X11.7056 Y-48.6894 Z0.0000 I-28.5020 K4.1010
G1 X17.1634
 X17.3070 Z-3.5000
 X17.7379
 X17.8815 Z0.0000
 X25.6373
 X25.7810 Z-0.7961
 X25.9246 Z-3.3353
 X26.0682 Z-3.5000
 X27.0736
G2 X27.3609 Y-48.6894 Z-0.0275 I-24.7445 K3.7951
G1 X27.5045 Z0.0000
 X33.9677
 X34.1113 Z-3.5000
 X43.0162
 Y-49.1203
 X34.3986
 X34.2549 Z0.0000
 X27.7917
G2 X27.5045 Y-49.1203 Z-3.5000 I39.2447 K-4.9828
G1 X26.4991
 X26.3555 Z-3.4039
 X26.2118 Z-0.9882
 X26.0682 Z0.0000
 X18.4560
 X18.3124 Z-3.5000
 X17.1634
 X17.0197 Z0.0000
 X11.5619
G2 X11.2747 Y-49.1203 Z-3.5000 I209.8480 K-18.9845
G1 X10.5566
 X10.4129 Z-3.4176
 X10.2693 Z-0.3294
 X10.1257 Z0.0000
 X4.6679
 X4.5242 Z-3.5000
 X-4.5242
 X-4.6679 Z0.0000
 X-10.1257
 X-10.2693 Z-0.3294
 X-10.4129 Z-3.4176
 X-10.5566 Z-3.5000
 X-11.2747
G2 X-11.5619 Y-49.1203 Z0.0000 I-210.1352 K-15.4845
G1 X-17.0197
 X-17.1634 Z-3.5000
 X-18.3124
 X-18.4560 Z0.0000
 X-27.6481
 X-27.7917 Z-3.2941
 X-27.9354 Z-3.5000
 X-28.5099
G3 X-28.7971 Y-49.1203 Z0.0000 I912.0408 K76.6151
G1 X-34.2549
 X-34.3986 Z-3.5000
 X-43.0162
 Y-49.5512
 X-34.6858
 X-34.5422 Z0.0000
 X-28.7971
G3 X-28.5099 Y-49.5512 Z-3.5000 I-35.4365 K-4.6701
G1 X-27.7917
 X-27.6481 Z-0.2882
 X-27.5045 Z0.0000
 X-19.0305
 X-18.8869 Z-3.5000
 X-16.8761
 X-16.7325 Z0.0000
 X-11.4183
 X-11.2747 Z-0.4392
 X-11.1311 Z-3.4588
 X-10.9874 Z-3.5000
 X-10.2693
G3 X-9.9820 Y-49.5512 Z0.0000 I76.8789 K-4.5478
G1 X-4.3806
 X-4.2370 Z-3.5000
 X4.2370
 X4.3806 Z0.0000
 X9.9820
G3 X10.2693 Y-49.5512 Z-3.5000 I-76.5917 K-8.0478
G1 X10.9874
 X11.1311 Z-3.4588
 X11.2747 Z-0.4392
 X11.4183 Z0.0000
 X16.7325
 X16.8761 Z-3.5000
 X18.8869
 X19.0305 Z0.0000
 X26.4991
G3 X26.7864 Y-49.5512 Z-3.4588 I-31.4789 K-4.3556
G1 X26.9300 Z-3.5000
 X27.7917
 X27.9354 Z-3.1843
 X28.0790 Z-0.4667
 X28.2226 Z0.0000
 X34.5422
 X34.6858 Z-3.5000
 X43.0162
 Y-49.9820
 X35.1167
 X34.9731 Z0.0000
 X28.5099
G3 X28.2226 Y-49.9820 Z-3.5000 I-33.5006 K0.9877
G1 X27.2172
G3 X26.9300 Y-49.9820 Z0.0000 I43.7786 K5.3548
G1 X19.6050
 X19.4614 Z-3.5000
 X16.7325
 X16.5889 Z0.0000
 X11.1311
 X10.9874 Z-2.6353
 X10.8438 Z-3.5000
 X10.1257
 X9.9820 Z-2.7863
 X9.8384 Z0.0000
 X4.0934
 X3.9497 Z-3.5000
 X-3.9497
 X-4.0934 Z0.0000
 X-9.8384
 X-9.9820 Z-2.7863
 X-10.1257 Z-3.5000
 X-10.8438
 X-10.9874 Z-2.6353
 X-11.1311 Z0.0000
 X-16.5889
 X-16.7325 Z-3.5000
 X-19.4614
 X-19.6050 Z0.0000
 X-27.5045
 X-27.6481 Z-0.7824
 X-27.7917 Z-3.5000
 X-28.5099
 X-28.6535 Z-0.7686
 X-28.7971 Z0.0000
 X-34.9731
 X-35.1167 Z-3.5000
 X-43.0162
 Y-50.4129
 X-35.4039
 X-35.2603 Z0.0000
 X-28.7971
 X-28.6535 Z-0.2608
 X-28.5099 Z-3.5000
 X-27.7917
G3 X-27.5045 Y-50.4129 Z0.0000 I303.8736 K-23.1778
G1 X-20.1795
 X-20.0359 Z-3.5000
 X-16.5889
 X-16.4452 Z0.0000
 X-10.9874
G3 X-10.7002 Y-50.4129 Z-3.5000 I-43.7791 K-5.3548
G1 X-9.8384
 X-9.6948 Z-0.8784
 X-9.5512 Z0.0000
 X-3.8061
 X-3.6625 Z-3.5000
 X3.6625
 X3.8061 Z0.0000
 X9.5512
 X9.6948 Z-0.8784
 X9.8384 Z-3.5000
 X10.7002
G3 X10.9874 Y-50.4129 Z0.0000 I44.0664 K-1.8548
G1 X16.4452
 X16.5889 Z-3.5000
 X20.0359
 X20.1795 Z0.0000
 X27.2172
 X27.3609 Z-0.3157
 X27.5045 Z-3.0471
 X27.6481 Z-3.5000
 X28.5099
 X28.6535 Z-3.2941
 X28.7971 Z-0.5353
 X28.9408 Z0.0000
 X35.2603
 X35.4039 Z-3.5000
 X43.0162
 Y-50.8438
 X35.6912
 X35.5476 Z0.0000
 X29.2280
G3 X28.9408 Y-50.8438 Z-3.5000 I-143.3991 K10.0073
G1 X27.9354 Z-3.4863
G2 X27.6481 Y-50.8438 Z0.0000 I-26.4513 K-0.4245
G1 X20.6104
 X20.4668 Z-3.5000
 X16.4452
 X16.3016 Z0.0000
 X10.8438
 X10.7002 Z-0.2059
 X10.5566 Z-3.2667
 X10.4129 Z-3.5000
 X9.6948
 X9.5512 Z-2.6902
 X9.4075 Z0.0000
 X3.6625
 X3.5189 Z-3.5000
 X-3.5189
 X-3.6625 Z0.0000
 X-9.4075
 X-9.5512 Z-2.6902
 X-9.6948 Z-3.5000
 X-10.4129
 X-10.5566 Z-3.2667
 X-10.7002 Z-0.2059
 X-10.8438 Z0.0000
 X-16.3016
 X-16.4452 Z-3.5000
 X-20.4668
 X-20.6104 Z0.0000
 X-27.5045
 X-27.6481 Z-3.1980
 X-27.7917 Z-3.5000
 X-28.3662
 X-28.5099 Z-2.8000
 X-28.6535 Z0.0000
 X-35.5476
 X-35.6912 Z-3.5000
 X-43.0162
 Y-51.2747
 X-35.8348
 X-35.6912 Z0.0000
 X-28.6535
G3 X-28.3662 Y-51.2747 Z-3.5000 I-35.4365 K-4.6701
G1 X-27.6481
G3 X-27.3609 Y-51.2747 Z0.0000 I30.5460 K-0.7452
G1 X-21.0413
 X-20.8977 Z-3.5000
 X-16.3016
 X-16.1580 Z0.0000
 X-10.5566
G3 X-10.2693 Y-51.2747 Z-3.5000 I-117.8927 K-11.4375
G1 X-9.4075
G3 X-9.1203 Y-51.2747 Z0.0000 I23.6504 K-0.1793
G1 X-3.3752
 X-3.2316 Z-3.5000
 X3.2316
 X3.3752 Z0.0000
 X9.1203
G3 X9.4075 Y-51.2747 Z-3.5000 I-23.3631 K-3.6793
G1 X10.2693
G3 X10.5566 Y-51.2747 Z0.0000 I118.1800 K-7.9375
G1 X16.1580
 X16.3016 Z-3.5000
 X20.8977
 X21.0413 Z0.0000
 X27.9354
 X28.0790 Z-0.1510
 X28.2226 Z-2.8686
 X28.3662 Z-3.5000
 X29.2280
 X29.3716 Z-3.0882
 X29.5153 Z-0.2471
 X29.6589 Z0.0000
 X35.6912
 X35.8348 Z-3.5000
 X43.0162
 Y-51.7056
 X36.1221
 X35.9785 Z0.0000
 X29.9461
 X29.8025 Z-0.7000
 X29.6589 Z-3.4176
 X29.5153 Z-3.5000
 X28.6535
G2 X28.3662 Y-51.7056 Z0.0000 I-61.9984 K-3.3264
G1 X21.6158
 X21.4722 Z-3.5000
 X16.0144
 X15.8707 Z0.0000
 X10.4129
 X10.2693 Z-0.0961
 X10.1257 Z-3.1294
 X9.9820 Z-3.5000
 X9.2639
 X9.1203 Z-2.9235
 X8.9767 Z-0.0275
 X8.8330 Z0.0000
 X3.0880
 X2.9443 Z-3.5000
 X-2.9443
 X-3.0880 Z0.0000
 X-8.8330
 X-8.9767 Z-0.0275
 X-9.1203 Z-2.9235
 X-9.2639 Z-3.5000
 X-9.9820
 X-10.1257 Z-3.1294
 X-10.2693 Z-0.0961
 X-10.4129 Z0.0000
 X-15.8707
 X-16.0144 Z-3.5000
 X-21.4722
 X-21.6158 Z0.0000
 X-27.3609
 X-27.5045 Z-2.7039
 X-27.6481 Z-3.5000
 X-28.2226
 X-28.3662 Z-3.2392
 X-28.5099 Z0.0000
 X-35.9785
 X-36.1221 Z-3.5000
 X-43.0162
 Y-52.1364
 X-36.4093
 X-36.2657 Z0.0000
 X-28.5099
G3 X-28.2226 Y-52.1364 Z-3.5000 I-390.5578 K-33.8158
G1 X-27.5045
 X-27.3609 Z-0.7000
 X-27.2172 Z0.0000
 X-22.0467
 X-21.9031 Z-3.5000
 X-15.8707
 X-15.7271 Z0.0000
 X-10.1257
G3 X-9.8384 Y-52.1364 Z-3.5000 I-42.1741 K-5.2231
G1 X-8.9767
G3 X-8.6894 Y-52.1364 Z0.0000 I303.8736 K-23.1778
G1 X-2.8007
 X-2.6571 Z-3.5000
 X2.6571
 X2.8007 Z0.0000
 X8.6894
G3 X8.9767 Y-52.1364 Z-3.5000 I-303.5863 K-26.6778
G1 X9.8384
G3 X10.1257 Y-52.1364 Z0.0000 I42.4613 K-1.7231
G1 X15.7271
 X15.8707 Z-3.5000
 X21.9031
 X22.0467 Z0.0000
 X28.6535
 X28.7971 Z-0.4118
 X28.9408 Z-3.2529
 X29.0844 Z-3.5000
 X29.9461
G3 X30.2334 Y-52.1364 Z0.0000 I49.5683 K-2.3064
G1 X36.2657
 X36.4093 Z-3.5000
 X43.0162
 Y-52.5673
 X36.6966
 X36.5530 Z0.0000
 X30.5206
G3 X30.2334 Y-52.5673 Z-3.5000 I-42.4613 K1.7231
G1 X29.3716
 X29.2280 Z-2.7863
 X29.0844 Z-0.0824
 X28.9408 Z0.0000
 X22.0467
 X21.9031 Z-3.5000
 X15.5835
 X15.4399 Z0.0000
 X9.8384
G3 X9.5512 Y-52.5673 Z-3.5000 I-32.4691 K0.9030
G1 X8.6894 Z-3.4863
 X8.5458 Z-0.7137
 X8.4022 Z0.0000
 X2.5135
 X2.3698 Z-3.5000
 X-2.3698
 X-2.5135 Z0.0000
 X-8.4022
 X-8.5458 Z-0.7137
 X-8.6894 Z-3.4863
 X-8.8330 Z-3.5000
 X-9.5512
G3 X-9.8384 Y-52.5673 Z0.0000 I32.1819 K4.4030
G1 X-15.4399
 X-15.5835 Z-3.5000
 X-21.9031
 X-22.0467 Z0.0000
 X-27.2172
G3 X-27.5045 Y-52.5673 Z-3.5000 I-38.1924 K1.3728
G1 X-28.2226
 X-28.3662 Z-0.1647
 X-28.5099 Z0.0000
 X-36.5530
 X-36.6966 Z-3.5000
 X-43.0162
 Y-52.9982
 X-36.9838
 X-36.8402 Z0.0000
 X-28.3662
G2 X-28.0790 Y-52.9982 Z-3.5000 I45.7772 K1.9953
G1 X-27.3609
 X-27.2172 Z-0.8922
 X-27.0736 Z0.0000
 X-22.0467
 X-21.9031 Z-3.5000
 X-15.4399
 X-15.2962 Z0.0000
 X-9.6948
 X-9.5512 Z-0.1235
 X-9.4075 Z-3.1020
 X-9.2639 Z-3.5000
 X-8.5458
 X-8.4022 Z-3.0882
 X-8.2585 Z-0.1235
 X-8.1149 Z0.0000
 X-2.0826
 X-1.9390 Z-3.5000
 X1.9390
 X2.0826 Z0.0000
 X8.1149
 X8.2585 Z-0.1235
 X8.4022 Z-3.0882
 X8.5458 Z-3.5000
 X9.2639
 X9.4075 Z-3.1020
 X9.5512 Z-0.1235
 X9.6948 Z0.0000
 X15.2962
 X15.4399 Z-3.5000
 X21.9031
 X22.0467 Z0.0000
 X29.3716
G2 X29.6589 Y-52.9982 Z-3.5000 I59.0833 K3.0873
G1 X30.5206
G2 X30.8079 Y-52.9982 Z0.0000 I-22.1224 K3.5774
G1 X36.8402
 X36.9838 Z-3.5000
 X43.0162
 Y-53.4291
 X37.1275
 X36.9838 Z0.0000
 X31.0952
 X30.9515 Z-2.5392
 X30.8079 Z-3.5000
 X29.9461
G2 X29.6589 Y-53.4291 Z0.0000 I-76.8789 K-4.5478
G1 X21.9031
 X21.7594 Z-3.5000
 X15.2962
 X15.1526 Z0.0000
 X9.4075
 X9.2639 Z-0.7137
 X9.1203 Z-3.4863
 X8.9767 Z-3.5000
 X8.2585
G3 X7.9713 Y-53.4291 Z0.0000 I29.3615 K4.1716
G1 X1.7953
 X1.6517 Z-3.5000
 X-1.6517
 X-1.7953 Z0.0000
 X-7.9713
G3 X-8.2585 Y-53.4291 Z-3.5000 I-29.6488 K0.6716
G1 X-9.1203 Z-3.4863
 X-9.2639 Z-0.7137
 X-9.4075 Z0.0000
 X-15.1526
 X-15.2962 Z-3.5000
 X-21.7594
 X-21.9031 Z0.0000
 X-26.9300
 X-27.0736 Z-0.0824
 X-27.2172 Z-3.3902
 X-27.3609 Z-3.5000
 X-28.0790
 X-28.2226 Z-0.6039
 X-28.3662 Z0.0000
 X-36.9838
 X-37.1275 Z-3.5000
 X-43.0162
 Y-53.8600
 X-37.4147
 X-37.2711 Z0.0000
 X-28.2226
G2 X-27.9354 Y-53.8600 Z-3.5000 I912.3280 K73.1151
G1 X-27.2172
 X-27.0736 Z-2.5529
 X-26.9300 Z0.0000
 X-21.7594
 X-21.6158 Z-3.5000
 X-15.0090
 X-14.8654 Z0.0000
 X-9.1203
G3 X-8.8330 Y-53.8600 Z-3.5000 I-108.2893 K-10.6493
G1 X-7.9713
G2 X-7.6840 Y-53.8600 Z0.0000 I-64.8971 K7.0880
G1 X-1.5081
 X-1.3645 Z-3.5000
 X1.3645
 X1.5081 Z0.0000
 X7.6840
G2 X7.9713 Y-53.8600 Z-3.5000 I65.1844 K3.5880
G1 X8.8330
G3 X9.1203 Y-53.8600 Z0.0000 I108.5765 K-7.1493
G1 X14.8654
 X15.0090 Z-3.5000
 X21.6158
 X21.7594 Z0.0000
 X29.9461
G3 X30.2334 Y-53.8600 Z-3.5000 I-56.1244 K-6.3680
G1 X31.0952
 X31.2388 Z-2.6078
 X31.3824 Z-0.0137
 X37.2711 Z0.0000
 X37.4147 Z-3.5000
 X43.0162
 Y-54.2908
 X37.7020
 X37.5583 Z0.0000
 X31.6697
G3 X31.3824 Y-54.2908 Z-3.5000 I-27.1749 K0.4685
G1 X30.5206
G2 X30.2334 Y-54.2908 Z0.0000 I-44.0645 K-1.8548
G1 X21.6158
 X21.4722 Z-3.5000
 X14.7217
 X14.5781 Z0.0000
 X8.8330
G3 X8.5458 Y-54.2908 Z-3.5000 I-181.9797 K13.1737
G1 X7.6840
G2 X7.3968 Y-54.2908 Z0.0000 I-2737.0946 K-222.8779
G1 X1.0772
 X0.9336 Z-3.5000
 X-0.9336
 X-1.0772 Z0.0000
 X-7.3968
G2 X-7.6840 Y-54.2908 Z-3.5000 I2736.8074 K-226.3779
G1 X-8.5458
G3 X-8.8330 Y-54.2908 Z0.0000 I181.6925 K16.6737
G1 X-14.5781
 X-14.7217 Z-3.5000
 X-21.4722
 X-21.6158 Z0.0000
 X-26.7864
G2 X-27.0736 Y-54.2908 Z-3.5000 I160.1429 K-14.9051
G1 X-27.7917
 X-27.9354 Z-2.7039
 X-28.0790 Z0.0000
 X-37.5583
 X-37.7020 Z-3.5000
 X-43.0162
 Y-54.7217
 X-37.8456
 X-37.7020 Z0.0000
 X-28.0790
 X-27.9354 Z-0.1647
 X-27.7917 Z-3.4451
 X-27.6481 Z-3.5000
 X-26.9300
 X-26.7864 Z-0.7000
 X-26.6427 Z0.0000
 X-21.4722
 X-21.3285 Z-3.5000
 X-14.5781
 X-14.4345 Z0.0000
 X-8.5458
G2 X-8.2585 Y-54.7217 Z-3.5000 I49.5683 K2.3064
G1 X-7.3968
G3 X-7.1095 Y-54.7217 Z0.0000 I61.9965 K-3.3264
G1 X-0.7899
 X-0.6463 Z-3.5000
 X0.6463
 X0.7899 Z0.0000
 X7.1095
G3 X7.3968 Y-54.7217 Z-3.5000 I-61.7093 K-6.8264
G1 X8.2585
G2 X8.5458 Y-54.7217 Z0.0000 I-49.2811 K5.8064
G1 X14.4345
 X14.5781 Z-3.5000
 X21.3285
 X21.4722 Z0.0000
 X30.5206
G3 X30.8079 Y-54.7217 Z-3.5000 I-68.4074 K-7.3759
G1 X31.6697
G2 X31.9569 Y-54.7217 Z0.0000 I-912.0408 K76.6151
G1 X37.7020
 X37.8456 Z-3.5000
 X43.0162
 Y-55.1526
 X38.1329
 X37.9892 Z0.0000
 X32.2442
G2 X31.9569 Y-55.1526 Z-3.5000 I29.3608 K-4.1716
G1 X31.0952
G3 X30.8079 Y-55.1526 Z0.0000 I53.6639 K6.1661
G1 X21.3285
 X21.1849 Z-3.5000
 X14.2908
 X14.1472 Z0.0000
 X8.2585
G3 X7.9713 Y-55.1526 Z-3.5000 I-26.4154 K0.4062
G1 X7.1095
G3 X6.8223 Y-55.1526 Z0.0000 I303.5851 K26.6777
G1 X0.3591
 X0.2154 Z-3.5000
 X-0.2154
 X-0.3591 Z0.0000
 X-6.8223
G3 X-7.1095 Y-55.1526 Z-3.5000 I-303.8724 K23.1777
G1 X-7.9713
G3 X-8.2585 Y-55.1526 Z0.0000 I26.1281 K3.9062
G1 X-14.1472
 X-14.2908 Z-3.5000
 X-21.1849
 X-21.3285 Z0.0000
 X-26.4991
 X-26.6427 Z-0.0412
 X-26.7864 Z-3.2667
 X-26.9300 Z-3.5000
 X-27.6481
G2 X-27.9354 Y-55.1526 Z0.0000 I-21.8199 K-0.0290
G1 X-37.9892
 X-38.1329 Z-3.5000
 X-43.0162
 Y-55.5835
 X-38.2765
 X-38.1329 Z0.0000
 X-27.7917
G2 X-27.5045 Y-55.5835 Z-3.5000 I87.1362 K5.3897
G1 X-26.7864
G2 X-26.4991 Y-55.5835 Z0.0000 I-23.3632 K3.6793
G1 X-21.1849
 X-21.0413 Z-3.5000
 X-14.1472
 X-14.0036 Z0.0000
 X-7.9713
G2 X-7.6840 Y-55.5835 Z-3.5000 I34.5840 K1.0766
G1 X-6.8223
G2 X-6.5350 Y-55.5835 Z0.0000 I-27.6782 K4.0334
G1 X6.5350
G2 X6.8223 Y-55.5835 Z-3.5000 I27.9654 K0.5334
G1 X7.6840
G2 X7.9713 Y-55.5835 Z0.0000 I-34.2968 K4.5766
G1 X14.0036
 X14.1472 Z-3.5000
 X21.0413
 X21.1849 Z0.0000
 X30.9515
 X31.0952 Z-0.0137
 X31.2388 Z-2.6765
 X31.3824 Z-3.5000
 X32.1005
 X32.2442 Z-3.4588
 X32.3878 Z-0.6039
 X32.5314 Z0.0000
 X38.1329
 X38.2765 Z-3.5000
 X43.0162
 Y-56.0144
 X38.5637
 X38.4201 Z0.0000
 X32.6750 Z-0.0137
 X32.5314 Z-2.8275
 X32.3878 Z-3.5000
 X31.6697
 X31.5260 Z-3.2118
 X31.3824 Z-0.1784
 X31.2388 Z0.0000
 X21.0413
 X20.8977 Z-3.5000
 X13.8600
 X13.7163 Z0.0000
 X7.6840
G3 X7.3968 Y-56.0144 Z-3.5000 I-390.8431 K30.3156
G1 X6.5350
 X6.3914 Z-2.8137
 X6.2478 Z-0.0824
 X6.1041 Z0.0000
 X-6.1041
 X-6.2478 Z-0.0824
 X-6.3914 Z-2.8137
 X-6.5350 Z-3.5000
 X-7.3968
G3 X-7.6840 Y-56.0144 Z0.0000 I390.5559 K33.8156
G1 X-13.7163
 X-13.8600 Z-3.5000
 X-20.8977
 X-21.0413 Z0.0000
 X-26.3555
G3 X-26.6427 Y-56.0144 Z-3.5000 I-42.4613 K1.7231
G1 X-27.3609
G3 X-27.6481 Y-56.0144 Z0.0000 I27.6782 K4.0334
G1 X-38.4201
 X-38.5637 Z-3.5000
 X-43.0162
 Y-56.4452
 X-38.7074
 X-38.5637 Z0.0000
 X-32.9623
 X-32.8187 Z-1.6059
 X-32.6750 Z-0.4392
 X-32.5314 Z0.0000
 X-27.5045
G2 X-27.2172 Y-56.4452 Z-3.5000 I40.9533 K1.5993
G1 X-26.4991
G2 X-26.2118 Y-56.4452 Z0.0000 I-28.5020 K4.1010
G1 X-20.8977
 X-20.7540 Z-3.5000
 X-13.5727
 X-13.4291 Z0.0000
 X-7.3968
G3 X-7.1095 Y-56.4452 Z-3.5000 I-42.1741 K-5.2231
G1 X-6.2478
 X-6.1041 Z-3.2804
 X-5.9605 Z-0.4804
 X-5.8169 Z0.0000
 X5.8169
 X5.9605 Z-0.4804
 X6.1041 Z-3.2804
 X6.2478 Z-3.5000
 X7.1095
G3 X7.3968 Y-56.4452 Z0.0000 I42.4613 K-1.7231
G1 X13.4291
 X13.5727 Z-3.5000
 X20.7540
 X20.8977 Z0.0000
 X31.5260
G3 X31.8133 Y-56.4452 Z-3.5000 I-26.1281 K-3.9062
G1 X32.6750
G3 X32.9623 Y-56.4452 Z0.0000 I129.5967 K-8.8745
G1 X38.5637
 X38.7074 Z-3.5000
 X43.0162
 Y-56.8761
 X38.8510
 X38.7074 Z0.0000
 X33.2496
 X33.1059 Z-0.4667
 X32.9623 Z-3.4176
 X32.8187 Z-3.5000
 X32.1005
G3 X31.8133 Y-56.8761 Z0.0000 I26.1281 K3.9062
G1 X20.6104
 X20.4668 Z-3.5000
 X13.2855
 X13.1418 Z0.0000
 X7.1095
 X6.9659 Z-0.8784
 X6.8223 Z-3.4725
 X6.6786 Z-3.5000
 X5.8169
G2 X5.5296 Y-56.8761 Z0.0000 I-81.7019 K-4.9437
G1 X-5.5296
G2 X-5.8169 Y-56.8761 Z-3.5000 I81.4146 K-8.4437
G1 X-6.8223 Z-3.4725
 X-6.9659 Z-0.8784
 X-7.1095 Z0.0000
 X-13.1418
 X-13.2855 Z-3.5000
 X-20.4668
 X-20.6104 Z0.0000
 X-26.0682
 X-26.2118 Z-2.4843
 X-26.3555 Z-3.5000
 X-27.0736
G3 X-27.3609 Y-56.8761 Z0.0000 I64.8971 K7.0880
G1 X-32.3878
 X-32.5314 Z-0.0549
 X-32.6750 Z-3.2529
 X-32.8187 Z-3.5000
 X-32.9623 Z-3.4176
 X-33.1059 Z-0.4667
 X-33.2496 Z0.0000
 X-38.7074
 X-38.8510 Z-3.5000
 X-43.0162
 Y-57.3070
 X-39.1382
 X-38.9946 Z0.0000
 X-33.3932
G2 X-33.1059 Y-57.3070 Z-3.5000 I27.1749 K0.4685
G1 X-32.6750
 X-32.5314 Z-3.1020
 X-32.3878 Z0.0000
 X-27.2172
G2 X-26.9300 Y-57.3070 Z-3.5000 I160.4298 K11.4051
G1 X-26.2118
 X-26.0682 Z-2.6902
 X-25.9246 Z0.0000
 X-20.4668
 X-20.3232 Z-3.5000
 X-12.9982
 X-12.8546 Z0.0000
 X-6.8223
 X-6.6786 Z-0.1922
 X-6.5350 Z-2.9784
 X-6.3914 Z-3.5000
 X-5.5296
 X-5.3860 Z-2.7039
 X-5.2424 Z-0.0686
 X-5.0987 Z0.0000
 X5.0987
 X5.2424 Z-0.0686
 X5.3860 Z-2.7039
 X5.5296 Z-3.5000
 X6.3914
 X6.5350 Z-2.9784
 X6.6786 Z-0.1922
 X6.8223 Z0.0000
 X12.8546
 X12.9982 Z-3.5000
 X20.3232
 X20.4668 Z0.0000
 X25.9246
 X26.0682 Z-2.6216
G2 X26.3555 Y-57.3070 Z0.0000 I-13.4080 K2.7957
G1 X31.9569
 X32.1005 Z-0.3020
 X32.2442 Z-3.3627
 X32.3878 Z-3.5000
 X33.1059
G2 X33.3932 Y-57.3070 Z0.0000 I-26.8876 K3.9685
G1 X38.9946
 X39.1382 Z-3.5000
 X43.0162
 Y-57.7379
 X39.2819
 X39.1382 Z0.0000
 X33.6804
 X33.5368 Z-0.5353
 X33.3932 Z-3.4725
 X33.2496 Z-3.5000
 X32.5314
G3 X32.2442 Y-57.7379 Z0.0000 I93.0215 K9.3963
G1 X26.6427
G2 X26.3555 Y-57.7379 Z-3.5000 I81.4146 K-8.4437
G1 X26.0682
 X25.9246 Z-2.9510
 X25.7810 Z0.0000
 X20.3232
 X20.1795 Z-3.5000
 X12.7110
 X12.5673 Z0.0000
 X6.3914
G3 X6.1041 Y-57.7379 Z-3.5000 I-108.5764 K7.1493
G1 X5.0987 Z-3.4725
G2 X4.8115 Y-57.7379 Z0.0000 I-26.4893 K-0.4431
G1 X-4.8115
G2 X-5.0987 Y-57.7379 Z-3.4725 I26.2021 K-3.9156
G1 X-5.2424 Z-3.5000
 X-6.1041
G3 X-6.3914 Y-57.7379 Z0.0000 I108.2891 K10.6493
G1 X-12.5673
 X-12.7110 Z-3.5000
 X-20.0359
 X-20.1795 Z0.0000
 X-25.7810
 X-25.9246 Z-3.3902
 X-26.0682 Z-3.5000
 X-26.7864
 X-26.9300 Z-2.5667
 X-27.0736 Z0.0000
 X-32.2442
G3 X-32.5314 Y-57.7379 Z-3.5000 I-93.3088 K5.8963
G1 X-33.2496
 X-33.3932 Z-3.4725
 X-33.5368 Z-0.5353
 X-33.6804 Z0.0000
 X-39.1382
 X-39.2819 Z-3.5000
 X-43.0162
 Y-58.1688
 X-39.4255
 X-39.2819 Z0.0000
 X-33.8241
G2 X-33.5368 Y-58.1688 Z-3.5000 I45.7772 K1.9953
G1 X-32.8187
 X-32.6750 Z-3.4039
 X-32.5314 Z-0.3569
 X-32.3878 Z0.0000
 X-26.9300
G2 X-26.6427 Y-58.1688 Z-3.5000 I32.4691 K0.9030
G1 X-25.9246
 X-25.7810 Z-3.4451
 X-25.6373 Z-0.0686
 X-25.4937 Z0.0000
 X-20.0359
 X-19.8923 Z-3.5000
 X-12.5673
 X-12.4237 Z0.0000
 X-6.1041
 X-5.9605 Z-0.7412
 X-5.8169 Z-3.4176
 X-5.6732 Z-3.5000
 X-4.8115
 X-4.6679 Z-2.9510
 X-4.5242 Z-0.2333
 X-4.3806 Z0.0000
 X4.3806
 X4.5242 Z-0.2333
 X4.6679 Z-2.9510
 X4.8115 Z-3.5000
 X5.6732
 X5.8169 Z-3.4176
 X5.9605 Z-0.7412
 X6.1041 Z0.0000
 X12.4237
 X12.5673 Z-3.5000
 X19.8923
 X20.0359 Z0.0000
 X25.4937
 X25.6373 Z-0.0686
 X25.7810 Z-3.2255
 X25.9246 Z-3.5000
 X26.6427
G3 X26.9300 Y-58.1688 Z0.0000 I24.9822 K-0.2885
G1 X32.3878
 X32.5314 Z-0.3569
 X32.6750 Z-3.4039
 X32.8187 Z-3.5000
 X33.5368
G2 X33.8241 Y-58.1688 Z0.0000 I-45.4899 K5.4953
G1 X39.2819
 X39.4255 Z-3.5000
 X43.0162
 Y-58.5996
 X39.5691
 X39.4255 Z0.0000
 X34.1113
 X33.9677 Z-0.2471
 X33.8241 Z-3.3627
 X33.6804 Z-3.5000
 X32.9623
G3 X32.6750 Y-58.5996 Z0.0000 I56.1243 K6.3680
G1 X26.7864
 X26.6427 Z-0.9745
 X26.4991 Z-3.5000
 X25.7810
 X25.6373 Z-3.4176
 X25.4937 Z-0.3843
 X25.3501 Z0.0000
 X19.7487
 X19.6050 Z-3.5000
 X12.1364
 X11.9928 Z0.0000
 X5.6732 Z-0.0137
G3 X5.3860 Y-58.5996 Z-3.5000 I-29.7166 K0.6935
G1 X4.3806
G3 X4.0934 Y-58.5996 Z0.0000 I2736.7123 K226.3701
G1 X-4.0934
G3 X-4.3806 Y-58.5996 Z-3.5000 I-2736.9996 K222.8701
G1 X-5.3860
G3 X-5.6732 Y-58.5996 Z-0.0137 I29.4294 K4.1798
G1 X-11.9928 Z0.0000
 X-12.1364 Z-3.5000
 X-19.6050
 X-19.7487 Z0.0000
 X-25.3501
 X-25.4937 Z-0.3843
 X-25.6373 Z-3.4176
 X-25.7810 Z-3.5000
 X-26.4991
 X-26.6427 Z-0.9745
 X-26.7864 Z0.0000
 X-32.6750
G3 X-32.9623 Y-58.5996 Z-3.5000 I-56.4116 K2.8680
G1 X-33.6804
 X-33.8241 Z-3.3627
 X-33.9677 Z-0.2471
 X-34.1113 Z0.0000
 X-39.4255
 X-39.5691 Z-3.5000
 X-43.0162
 Y-59.0305
 X-39.8564
 X-39.7127 Z0.0000
 X-34.2549
G3 X-33.9677 Y-59.0305 Z-3.5000 I-30.2601 K-4.2452
G1 X-33.2496
 X-33.1059 Z-3.4588
 X-32.9623 Z-0.4667
 X-32.8187 Z0.0000
 X-26.6427
 X-26.4991 Z-0.4118
 X-26.3555 Z-3.4314
 X-26.2118 Z-3.5000
 X-25.4937
G2 X-25.2065 Y-59.0305 Z0.0000 I-143.1119 K13.5073
G1 X-19.6050
 X-19.4614 Z-3.5000
 X-11.8492
 X-11.7056 Z0.0000
 X-5.3860
 X-5.2424 Z-0.5078
 X-5.0987 Z-3.2392
 X-4.9551 Z-3.5000
 X-4.0934
 X-3.9497 Z-3.4176
G3 X-3.6625 Y-59.0305 Z0.0000 I21.2588 K-0.0659
G1 X3.6625
G3 X3.9497 Y-59.0305 Z-3.4176 I-20.9716 K-3.4836
G1 X4.0934 Z-3.5000
 X4.9551
 X5.0987 Z-3.2392
 X5.2424 Z-0.5078
 X5.3860 Z0.0000
 X11.7056
 X11.8492 Z-3.5000
 X19.4614
 X19.6050 Z0.0000
 X25.2065
G2 X25.4937 Y-59.0305 Z-3.5000 I143.3991 K10.0073
G1 X26.2118
 X26.3555 Z-3.4314
 X26.4991 Z-0.4118
 X26.6427 Z0.0000
 X32.8187
 X32.9623 Z-0.4667
 X33.1059 Z-3.4588
 X33.2496 Z-3.5000
 X33.9677
G3 X34.2549 Y-59.0305 Z0.0000 I30.5474 K-0.7452
G1 X39.7127
 X39.8564 Z-3.5000
 X43.0162
 Y-59.4614
 X40.0000
 X39.8564 Z0.0000
 X34.3986
G3 X34.1113 Y-59.4614 Z-3.5000 I-32.4691 K0.9030
G1 X33.3932
 X33.2496 Z-2.8275
 X33.1059 Z0.0000
 X26.3555
G3 X26.0682 Y-59.4614 Z-3.5000 I-32.4691 K0.9030
G1 X25.3501
 X25.2065 Z-3.2667
 X25.0628 Z-0.1784
 X24.9192 Z0.0000
 X19.3178
 X19.1741 Z-3.5000
 X11.5619
 X11.4183 Z0.0000
 X4.9551
G2 X4.6679 Y-59.4614 Z-3.5000 I181.6929 K-16.6737
G1 X4.3806 Z-3.4863
G3 X4.0934 Y-59.4614 Z-0.0549 I160.4371 K15.1586
G1 X3.9497 Z0.0000
 X-3.2316
 X-3.3752 Z-0.6725
 X-3.5189 Z-3.2804
 X-3.6625 Z-3.5000
 X-4.6679
G2 X-4.9551 Y-59.4614 Z0.0000 I-181.9801 K-13.1737
G1 X-11.4183
 X-11.5619 Z-3.5000
 X-19.1741
 X-19.3178 Z0.0000
 X-24.9192
 X-25.0628 Z-0.1784
 X-25.2065 Z-3.2667
 X-25.3501 Z-3.5000
 X-26.0682
G3 X-26.3555 Y-59.4614 Z0.0000 I32.1819 K4.4030
G1 X-33.1059
 X-33.2496 Z-2.8275
 X-33.3932 Z-3.5000
 X-34.1113
G3 X-34.3986 Y-59.4614 Z0.0000 I33.2134 K4.4877
G1 X-39.8564
 X-40.0000 Z-3.5000
 X-43.0162
 Y-59.8923
 X-40.1436
 X-40.0000 Z0.0000
 X-34.6858
 X-34.5422 Z-0.1098
 X-34.3986 Z-3.2255
 X-34.2549 Z-3.5000
 X-33.5368
G2 X-33.2496 Y-59.8923 Z0.0000 I-912.0408 K76.6151
G1 X-26.2118
 X-26.0682 Z-0.7275
 X-25.9246 Z-3.5000
 X-25.0628
G3 X-24.7756 Y-59.8923 Z0.0000 I81.7019 K-4.9437
G1 X-19.0305
 X-18.8869 Z-3.5000
 X-11.2747
 X-11.1311 Z0.0000
 X-4.6679
 X-4.5242 Z-0.1510
 X-4.3806 Z-2.6902
 X-4.2370 Z-3.5000
 X-3.2316
 X-3.0880 Z-3.1020
 X-2.9443 Z-0.4941
 X-2.8007 Z0.0000
 X11.1311
 X11.2747 Z-3.5000
 X18.8869
 X19.0305 Z0.0000
 X24.7756
G3 X25.0628 Y-59.8923 Z-3.5000 I-81.4146 K-8.4437
G1 X25.9246
 X26.0682 Z-0.7275
 X26.2118 Z0.0000
 X33.2496
G2 X33.5368 Y-59.8923 Z-3.5000 I912.3280 K73.1151
G1 X34.2549
 X34.3986 Z-3.2255
 X34.5422 Z-0.1098
 X34.6858 Z0.0000
 X40.0000
 X40.1436 Z-3.5000
 X43.0162
 Y-60.3232
 X40.2873
 X40.1436 Z0.0000
 X34.8294
 X34.6858 Z-0.6314
 X34.5422 Z-3.5000
 X33.6804
 X33.5368 Z-0.7000
 X33.3932 Z0.0000
 X25.9246
 X25.7810 Z-2.6765
 X25.6373 Z-3.5000
 X24.9192
 X24.7756 Z-3.0471
 X24.6320 Z-0.0549
 X24.4883 Z0.0000
 X18.7433
 X18.5996 Z-3.5000
 X10.9874
 X10.8438 Z0.0000
 X-2.3698
 X-2.5135 Z-0.6588
 X-2.6571 Z-3.1020
 X-2.8007 Z-3.5000
 X-3.8061
 X-3.9497 Z-2.9922
 X-4.0934 Z-0.3294
 X-4.2370 Z0.0000
 X-10.8438
 X-10.9874 Z-3.5000
 X-18.5996
 X-18.7433 Z0.0000
 X-24.4883
 X-24.6320 Z-0.0549
 X-24.7756 Z-3.0471
 X-24.9192 Z-3.5000
 X-25.6373
 X-25.7810 Z-2.6765
 X-25.9246 Z0.0000
 X-33.3932
 X-33.5368 Z-0.7000
 X-33.6804 Z-3.5000
 X-34.5422
 X-34.6858 Z-0.6314
 X-34.8294 Z0.0000
 X-40.1436
 X-40.2873 Z-3.5000
 X-43.0162
 Y-60.7540
 X-40.4309
 X-40.2873 Z0.0000
 X-34.9731
G3 X-34.6858 Y-60.7540 Z-3.5000 I-26.1281 K-3.9062
G1 X-33.9677
 X-33.8241 Z-3.3627
 X-33.6804 Z-0.1784
 X-33.5368 Z0.0000
 X-25.7810
G3 X-25.4937 Y-60.7540 Z-3.5000 I-26.1281 K-3.9062
G1 X-24.6320
G3 X-24.3447 Y-60.7540 Z0.0000 I28.7893 K-0.6010
G1 X-18.4560
 X-18.3124 Z-3.5000
 X-10.5566
 X-10.4129 Z0.0000
 X-3.8061
 X-3.6625 Z-0.5765
 X-3.5189 Z-3.2255
 X-3.3752 Z-3.5000
 X-2.3698
 X-2.2262 Z-3.2255
 X-2.0826 Z-0.6863
 X-1.9390 Z0.0000
 X10.4129
 X10.5566 Z-3.5000
 X18.3124
 X18.4560 Z0.0000
 X24.3447
G3 X24.6320 Y-60.7540 Z-3.5000 I-28.5020 K-4.1010
G1 X25.4937
G3 X25.7810 Y-60.7540 Z0.0000 I26.4154 K-0.4062
G1 X33.5368
 X33.6804 Z-0.1784
 X33.8241 Z-3.3627
 X33.9677 Z-3.5000
 X34.6858
G3 X34.9731 Y-60.7540 Z0.0000 I26.4154 K-0.4062
G1 X40.2873
 X40.4309 Z-3.5000
 X43.0162
 Y-61.1849
 X40.5745
 X40.4309 Z0.0000
 X35.1167
G2 X34.8294 Y-61.1849 Z-3.5000 I143.1121 K-13.5073
G1 X34.1113
 X33.9677 Z-3.0196
 X33.8241 Z-0.0137
 X33.6804 Z0.0000
 X25.6373
 X25.4937 Z-0.0412
 X25.3501 Z-3.0333
 X25.2065 Z-3.5000
 X24.4883
 X24.3447 Z-3.0196
 X24.2011 Z-0.1098
 X24.0575 Z0.0000
 X18.1688
 X18.0251 Z-3.5000
 X10.2693
 X10.1257 Z0.0000
 X-1.5081
 X-1.6517 Z-0.9333
 X-1.7953 Z-3.3490
 X-1.9390 Z-3.5000
 X-2.9443
 X-3.0880 Z-3.1706
G2 X-3.3752 Y-61.1849 Z0.0000 I-17.9939 K-0.0319
G1 X-10.1257
 X-10.2693 Z-3.5000
 X-18.0251
 X-18.1688 Z0.0000
 X-24.0575
 X-24.2011 Z-0.1098
 X-24.3447 Z-3.0196
 X-24.4883 Z-3.5000
 X-25.2065
 X-25.3501 Z-3.0333
 X-25.4937 Z-0.0412
 X-25.6373 Z0.0000
 X-33.6804
 X-33.8241 Z-0.0137
 X-33.9677 Z-3.0196
 X-34.1113 Z-3.5000
 X-34.8294
G2 X-35.1167 Y-61.1849 Z0.0000 I-143.3994 K-10.0073
G1 X-40.4309
 X-40.5745 Z-3.5000
 X-43.0162
 Y-61.6158
 X-40.7181
 X-40.5745 Z0.0000
 X-35.2603
G2 X-34.9731 Y-61.6158 Z-3.5000 I47.6069 K2.1454
G1 X-34.2549
 X-34.1113 Z-2.5118
 X-33.9677 Z0.0000
 X-25.3501
 X-25.2065 Z-0.7137
 X-25.0628 Z-3.4725
 X-24.9192 Z-3.5000
 X-24.2011
 X-24.0575 Z-2.4980
 X-23.9138 Z0.0000
 X-17.7379
 X-17.5943 Z-3.5000
 X-9.9820
 X-9.8384 Z0.0000
 X-2.9443
 X-2.8007 Z-0.2745
 X-2.6571 Z-2.8137
 X-2.5135 Z-3.5000
 X-1.3645 Z-3.4725
G3 X-1.0772 Y-61.6158 Z0.0000 I52.6690 K-2.6087
G1 X9.8384
 X9.9820 Z-3.5000
 X17.5943
 X17.7379 Z0.0000
 X23.9138
 X24.0575 Z-2.4980
 X24.2011 Z-3.5000
 X25.0628 Z-3.4725
 X25.2065 Z-0.7137
 X25.3501 Z0.0000
 X33.9677
 X34.1113 Z-2.5118
 X34.2549 Z-3.5000
 X34.9731
G2 X35.2603 Y-61.6158 Z0.0000 I-47.3196 K5.6454
G1 X40.5745
 X40.7181 Z-3.5000
 X43.0162
 Y-62.0467
 X40.8618
 X40.7181 Z0.0000
 X35.4039
G3 X35.1167 Y-62.0467 Z-3.5000 I-34.5840 K1.0766
G1 X34.3986
G3 X34.1113 Y-62.0467 Z0.0000 I47.3196 K5.6454
G1 X25.0628
G2 X24.7756 Y-62.0467 Z-3.5000 I42.1741 K-5.2231
G1 X23.9138
G3 X23.6266 Y-62.0467 Z0.0000 I143.1119 K13.5073
G1 X17.4506
 X17.3070 Z-3.5000
 X9.5512
 X9.4075 Z0.0000
 X-0.5027
 X-0.6463 Z-0.2745
 X-0.7899 Z-2.6627
 X-0.9336 Z-3.5000
 X-2.0826
G3 X-2.3698 Y-62.0467 Z-0.0824 I26.3756 K3.9377
G1 X-2.5135 Z0.0000
 X-9.4075
 X-9.5512 Z-3.5000
 X-17.3070
 X-17.4506 Z0.0000
 X-23.6266
G3 X-23.9138 Y-62.0467 Z-3.5000 I-143.3991 K10.0073
G1 X-24.7756
G2 X-25.0628 Y-62.0467 Z0.0000 I-42.4613 K-1.7231
G1 X-34.1113
G3 X-34.3986 Y-62.0467 Z-3.5000 I-47.6069 K2.1454
G1 X-35.1167
G3 X-35.4039 Y-62.0467 Z0.0000 I34.2968 K4.5766
G1 X-40.7181
 X-40.8618 Z-3.5000
 X-43.0162
 Y-62.4776
 X-41.0054
 X-40.8618 Z0.0000
 X-35.5476
G2 X-35.2603 Y-62.4776 Z-3.5000 I38.1924 K1.3728
G1 X-34.5422
G2 X-34.2549 Y-62.4776 Z0.0000 I-40.6661 K5.0993
G1 X-24.7756
G2 X-24.4883 Y-62.4776 Z-3.5000 I81.7018 K4.9437
G1 X-23.6266
G3 X-23.3393 Y-62.4776 Z0.0000 I35.7238 K-1.1701
G1 X-17.1634
 X-17.0197 Z-3.5000
 X-9.4075
 X-9.2639 Z0.0000
 X-1.9390
G3 X-1.6517 Y-62.4776 Z-3.3353 I-22.9404 K-3.6558
G1 X-1.5081 Z-3.5000
 X-0.5027
 X-0.3591 Z-3.4588
G3 X-0.0718 Y-62.4776 Z0.0000 I68.0975 K-3.9141
G1 X9.2639
 X9.4075 Z-3.5000
 X17.0197
 X17.1634 Z0.0000
 X23.3393
G3 X23.6266 Y-62.4776 Z-3.5000 I-35.4365 K-4.6701
G1 X24.4883
G2 X24.7756 Y-62.4776 Z0.0000 I-81.4145 K8.4437
G1 X34.2549
G2 X34.5422 Y-62.4776 Z-3.5000 I40.9533 K1.5993
G1 X35.2603
G2 X35.5476 Y-62.4776 Z0.0000 I-37.9052 K4.8728
G1 X40.8618
 X41.0054 Z-3.5000
 X43.0162
 Y-62.9084
 X41.0054
 X40.8618 Z0.0000
 X35.6912
G3 X35.4039 Y-62.9084 Z-3.5000 I-40.9533 K1.5993
G1 X34.6858
G3 X34.3986 Y-62.9084 Z0.0000 I35.4365 K4.6701
G1 X24.4883
 X24.3447 Z-2.6078
 X24.2011 Z-3.5000
 X23.4829
 X23.3393 Z-3.4588
 X23.1957 Z-0.6725
 X23.0521 Z0.0000
 X16.7325
 X16.5889 Z-3.5000
 X10.2693
 X10.1257 Z0.0000
 X0.5027
 X0.3591 Z-0.4667
 X0.2154 Z-2.9373
 X0.0718 Z-3.5000
 X-1.0772
G3 X-1.3645 Y-62.9084 Z-0.1235 I29.1396 K4.1795
G1 X-1.5081 Z0.0000
 X-10.1257
 X-10.2693 Z-3.5000
 X-16.5889
 X-16.7325 Z0.0000
 X-23.0521
 X-23.1957 Z-0.6725
 X-23.3393 Z-3.4588
 X-23.4829 Z-3.5000
 X-24.2011
 X-24.3447 Z-2.6078
 X-24.4883 Z0.0000
 X-34.3986
G3 X-34.6858 Y-62.9084 Z-3.5000 I-35.7238 K1.1701
G1 X-35.4039
G3 X-35.6912 Y-62.9084 Z0.0000 I40.6661 K5.0993
G1 X-40.8618
 X-41.0054 Z-3.5000
 X-43.0162
 Y-63.3393
 X-41.1490
 X-41.0054 Z0.0000
 X-35.8348
G2 X-35.5476 Y-63.3393 Z-3.5000 I44.0659 K1.8548
G1 X-34.8294
G2 X-34.5422 Y-63.3393 Z0.0000 I-31.1984 K4.3223
G1 X-24.3447
 X-24.2011 Z-0.1510
 X-24.0575 Z-3.1020
 X-23.9138 Z-3.5000
 X-23.1957
 X-23.0521 Z-3.3216
 X-22.9084 Z-0.5078
 X-22.7648 Z0.0000
 X-16.3016
 X-16.1580 Z-3.5000
 X-11.2747
 X-11.1311 Z0.0000
 X-0.9336
 X-0.7899 Z-0.8235
 X-0.6463 Z-3.2255
 X-0.5027 Z-3.5000
 X0.6463
 X0.7899 Z-2.7176
 X0.9336 Z-0.3980
 X1.0772 Z0.0000
 X11.1311
 X11.2747 Z-3.5000
 X16.1580
 X16.3016 Z0.0000
 X22.7648
 X22.9084 Z-0.5078
 X23.0521 Z-3.3216
 X23.1957 Z-3.5000
 X23.9138
 X24.0575 Z-3.1020
 X24.2011 Z-0.1510
 X24.3447 Z0.0000
 X34.5422
G2 X34.8294 Y-63.3393 Z-3.5000 I31.4857 K0.8223
G1 X35.5476
G2 X35.8348 Y-63.3393 Z0.0000 I-43.7786 K5.3548
G1 X41.0054
 X41.1490 Z-3.5000
 X43.0162
 Y-63.7702
 X41.2926
 X41.1490 Z0.0000
 X35.9785
G2 X35.6912 Y-63.7702 Z-3.5000 I547.0383 K-46.6585
G1 X34.9731
 X34.8294 Z-2.6902
 X34.6858 Z0.0000
 X24.0575
 X23.9138 Z-0.4667
 X23.7702 Z-3.3490
 X23.6266 Z-3.5000
 X22.7648
G2 X22.4776 Y-63.7702 Z0.0000 I-32.4686 K-0.9030
G1 X15.8707
 X15.7271 Z-3.5000
 X12.4237
 X12.2801 Z0.0000
 X1.6517
 X1.5081 Z-0.3843
 X1.3645 Z-2.6902
 X1.2208 Z-3.5000
 X0.0718
 X-0.0718 Z-3.4451
G2 X-0.3591 Y-63.7702 Z-0.0137 I-160.7245 K-11.7283
G1 X-0.5027 Z0.0000
 X-12.2801
 X-12.4237 Z-3.5000
 X-15.7271
 X-15.8707 Z0.0000
 X-22.4776
G2 X-22.7648 Y-63.7702 Z-3.5000 I32.1813 K-4.4030
G1 X-23.6266
 X-23.7702 Z-3.3490
 X-23.9138 Z-0.4667
 X-24.0575 Z0.0000
 X-34.6858
 X-34.8294 Z-2.6902
 X-34.9731 Z-3.5000
 X-35.6912
G2 X-35.9785 Y-63.7702 Z0.0000 I-547.3255 K-43.1585
G1 X-41.1490
 X-41.2926 Z-3.5000
 X-43.0162
 Y-64.2011
 X-41.4363
 X-41.2926 Z0.0000
 X-36.1221
G3 X-35.8348 Y-64.2011 Z-3.5000 I-25.3971 K-3.8462
G1 X-35.1167
 X-34.9731 Z-3.2392
 X-34.8294 Z-0.0275
 X-34.6858 Z0.0000
 X-23.7702
 X-23.6266 Z-0.1510
 X-23.4829 Z-2.9510
 X-23.3393 Z-3.5000
 X-22.4776
G2 X-22.1903 Y-64.2011 Z0.0000 I-51.3898 K5.9795
G1 X-15.4399
 X-15.2962 Z-3.5000
 X-13.7163
 X-13.5727 Z0.0000
 X0.2154 Z-0.0137
G3 X0.5027 Y-64.2011 Z-3.4451 I-160.4371 K-15.1597
G1 X0.6463 Z-3.5000
 X1.7953
 X1.9390 Z-2.7176
 X2.0826 Z-0.5216
 X2.2262 Z0.0000
 X13.5727
 X13.7163 Z-3.5000
 X15.2962
 X15.4399 Z0.0000
 X22.1903
G2 X22.4776 Y-64.2011 Z-3.5000 I51.6770 K2.4795
G1 X23.3393
 X23.4829 Z-2.9647
 X23.6266 Z-0.1510
 X23.7702 Z0.0000
 X34.6858
 X34.8294 Z-0.0275
 X34.9731 Z-3.2392
 X35.1167 Z-3.5000
 X35.8348
G3 X36.1221 Y-64.2011 Z0.0000 I25.6844 K-0.3462
G1 X41.2926
 X41.4363 Z-3.5000
 X43.0162
 Y-64.6320
 X41.4363
 X41.2926 Z0.0000
 X36.2657
 X36.1221 Z-0.5216
 X35.9785 Z-3.5000
 X35.1167
 X34.9731 Z-0.3431
 X34.8294 Z0.0000
 X29.6589
 X29.5153 Z-3.5000
 X29.3716 Z0.0000
 X23.3393
G3 X23.0521 Y-64.6320 Z-3.5000 I-32.4691 K0.9030
G1 X22.1903
 X22.0467 Z-2.8961
 X21.9031 Z-0.1235
 X21.7594 Z0.0000
 X2.9443
 X2.8007 Z-0.0275
G2 X2.5135 Y-64.6320 Z-3.3765 I119.0220 K-11.8952
G1 X2.3698 Z-3.5000
 X1.2208
 X1.0772 Z-3.4451
G2 X0.7899 Y-64.6320 Z-0.0137 I-160.7242 K-11.7283
G1 X0.6463 Z0.0000
 X-21.7594
 X-21.9031 Z-0.1235
 X-22.0467 Z-2.8686
 X-22.1903 Z-3.5000
 X-23.0521
G3 X-23.3393 Y-64.6320 Z0.0000 I34.2968 K4.5766
G1 X-29.3716
 X-29.5153 Z-3.5000
 X-29.6589 Z0.0000
 X-34.8294
 X-34.9731 Z-0.3431
 X-35.1167 Z-3.5000
 X-35.9785
 X-36.1221 Z-0.5216
 X-36.2657 Z0.0000
 X-41.2926
 X-41.4363 Z-3.5000
 X-43.0162
 Y-65.0628
 X-41.5799
 X-41.4363 Z0.0000
 X-36.2657 Z-0.0137
 X-36.1221 Z-3.2804
 X-35.9785 Z-3.5000
 X-35.2603
 X-35.1167 Z-0.9882
 X-34.9731 Z0.0000
 X-23.0521
G3 X-22.7648 Y-65.0628 Z-3.5000 I-51.3898 K-5.9795
G1 X-21.9031
 X-21.7594 Z-3.3353
 X-21.6158 Z-0.5353
 X-21.4722 Z0.0000
 X1.3645
G3 X1.6517 Y-65.0628 Z-3.2804 I-43.9668 K-5.5028
G1 X1.7953 Z-3.5000
 X3.0880
 X3.2316 Z-3.2941
 X3.3752 Z-0.9471
 X3.5189 Z0.0000
 X21.4722
 X21.6158 Z-0.9471
 X21.7594 Z-3.4863
 X21.9031 Z-3.5000
 X22.7648
G3 X23.0521 Y-65.0628 Z0.0000 I59.0834 K-3.0873
G1 X34.9731
 X35.1167 Z-0.9882
 X35.2603 Z-3.5000
 X35.9785
 X36.1221 Z-3.2804
 X36.2657 Z-0.0137
 X41.4363 Z0.0000
 X41.5799 Z-3.5000
 X43.0162
 Y-65.4937
 X41.7235
 X41.5799 Z0.0000
 X36.4093
G3 X36.1221 Y-65.4937 Z-3.5000 I-38.1924 K1.3728
G1 X35.4039
G3 X35.1167 Y-65.4937 Z0.0000 I129.3093 K12.3745
G1 X22.7648
 X22.6212 Z-0.7000
 X22.4776 Z-3.4314
 X22.3339 Z-3.5000
 X21.4722
G3 X21.1849 Y-65.4937 Z0.0000 I51.3898 K5.9795
G1 X4.2370
 X4.0934 Z-0.1647
G3 X3.8061 Y-65.4937 Z-3.4588 I-113.5466 K8.2418
G1 X3.6625 Z-3.5000
 X2.3698
G3 X2.0826 Y-65.4937 Z-0.3431 I23.4560 K3.7258
G1 X1.9390 Z0.0000
 X-21.1849
G3 X-21.4722 Y-65.4937 Z-3.5000 I-61.9959 K3.3264
G1 X-22.3339
 X-22.4776 Z-3.3902
 X-22.6212 Z-0.6588
 X-22.7648 Z0.0000
 X-35.1167
G3 X-35.4039 Y-65.4937 Z-3.5000 I-129.5966 K8.8745
G1 X-36.1221
G3 X-36.4093 Y-65.4937 Z0.0000 I37.9052 K4.8728
G1 X-41.5799
 X-41.7235 Z-3.5000
 X-43.0162
 Y-65.9246
 X-41.7235
 X-41.5799 Z0.0000
 X-36.5530
G3 X-36.2657 Y-65.9246 Z-3.5000 I-25.3971 K-3.8462
G1 X-35.5476
 X-35.4039 Z-2.8824
 X-35.2603 Z0.0000
 X2.6571
G2 X2.9443 Y-65.9246 Z-3.4725 I67.0730 K3.8002
G1 X3.0880 Z-3.5000
 X4.5242 Z-3.4863
G2 X4.8115 Y-65.9246 Z-0.3706 I-39.2585 K5.1905
G1 X4.9551 Z0.0000
 X20.7540
 X20.8977 Z-0.6588
 X21.0413 Z-3.3490
 X21.1849 Z-3.5000
 X22.0467
 X22.1903 Z-3.4176
 X22.3339 Z-0.3980
 X22.4776 Z0.0000
 X35.2603
 X35.4039 Z-2.8824
 X35.5476 Z-3.5000
 X36.2657
G3 X36.5530 Y-65.9246 Z0.0000 I25.6844 K-0.3462
G1 X41.5799
 X41.7235 Z-3.5000
 X43.0162
 Y-66.3555
 X41.8671
 X41.7235 Z0.0000
 X36.6966
 X36.5530 Z-0.0961
 X36.4093 Z-3.4176
 X36.2657 Z-3.5000
 X35.5476
 X35.4039 Z-0.4667
 X35.2603 Z0.0000
 X22.0467
G3 X21.7594 Y-66.3555 Z-3.5000 I-2736.9996 K222.8701
G1 X20.7540
G3 X20.4668 Y-66.3555 Z-0.0686 I22.1641 K3.5831
G1 X20.3232 Z0.0000
 X5.6732
 X5.5296 Z-0.7961
G3 X5.2424 Y-66.3555 Z-3.5000 I-14.1198 K0.1328
G1 X3.8061
 X3.6625 Z-3.4451
G3 X3.3752 Y-66.3555 Z-0.1235 I166.5198 K16.0739
G1 X3.2316 Z0.0000
 X-4.9551
G2 X-5.2424 Y-66.3555 Z-3.4863 I77.9999 K-8.1818
G3 X-5.5296 Y-66.3555 Z-0.7824 I13.3511 K2.7856
G1 X-5.6732 Z0.0000
 X-35.2603
 X-35.4039 Z-0.4667
 X-35.5476 Z-3.5000
 X-36.2657
 X-36.4093 Z-3.4176
 X-36.5530 Z-0.0961
 X-36.6966 Z0.0000
 X-41.7235
 X-41.8671 Z-3.5000
 X-43.0162
 Y-66.7864
 X-42.0108
 X-41.8671 Z0.0000
 X-36.6966
G2 X-36.4093 Y-66.7864 Z-3.5000 I93.3088 K5.8963
G1 X-35.6912
G3 X-35.4039 Y-66.7864 Z0.0000 I93.3089 K-5.8963
G1 X-6.5350
 X-6.3914 Z-0.5216
G2 X-6.1041 Y-66.7864 Z-3.4725 I38.8185 K2.2893
G1 X-5.9605 Z-3.5000
 X-4.8115
 X-4.6679 Z-2.6627
 X-4.5242 Z-0.2745
 X-4.3806 Z0.0000
 X3.9497
 X4.0934 Z-0.1235
G3 X4.3806 Y-66.7864 Z-3.3490 I-428.6029 K-39.7945
G1 X4.5242 Z-3.5000
 X6.1041 Z-3.4863
G2 X6.3914 Y-66.7864 Z-0.5627 I-35.5578 K4.9697
G1 X6.5350 Z0.0000
 X19.8923
 X20.0359 Z-0.0549
G2 X20.3232 Y-66.7864 Z-3.5000 I26.5714 K0.4811
G1 X21.3285
 X21.4722 Z-2.7176
 X21.6158 Z-0.1098
 X21.7594 Z0.0000
 X35.4039
G3 X35.6912 Y-66.7864 Z-3.5000 I-93.0216 K-9.3963
G1 X36.4093
G2 X36.6966 Y-66.7864 Z0.0000 I-93.0215 K9.3963
G1 X41.8671
 X42.0108 Z-3.5000
 X43.0162
 Y-67.2172
 X42.0108
 X41.8671 Z0.0000
 X36.8402
 X36.6966 Z-0.3431
 X36.5530 Z-3.5000
 X35.8348
 X35.6912 Z-2.6490
 X35.5476 Z0.0000
 X21.3285
 X21.1849 Z-0.9882
 X21.0413 Z-3.4588
 X20.8977 Z-3.5000
 X19.8923
G3 X19.6050 Y-67.2172 Z-0.0549 I28.7547 K4.1320
G1 X19.4614 Z0.0000
 X7.3968
 X7.2531 Z-0.4255
G3 X6.9659 Y-67.2172 Z-3.4176 I-52.5715 K3.5373
G1 X6.8223 Z-3.5000
 X5.2424
 X5.0987 Z-3.1020
G2 X4.8115 Y-67.2172 Z0.0000 I-38.1321 K-1.9669
G1 X-4.8115
G2 X-5.0987 Y-67.2172 Z-3.1020 I37.8448 K-5.0689
G1 X-5.2424 Z-3.5000
 X-6.8223
 X-6.9659 Z-3.4176
G3 X-7.2531 Y-67.2172 Z-0.3706 I68.5184 K7.9967
G1 X-7.3968 Z0.0000
 X-35.5476
 X-35.6912 Z-2.6490
 X-35.8348 Z-3.5000
 X-36.5530
 X-36.6966 Z-0.3431
 X-36.8402 Z0.0000
 X-41.8671
 X-42.0108 Z-3.5000
 X-43.0162
 Y-67.6481
 X-42.1544
 X-42.0108 Z0.0000
 X-36.8402
G2 X-36.5530 Y-67.6481 Z-3.5000 I34.5840 K1.0766
G1 X-35.6912
G2 X-35.4039 Y-67.6481 Z0.0000 I-61.7086 K6.8264
G1 X-8.4022
 X-8.2585 Z-0.0686
G3 X-7.9713 Y-67.6481 Z-2.8412 I-47.7100 K-6.3440
G1 X-7.8276 Z-3.5000
 X-6.1041
 X-5.9605 Z-3.4039
G2 X-5.6732 Y-67.6481 Z-0.3294 I-92.0672 K10.1513
G1 X-5.5296 Z0.0000
 X5.5296
 X5.6732 Z-0.3294
G2 X5.9605 Y-67.6481 Z-3.4039 I92.3544 K7.0768
G1 X6.1041 Z-3.5000
 X7.8276
 X7.9713 Z-2.8412
G3 X8.2585 Y-67.6481 Z-0.0686 I47.9973 K-3.5714
G1 X8.4022 Z0.0000
 X19.0305
 X19.1741 Z-0.0412
G2 X19.4614 Y-67.6481 Z-3.5000 I33.8616 K1.0710
G1 X20.6104
G3 X20.8977 Y-67.6481 Z0.0000 I68.6891 K-3.8759
G1 X35.4039
G2 X35.6912 Y-67.6481 Z-3.5000 I61.9959 K3.3264
G1 X36.5530
G2 X36.8402 Y-67.6481 Z0.0000 I-34.2968 K4.5766
G1 X42.0108
 X42.1544 Z-3.5000
 X43.0162
 Y-68.0790
 X42.1544
 X42.0108 Z0.0000
 X36.9838
 X36.8402 Z-0.6451
 X36.6966 Z-3.5000
 X35.5476 Z-3.4725
G3 X35.2603 Y-68.0790 Z0.0000 I57.3973 K6.4961
G1 X20.4668
G2 X20.1795 Y-68.0790 Z-3.5000 I100.0961 K-9.9769
G1 X19.0305
G3 X18.7433 Y-68.0790 Z-0.0412 I33.5744 K4.5298
G1 X18.5996 Z0.0000
 X9.4075
 X9.2639 Z-0.0824
G2 X8.9767 Y-68.0790 Z-2.5804 I49.3322 K-6.9383
G1 X8.8330 Z-3.4863
 X8.6894 Z-3.5000
 X6.9659
 X6.8223 Z-3.4588
G3 X6.5350 Y-68.0790 Z-0.4941 I42.4003 K5.6047
G1 X6.3914 Z0.0000
 X-6.3914
 X-6.5350 Z-0.4941
G3 X-6.8223 Y-68.0790 Z-3.4588 I-42.6876 K2.6400
G1 X-6.9659 Z-3.5000
 X-8.8330 Z-3.4863
 X-8.9767 Z-2.5804
G2 X-9.2639 Y-68.0790 Z-0.0824 I-49.6194 K-4.4403
G1 X-9.4075 Z0.0000
 X-35.2603
G3 X-35.5476 Y-68.0790 Z-3.4725 I-57.6845 K3.0236
G1 X-35.6912 Z-3.5000
 X-36.6966
 X-36.8402 Z-0.6451
 X-36.9838 Z0.0000
 X-42.0108
 X-42.1544 Z-3.5000
 X-43.0162
 Y-68.5099
 X-42.1544
 X-42.0108 Z0.0000
 X-36.9838
G2 X-36.6966 Y-68.5099 Z-3.5000 I45.7772 K1.9953
G1 X-35.2603 Z-3.4725
G2 X-34.9731 Y-68.5099 Z0.0000 I-57.3973 K6.4961
G1 X-10.4129
 X-10.2693 Z-0.6451
 X-9.9820 Z-3.2941
 X-9.8384 Z-3.5000
 X-7.8276
 X-7.6840 Z-2.8824
G3 X-7.3968 Y-68.5099 Z-0.0824 I53.3743 K-4.0608
G1 X-7.2531 Z0.0000
 X7.2531
 X7.3968 Z-0.0824
G3 X7.6840 Y-68.5099 Z-2.8824 I-53.0871 K-6.8608
G1 X7.8276 Z-3.5000
 X8.6894
 X8.8330 Z-2.9098
G3 X9.1203 Y-68.5099 Z-0.0961 I67.4015 K-5.4597
G1 X9.2639 Z0.0000
 X18.1688
 X18.3124 Z-0.5353
 X18.4560 Z-3.0333
 X18.5996 Z-3.5000
 X19.7487
G3 X20.0359 Y-68.5099 Z0.0000 I181.9801 K-13.1737
G1 X34.9731
G2 X35.2603 Y-68.5099 Z-3.4725 I57.6845 K3.0236
G1 X35.4039 Z-3.5000
 X36.6966
G2 X36.9838 Y-68.5099 Z0.0000 I-45.4899 K5.4953
G1 X42.0108
 X42.1544 Z-3.5000
 X43.0162
 Y-68.9408
 X42.2980
 X42.1544 Z0.0000
 X37.1275
 X36.9838 Z-0.0686
 X36.8402 Z-3.4588
 X36.6966 Z-3.5000
 X34.8294
 X34.6858 Z-3.4725
G3 X34.2549 Y-68.9408 Z-0.1922 I40.8548 K7.0348
G1 X34.1113 Z0.0000
 X19.6050
 X19.4614 Z-0.7412
 X19.3178 Z-3.1980
 X19.1741 Z-3.5000
 X18.0251
G2 X17.7379 Y-68.9408 Z0.0000 I-2737.0946 K-222.8779
G1 X-8.2585
 X-8.4022 Z-0.3294
 X-8.6894 Z-3.0196
 X-8.8330 Z-3.5000
 X-10.9874
 X-11.1311 Z-3.4725
G3 X-11.5619 Y-68.9408 Z-0.2745 I40.9129 K7.1404
G1 X-11.7056 Z0.0000
 X-34.1113
 X-34.2549 Z-0.1922
G3 X-34.6858 Y-68.9408 Z-3.4725 I-41.2857 K3.7544
G1 X-34.8294 Z-3.5000
 X-36.6966
 X-36.8402 Z-3.4588
 X-36.9838 Z-0.0686
 X-37.1275 Z0.0000
 X-42.1544
 X-42.2980 Z-3.5000
 X-43.0162
 Y-69.3716
 X-42.2980
 X-42.1544 Z0.0000
 X-36.5530
 X-36.4093 Z-0.0412
 X-35.9785 Z-3.4176
 X-35.8348 Z-3.5000
 X-33.3932
 X-33.2496 Z-3.2667
 X-32.8187 Z-0.2745
 X-32.6750 Z0.0000
 X-13.1418
 X-12.9982 Z-0.2471
 X-12.5673 Z-3.1980
 X-12.4237 Z-3.5000
 X-9.9820
 X-9.8384 Z-3.3765
G2 X-9.5512 Y-69.3716 Z-0.8235 I-66.1447 K8.7348
G1 X-9.4075 Z0.0000
 X17.1634
 X17.3070 Z-0.4667
 X17.4506 Z-2.9647
 X17.5943 Z-3.5000
 X18.7433
G2 X19.0305 Y-69.3716 Z-0.0686 I-43.6288 K5.3800
G1 X19.1741 Z0.0000
 X32.6750
 X32.8187 Z-0.2745
 X33.2496 Z-3.2667
 X33.3932 Z-3.5000
 X35.8348
 X35.9785 Z-3.4176
 X36.4093 Z-0.0412
 X36.5530 Z0.0000
 X42.1544
 X42.2980 Z-3.5000
 X43.0162
 Y-69.8025
 X42.4417
 X42.2980 Z0.0000
 X35.2603
 X35.1167 Z-0.5490
 X34.8294 Z-3.0059
 X34.6858 Z-3.5000
 X31.8133
 X31.6697 Z-3.2941
G2 X31.0952 Y-69.8025 Z-0.0824 I-69.5041 K-10.7739
G1 X30.9515 Z0.0000
 X18.5996
 X18.4560 Z-0.8098
 X18.3124 Z-3.2392
 X18.1688 Z-3.5000
 X17.0197
G3 X16.7325 Y-69.8025 Z-0.3157 I18.7921 K3.3003
G1 X16.5889 Z0.0000
 X-10.5566
 X-10.7002 Z-0.5216
 X-10.9874 Z-2.8961
 X-11.1311 Z-3.5000
 X-14.0036
 X-14.1472 Z-3.1980
G2 X-14.7217 Y-69.8025 Z-0.0549 I-41.9232 K-6.0386
G1 X-14.8654 Z0.0000
 X-30.9515
 X-31.0952 Z-0.0824
G2 X-31.6697 Y-69.8025 Z-3.2941 I68.9296 K-13.9857
G1 X-31.8133 Z-3.5000
 X-34.6858
 X-34.8294 Z-3.0059
 X-35.1167 Z-0.5490
 X-35.2603 Z0.0000
 X-42.2980
 X-42.4417 Z-3.5000
 X-43.0162
 Y-70.2334
 X-42.4417
 X-42.2980 Z0.0000
 X-33.9677
 X-33.8241 Z-0.4804
G2 X-33.3932 Y-70.2334 Z-3.4039 I56.4929 K6.8326
G1 X-33.2496 Z-3.5000
 X-29.9461
 X-29.8025 Z-3.3627
 X-29.0844 Z-0.1922
 X-28.9408 Z0.0000
 X-16.8761
 X-16.7325 Z-0.1647
 X-16.0144 Z-3.3078
 X-15.8707 Z-3.5000
 X-12.5673
 X-12.4237 Z-3.4451
G2 X-11.9928 Y-70.2334 Z-0.6588 I-35.3214 K6.8875
G1 X-11.8492 Z0.0000
 X16.0144
 X16.1580 Z-0.4529
 X16.3016 Z-2.7588
 X16.4452 Z-3.5000
 X17.7379
G2 X18.0251 Y-70.2334 Z-0.0686 I-90.8494 K9.3335
G1 X18.1688 Z0.0000
 X28.9408
 X29.0844 Z-0.1922
 X29.8025 Z-3.3627
 X29.9461 Z-3.5000
 X33.2496
 X33.3932 Z-3.4039
G2 X33.8241 Y-70.2334 Z-0.4804 I-56.0620 K9.7562
G1 X33.9677 Z0.0000
 X42.2980
 X42.4417 Z-3.5000
 X43.0162
 Y-70.6643
 X42.4417
 X42.2980 Z0.0000
 X32.5314
 X32.3878 Z-0.1784
 X31.8133 Z-3.3902
 X31.6697 Z-3.5000
 X27.2172
 X27.0736 Z-3.2667
 X26.4991 Z-1.4549
G2 X25.7810 Y-70.6643 Z-0.1098 I-48.1967 K-24.8652
G1 X25.6373 Z0.0000
 X17.5943
 X17.4506 Z-0.0275
 X17.1634 Z-3.4588
 X17.0197 Z-3.5000
 X15.8707
 X15.7271 Z-2.9373
 X15.5835 Z-0.6314
 X15.4399 Z0.0000
 X-13.2855
 X-13.4291 Z-0.2059
G3 X-14.0036 Y-70.6643 Z-3.4176 I-49.7113 K7.2344
G1 X-14.1472 Z-3.5000
 X-18.5996
 X-18.7433 Z-3.2941
 X-19.4614 Z-1.1255
 X-20.0359 Z-0.0961
 X-20.1795 Z0.0000
 X-25.6373
 X-25.7810 Z-0.1098
G2 X-26.4991 Y-70.6643 Z-1.4549 I47.4785 K-26.2103
G1 X-27.0736 Z-3.2667
 X-27.2172 Z-3.5000
 X-31.6697
 X-31.8133 Z-3.4039
 X-32.3878 Z-0.1784
 X-32.5314 Z0.0000
 X-42.2980
 X-42.4417 Z-3.5000
 X-43.0162
 Y-71.0952
 X-42.4417
 X-42.2980 Z0.0000
 X-30.6643
 X-30.5206 Z-0.0412
 X-29.8025 Z-3.1569
 X-29.6589 Z-3.5000
 X-16.1580
 X-16.0144 Z-3.2392
 X-15.2962 Z-0.1373
 X-15.1526 Z0.0000
 X14.7217
 X14.8654 Z-0.2471
G2 X15.1526 Y-71.0952 Z-3.4863 I52.8970 K3.0585
G1 X15.2962 Z-3.5000
 X16.4452
 X16.5889 Z-3.3902
G3 X16.8761 Y-71.0952 Z0.0000 I65.9006 K-3.8765
G1 X24.3447
G3 X24.6320 Y-71.0952 Z-3.4176 I-20.9716 K-3.4836
G1 X24.7756 Z-3.5000
 X29.6589
 X29.8025 Z-3.1569
 X30.5206 Z-0.0412
 X30.6643 Z0.0000
 X42.2980
 X42.4417 Z-3.5000
 X43.0162
 Y-71.5260
 X42.2980
 X42.1544 Z0.0000
 X27.9354
 X27.7917 Z-0.1647
 X26.9300 Z-2.9098
G3 X26.6427 Y-71.5260 Z-3.4451 I-4.2999 K1.9627
G1 X26.4991 Z-3.5000
 X24.3447
 X24.2011 Z-3.4176
G2 X23.9138 Y-71.5260 Z0.0000 I-21.2588 K-0.0659
G1 X16.3016
G2 X16.0144 Y-71.5260 Z-3.2941 I31.8625 K-4.4380
G1 X15.8707 Z-3.5000
 X14.5781
 X14.4345 Z-3.4176
 X14.1472 Z-0.1098
 X14.0036 Z0.0000
 X-17.8815
 X-18.0251 Z-0.1373
 X-19.0305 Z-3.2255
G3 X-19.3178 Y-71.5260 Z-3.5000 I-0.2940 K0.0201
G1 X-26.4991
 X-26.6427 Z-3.4451
G3 X-26.9300 Y-71.5260 Z-2.9098 I4.0127 K2.4980
G1 X-27.7917 Z-0.1647
 X-27.9354 Z0.0000
 X-42.1544
 X-42.2980 Z-3.5000
 X-43.0162
 Y-71.9569
 X-42.2980
 X-42.1544 Z0.0000
 X13.2855
 X13.4291 Z-0.3294
G2 X13.7163 Y-71.9569 Z-3.4039 I102.7587 K8.0485
G1 X13.8600 Z-3.5000
 X15.1526
 X15.2962 Z-3.4039
 X15.5835 Z-0.0961
 X15.7271 Z0.0000
 X42.1544
 X42.2980 Z-3.5000
 X43.0162
 Y-72.3878
 X42.0108
 X41.8671 Z0.0000
 X15.0090
 X14.8654 Z-0.2196
G3 X14.5781 Y-72.3878 Z-3.4863 I-64.3308 K4.0111
G1 X14.4345 Z-3.5000
 X12.9982
 X12.8546 Z-3.2667
 X12.5673 Z-0.1510
 X12.4237 Z0.0000
 X-41.8671
 X-42.0108 Z-3.5000
 X-43.0162
 Y-72.8187
 X-41.4363
 X-41.2926 Z0.0000
 X11.5619
 X11.7056 Z-0.0686
G3 X11.9928 Y-72.8187 Z-3.0608 I-94.4535 K-10.5766
G1 X12.1364 Z-3.5000
 X13.8600 Z-3.4863
G2 X14.1472 Y-72.8187 Z-0.4118 I-33.6949 K4.6988
G1 X14.2908 Z0.0000
 X41.2926
 X41.4363 Z-3.5000
 X43.0162
 Y-73.2496
 X40.4309
 X40.2873 Z0.0000
 X13.4291
 X13.2855 Z-0.8235
G3 X12.9982 Y-73.2496 Z-3.5000 I-15.7597 K0.3378
G1 X11.1311
 X10.9874 Z-2.6765
G2 X10.7002 Y-73.2496 Z-0.0686 I-46.8218 K-3.8377
G1 X10.5566 Z0.0000
 X-40.2873
 X-40.4309 Z-3.5000
 X-43.0162
 Y-73.6804
 X-39.5691
 X-39.4255 Z0.0000
 X9.5512
 X9.6948 Z-0.2059
G3 X9.9820 Y-73.6804 Z-2.9235 I-79.7698 K-9.8054
G1 X10.1257 Z-3.5000
 X12.1364
 X12.2801 Z-2.9373
G3 X12.5673 Y-73.6804 Z-0.0137 I32.5388 K-1.7212
G1 X39.4255 Z0.0000
 X39.5691 Z-3.5000
 X43.0162
 Y-74.1113
 X38.4201
 X38.2765 Z0.0000
 X11.7056
 X11.5619 Z-0.1510
G2 X11.2747 Y-74.1113 Z-2.8824 I86.4595 K-10.4738
G1 X11.1311 Z-3.5000
 X8.9767
 X8.8330 Z-3.4314
G2 X8.5458 Y-74.1113 Z-1.9353 I-9.3045 K-1.0109
G1 X8.4022 Z-0.3157
 X8.2585 Z0.0000
 X-38.2765
 X-38.4201 Z-3.5000
 X-43.0162
 Y-74.5422
 X-37.2711
 X-37.1275 Z0.0000
 X-9.1203
 X-8.9767 Z-0.6863
 X-8.6894 Z-3.0608
 X-8.5458 Z-3.5000
 X-7.3968
 X-7.2531 Z-2.9647
 X-6.8223 Z-0.2745
 X-6.6786 Z0.0000
 X6.6786
 X6.8223 Z-0.2745
 X7.2531 Z-2.9647
 X7.3968 Z-3.5000
 X10.1257
 X10.2693 Z-2.6490
G3 X10.5566 Y-74.5422 Z-0.0549 I44.1892 K-3.5803
G1 X10.7002 Z0.0000
 X37.1275
 X37.2711 Z-3.5000
 X43.0162
 Y-74.9731
 X35.9785
 X35.8348 Z0.0000
 X9.4075 Z-0.0137
 X9.2639 Z-0.7824
 X8.9767 Z-3.0882
 X8.8330 Z-3.5000
 X5.8169
 X5.6732 Z-3.4588
G3 X5.2424 Y-74.9731 Z-0.9882 I29.5071 K6.4187
G2 X4.9551 Y-74.9731 Z0.0000 I-2.6256 K-0.2273
G1 X-4.9551
G2 X-5.2424 Y-74.9731 Z-0.9882 I2.3384 K-1.2156
G3 X-5.6732 Y-74.9731 Z-3.4588 I-29.9379 K3.9482
G1 X-5.8169 Z-3.5000
 X-8.8330
 X-8.9767 Z-3.2392
 X-9.2639 Z-0.7412
 X-9.4075 Z0.0000
 X-35.8348
 X-35.9785 Z-3.5000
 X-43.0162
 Y-75.4039
 X-34.5422
 X-34.3986 Z0.0000
 X-8.1149
 X-7.9713 Z-0.5216
 X-7.5404 Z-3.2118
 X-7.3968 Z-3.5000
 X-3.2316
 X-3.0880 Z-3.1980
G2 X-2.6571 Y-75.4039 Z-1.8667 I-73.9306 K24.6603
G1 X-2.5135 Z-1.5373
 X-1.6517 Z-0.0275
 X-1.5081 Z0.0000
 X1.5081
 X1.6517 Z-0.0275
 X2.5135 Z-1.5373
 X2.6571 Z-1.8667
G2 X3.0880 Y-75.4039 Z-3.1980 I74.3615 K23.3289
G1 X3.2316 Z-3.5000
 X7.3968
 X7.5404 Z-3.2118
 X7.9713 Z-0.6176
 X8.1149 Z0.0000
 X34.3986
 X34.5422 Z-3.5000
 X43.0162
 Y-75.8348
 X32.9623
 X32.8187 Z0.0000
 X6.5350
 X6.3914 Z-0.0686
 X5.9605 Z-2.4706
G3 X5.6732 Y-75.8348 Z-3.5000 I-4.9295 K0.8208
G1 X-5.6732
G3 X-5.9605 Y-75.8348 Z-2.4706 I4.6423 K1.8502
G1 X-6.3914 Z-0.0686
 X-6.5350 Z0.0000
 X-32.8187
 X-32.9623 Z-3.5000
 X-43.0162
 Y-76.2657
 X-30.9515
 X-30.8079 Z0.0000
 X-3.9497
 X-3.8061 Z-0.2471
G3 X-3.0880 Y-76.2657 Z-2.4980 I-86.7278 K-28.9095
G2 X-2.6571 Y-76.2657 Z-3.3353 I5.6812 K2.3942
G1 X-2.5135 Z-3.5000
 X2.5135
 X2.6571 Z-3.3353
G2 X3.0880 Y-76.2657 Z-2.4980 I-5.2503 K3.2315
G3 X3.8061 Y-76.2657 Z-0.2471 I87.4460 K-26.6585
G1 X3.9497 Z0.0000
 X30.8079
 X30.9515 Z-3.5000
 X43.0162
 Y-76.6966
 X28.3662
 X28.2226 Z0.0000
 X-28.2226
 X-28.3662 Z-3.5000
 X-43.0162
 Y-77.1275
 X-17.0197
