( Made using CamBam - http://www.cambam.co.uk )
( banshee_control_horn 11/1/2015 9:23:12 AM )
( T0 : 0.0472 )
G20 G90 G64 G40
G0 Z0.125
( T0 : 0.0472 )
T0 M6
( Profile1 )
G17
M3 S1000
G0 X0.2681 Y1.5508
G0 Z0.0625
G1 F5.0 Z-0.02
G2 F15.0 X0.2137 Y1.5194 I-0.0363 J0.0
G2 Y1.5823 I0.0182 J0.0314
G2 X0.2681 Y1.5508 I0.0182 J-0.0314
G1 F5.0 Z-0.04
G2 F15.0 X0.2137 Y1.5194 I-0.0363 J0.0
G2 Y1.5823 I0.0182 J0.0314
G2 X0.2681 Y1.5508 I0.0182 J-0.0314
G0 Z0.125
G0 X0.3955
G0 Z0.0625
G1 F5.0 Z-0.02
G2 F15.0 X0.4137 Y1.5823 I0.0363 J0.0
G2 X0.4681 Y1.5508 I0.0182 J-0.0314
G2 X0.4137 Y1.5194 I-0.0363 J0.0
G2 X0.3955 Y1.5508 I0.0182 J0.0314
G1 F5.0 Z-0.04
G2 F15.0 X0.4137 Y1.5823 I0.0363 J0.0
G2 X0.4681 Y1.5508 I0.0182 J-0.0314
G2 X0.4137 Y1.5194 I-0.0363 J0.0
G2 X0.3955 Y1.5508 I0.0182 J0.0314
G0 Z0.125
G0 X0.5955
G0 Z0.0625
G1 F5.0 Z-0.02
G2 F15.0 X0.6137 Y1.5823 I0.0363 J0.0
G2 X0.6681 Y1.5508 I0.0182 J-0.0314
G2 X0.6137 Y1.5194 I-0.0363 J0.0
G2 X0.5955 Y1.5508 I0.0182 J0.0314
G1 F5.0 Z-0.04
G2 F15.0 X0.6137 Y1.5823 I0.0363 J0.0
G2 X0.6681 Y1.5508 I0.0182 J-0.0314
G2 X0.6137 Y1.5194 I-0.0363 J0.0
G2 X0.5955 Y1.5508 I0.0182 J0.0314
G0 Z0.125
G0 Y1.3972
G0 Z0.0625
G1 F5.0 Z-0.02
G1 F15.0 X0.6853
G2 X0.8081 Y1.3474 I0.0 J-0.1764
G1 X0.8898 Y1.2681
G2 X0.8074 Y1.1427 I-0.0532 J-0.0548
G1 X0.5478 Y1.2502
G2 X0.577 Y1.3972 I0.0292 J0.0706
G1 X0.5955
G1 F5.0 Z-0.04
G1 F15.0 X0.6853
G2 X0.8081 Y1.3474 I0.0 J-0.1764
G1 X0.8898 Y1.2681
G2 X0.8074 Y1.1427 I-0.0532 J-0.0548
G1 X0.5478 Y1.2502
G2 X0.577 Y1.3972 I0.0292 J0.0706
G1 X0.5955
G0 Z0.125
G0 X0.8014 Y1.531
G0 Z0.0625
G1 F5.0 Z-0.02
G2 F15.0 X0.8137 Y1.5823 I0.0304 J0.0198
G2 X0.8681 Y1.5508 I0.0182 J-0.0314
G2 X0.8137 Y1.5194 I-0.0363 J0.0
G2 X0.8014 Y1.531 I0.0182 J0.0314
G1 F5.0 Z-0.04
G2 F15.0 X0.8137 Y1.5823 I0.0304 J0.0198
G2 X0.8681 Y1.5508 I0.0182 J-0.0314
G2 X0.8137 Y1.5194 I-0.0363 J0.0
G2 X0.8014 Y1.531 I0.0182 J0.0314
G0 Z0.125
G0 X0.677 Y0.6315
G0 Z0.0625
G1 F5.0 Z-0.02
G2 F15.0 X0.6958 Y0.6264 I-0.0105 J-0.0757
G1 X0.9554 Y0.5189
G2 X0.9262 Y0.3719 I-0.0292 J-0.0706
G1 X0.8179
G2 X0.6951 Y0.4217 I0.0 J0.1764
G1 X0.6134 Y0.501
G2 X0.677 Y0.6315 I0.0532 J0.0548
G1 F5.0 Z-0.04
G2 F15.0 X0.6958 Y0.6264 I-0.0105 J-0.0757
G1 X0.9554 Y0.5189
G2 X0.9262 Y0.3719 I-0.0292 J-0.0706
G1 X0.8179
G2 X0.6951 Y0.4217 I0.0 J0.1764
G1 X0.6134 Y0.501
G2 X0.677 Y0.6315 I0.0532 J0.0548
G0 Z0.125
G0 X0.6719 Y0.2546
G0 Z0.0625
G1 F5.0 Z-0.02
G2 F15.0 X0.7077 Y0.2183 I-0.0005 J-0.0363
G2 X0.6533 Y0.1869 I-0.0363 J0.0
G2 Y0.2498 I0.0182 J0.0314
G2 X0.6719 Y0.2546 I0.0182 J-0.0314
G1 F5.0 Z-0.04
G2 F15.0 X0.7077 Y0.2183 I-0.0005 J-0.0363
G2 X0.6533 Y0.1869 I-0.0363 J0.0
G2 Y0.2498 I0.0182 J0.0314
G2 X0.6719 Y0.2546 I0.0182 J-0.0314
G0 Z0.125
G0 X0.8357 Y0.2248
G0 Z0.0625
G1 F5.0 Z-0.02
G2 F15.0 X0.8533 Y0.2498 I0.0357 J-0.0065
G2 X0.9077 Y0.2183 I0.0182 J-0.0314
G2 X0.8533 Y0.1869 I-0.0363 J0.0
G2 X0.8357 Y0.2248 I0.0182 J0.0314
G1 F5.0 Z-0.04
G2 F15.0 X0.8533 Y0.2498 I0.0357 J-0.0065
G2 X0.9077 Y0.2183 I0.0182 J-0.0314
G2 X0.8533 Y0.1869 I-0.0363 J0.0
G2 X0.8357 Y0.2248 I0.0182 J0.0314
G0 Z0.125
G0 X1.0351 Y0.2193
G0 Z0.0625
G1 F5.0 Z-0.02
G2 F15.0 X1.0533 Y0.2498 I0.0363 J-0.001
G2 X1.1077 Y0.2183 I0.0182 J-0.0314
G2 X1.0533 Y0.1869 I-0.0363 J0.0
G2 X1.0351 Y0.2193 I0.0182 J0.0314
G1 F5.0 Z-0.04
G2 F15.0 X1.0533 Y0.2498 I0.0363 J-0.001
G2 X1.1077 Y0.2183 I0.0182 J-0.0314
G2 X1.0533 Y0.1869 I-0.0363 J0.0
G2 X1.0351 Y0.2193 I0.0182 J0.0314
G0 Z0.125
G0 X1.2351 Y0.2185
G0 Z0.0625
G1 F5.0 Z-0.02
G2 F15.0 X1.2533 Y0.2498 I0.0363 J-0.0002
G2 X1.3077 Y0.2183 I0.0182 J-0.0314
G2 X1.2533 Y0.1869 I-0.0363 J0.0
G2 X1.2351 Y0.2185 I0.0182 J0.0314
G1 F5.0 Z-0.04
G2 F15.0 X1.2533 Y0.2498 I0.0363 J-0.0002
G2 X1.3077 Y0.2183 I0.0182 J-0.0314
G2 X1.2533 Y0.1869 I-0.0363 J0.0
G2 X1.2351 Y0.2185 I0.0182 J0.0314
( Profile2 )
S1000
G0 Z0.125
G0 X0.4978 Y0.1683
G0 Z0.0625
G1 F5.0 Z-0.02
G3 F15.0 X0.6214 Y0.0447 I0.1236 J0.0
G1 X1.1539
G1 X1.1639 Z0.02
G1 X1.2111
G1 X1.2211 Z-0.02
G1 X1.3013
G3 X1.455 Y0.1983 I0.0 J0.1536
G1 Y0.4229
G3 X1.3601 Y0.5649 I-0.1536 J0.0
G1 X0.4183 Y0.9547
G1 X0.4091 Y0.9585 Z0.02
G1 X0.3654 Y0.9766
G1 X0.3562 Y0.9804 Z-0.02
G1 X0.2878 Y1.0087
G3 X0.1005 Y0.7237 I-0.0664 J-0.1604
G1 X0.4978 Y0.3383
G1 Y0.1683
G1 F5.0 Z-0.04
G3 F15.0 X0.6214 Y0.0447 I0.1236 J0.0
G1 X1.1539
G1 X1.1639 Z0.02
G1 X1.2111
G1 X1.2211 Z-0.04
G1 X1.3013
G3 X1.455 Y0.1983 I0.0 J0.1536
G1 Y0.4229
G3 X1.3601 Y0.5649 I-0.1536 J0.0
G1 X0.4183 Y0.9547
G1 X0.4091 Y0.9585 Z0.02
G1 X0.3654 Y0.9766
G1 X0.3562 Y0.9804 Z-0.04
G1 X0.2878 Y1.0087
G3 X0.1005 Y0.7237 I-0.0664 J-0.1604
G1 X0.4978 Y0.3383
G1 Y0.1683
G0 Z0.125
G0 X0.812 Y0.9274
G0 Z0.0625
G1 F5.0 Z-0.02
G1 F15.0 X1.0024 Y0.8486
G1 X1.0116 Y0.8448 Z0.02
G1 X1.0553 Y0.8267
G1 X1.0645 Y0.8229 Z-0.02
G1 X1.2154 Y0.7604
G3 X1.4027 Y1.0454 I0.0664 J0.1604
G1 X1.0054 Y1.4308
G1 Y1.6008
G3 X0.8818 Y1.7244 I-0.1236 J0.0
G1 X0.3583
G1 X0.3483 Z0.02
G1 X0.3011
G1 X0.2911 Z-0.02
G1 X0.2019
G3 X0.0483 Y1.5708 I0.0 J-0.1536
G1 Y1.3462
G3 X0.1431 Y1.2043 I0.1536 J0.0
G1 X0.812 Y0.9274
G1 F5.0 Z-0.04
G1 F15.0 X1.0024 Y0.8486
G1 X1.0116 Y0.8448 Z0.02
G1 X1.0553 Y0.8267
G1 X1.0645 Y0.8229 Z-0.04
G1 X1.2154 Y0.7604
G3 X1.4027 Y1.0454 I0.0664 J0.1604
G1 X1.0054 Y1.4308
G1 Y1.6008
G3 X0.8818 Y1.7244 I-0.1236 J0.0
G1 X0.3583
G1 X0.3483 Z0.02
G1 X0.3011
G1 X0.2911 Z-0.04
G1 X0.2019
G3 X0.0483 Y1.5708 I0.0 J-0.1536
G1 Y1.3462
G3 X0.1431 Y1.2043 I0.1536 J0.0
G1 X0.812 Y0.9274
G0 Z0.125
M5
M30
