N1 (1001)
N2 (T2  D=3.175 CR=1.587 - ZMIN=-7.998 - BALL END MILL)
N3 (T7  D=3.175 CR=0. - ZMIN=-8.4 - FLAT END MILL)
N4 (T8  D=2. CR=1. - ZMIN=-8.093 - BALL END MILL)
N5 G0 G90 G94 G17
N6 G21
N7 G53 Z0.
N8 
N9 (BORE1)
N10 M5
N11 M9
N12 T7 M6
N13 M3 S8000
N14 G54
N15 M8
N16 G0 Z15
N17 G0 X4.554 Y17.953
N18 Z15.
N19 Z1.682
N20 G1 Z0. F100.
N21 X4.395
N22 G3 X4.314 Y17.872 I0. J-0.081
N23 X4.639 Z-0.5 I0.162 J0. F150.
N24 X4.314 Z-1. I-0.162 J0.
N25 X4.639 Z-1.5 I0.162 J0.
N26 X4.314 Z-2. I-0.162 J0.
N27 X4.639 Z-2.5 I0.162 J0.
N28 X4.314 Z-3. I-0.162 J0.
N29 X4.639 Z-3.5 I0.162 J0.
N30 X4.314 Z-4. I-0.162 J0.
N31 X4.639 Z-4.5 I0.162 J0.
N32 X4.314 Z-5. I-0.162 J0.
N33 X4.639 Z-5.5 I0.162 J0.
N34 X4.314 Z-6. I-0.162 J0.
N35 X4.639 Z-6.5 I0.162 J0.
N36 X4.314 Z-7. I-0.162 J0.
N37 X4.639 Z-7.5 I0.162 J0.
N38 X4.314 Z-8. I-0.162 J0.
N39 X4.639 I0.162 J0.
N40 X4.314 I-0.162 J0.
N41 X4.395 Y17.79 I0.081 J0. F100.
N42 G1 X4.554
N43 G0 Z5.
N44 Y30.21
N45 Z1.682
N46 G1 Z0. F100.
N47 X4.395
N48 G3 X4.314 Y30.128 I0. J-0.081
N49 X4.639 Z-0.5 I0.162 J0. F150.
N50 X4.314 Z-1. I-0.162 J0.
N51 X4.639 Z-1.5 I0.162 J0.
N52 X4.314 Z-2. I-0.162 J0.
N53 X4.639 Z-2.5 I0.162 J0.
N54 X4.314 Z-3. I-0.162 J0.
N55 X4.639 Z-3.5 I0.162 J0.
N56 X4.314 Z-4. I-0.162 J0.
N57 X4.639 Z-4.5 I0.162 J0.
N58 X4.314 Z-5. I-0.162 J0.
N59 X4.639 Z-5.5 I0.162 J0.
N60 X4.314 Z-6. I-0.162 J0.
N61 X4.639 Z-6.5 I0.162 J0.
N62 X4.314 Z-7. I-0.162 J0.
N63 X4.639 Z-7.5 I0.162 J0.
N64 X4.314 Z-8. I-0.162 J0.
N65 X4.639 I0.162 J0.
N66 X4.314 I-0.162 J0.
N67 X4.395 Y30.047 I0.081 J0. F100.
N68 G1 X4.554
N69 G0 Z15.
N70 G53 Z0.
N71 
N72 (POCKET2)
N73 M5
N74 M9
N75 M1
N76 T8 M6
N77 M3 S8000
N78 G54
N79 M8
N80 G0 X22.213 Y31.869
N81 Z11.
N82 Z3.01
N83 G1 Z2.3 F50.
N84 X22.195 Y31.866 Z2.216 F100.
N85 G3 X22.145 Y31.851 Z2.148 I0.046 J-0.246
N86 X22.08 Y31.812 Z2.107 I0.095 J-0.231
N87 G1 X22.047 Y31.779 Z2.1
N88 G3 X22.433 Y31.461 Z2.073 I0.193 J-0.159
N89 X22.047 Y31.779 Z2.045 I-0.193 J0.159
N90 X22.433 Y31.461 Z2.018 I0.193 J-0.159
N91 X22.047 Y31.779 Z1.99 I-0.193 J0.159
N92 X22.433 Y31.461 Z1.963 I0.193 J-0.159
N93 X22.047 Y31.779 Z1.935 I-0.193 J0.159
N94 X22.433 Y31.461 Z1.908 I0.193 J-0.159
N95 X22.047 Y31.779 Z1.881 I-0.193 J0.159
N96 X22.433 Y31.461 Z1.853 I0.193 J-0.159
N97 X22.047 Y31.779 Z1.826 I-0.193 J0.159
N98 X22.433 Y31.461 Z1.798 I0.193 J-0.159
N99 X22.047 Y31.779 Z1.771 I-0.193 J0.159
N100 X22.433 Y31.461 Z1.743 I0.193 J-0.159
N101 X22.047 Y31.779 Z1.716 I-0.193 J0.159
N102 X22.433 Y31.461 Z1.689 I0.193 J-0.159
N103 X22.047 Y31.779 Z1.661 I-0.193 J0.159
N104 X22.433 Y31.461 Z1.634 I0.193 J-0.159
N105 X22.047 Y31.779 Z1.606 I-0.193 J0.159
N106 X22.433 Y31.461 Z1.579 I0.193 J-0.159
N107 X22.047 Y31.779 Z1.551 I-0.193 J0.159
N108 X22.433 Y31.461 Z1.524 I0.193 J-0.159
N109 X22.047 Y31.779 Z1.497 I-0.193 J0.159
N110 X22.433 Y31.461 Z1.469 I0.193 J-0.159
N111 X22.047 Y31.779 Z1.442 I-0.193 J0.159
N112 X22.433 Y31.461 Z1.414 I0.193 J-0.159
N113 X22.047 Y31.779 Z1.387 I-0.193 J0.159
N114 X22.433 Y31.461 Z1.359 I0.193 J-0.159
N115 X22.047 Y31.779 Z1.332 I-0.193 J0.159
N116 X22.433 Y31.461 Z1.305 I0.193 J-0.159
N117 X22.047 Y31.779 Z1.277 I-0.193 J0.159
N118 X22.433 Y31.461 Z1.25 I0.193 J-0.159
N119 X22.047 Y31.779 Z1.222 I-0.193 J0.159
N120 X22.433 Y31.461 Z1.195 I0.193 J-0.159
N121 X22.047 Y31.779 Z1.167 I-0.193 J0.159
N122 X22.433 Y31.461 Z1.14 I0.193 J-0.159
N123 X22.047 Y31.779 Z1.113 I-0.193 J0.159
N124 X22.433 Y31.461 Z1.085 I0.193 J-0.159
N125 X22.047 Y31.779 Z1.058 I-0.193 J0.159
N126 X22.433 Y31.461 Z1.03 I0.193 J-0.159
N127 X22.047 Y31.779 Z1.003 I-0.193 J0.159
N128 X22.433 Y31.461 Z0.976 I0.193 J-0.159
N129 X22.047 Y31.779 Z0.948 I-0.193 J0.159
N130 X22.433 Y31.461 Z0.921 I0.193 J-0.159
N131 X22.047 Y31.779 Z0.893 I-0.193 J0.159
N132 X22.433 Y31.461 Z0.866 I0.193 J-0.159
N133 X22.047 Y31.779 Z0.838 I-0.193 J0.159
N134 X22.433 Y31.461 Z0.811 I0.193 J-0.159
N135 X22.047 Y31.779 Z0.784 I-0.193 J0.159
N136 X22.433 Y31.461 Z0.756 I0.193 J-0.159
N137 X22.047 Y31.779 Z0.729 I-0.193 J0.159
N138 X22.433 Y31.461 Z0.701 I0.193 J-0.159
N139 X22.047 Y31.779 Z0.674 I-0.193 J0.159
N140 X22.433 Y31.461 Z0.646 I0.193 J-0.159
N141 X22.047 Y31.779 Z0.619 I-0.193 J0.159
N142 X22.433 Y31.461 Z0.592 I0.193 J-0.159
N143 X22.047 Y31.779 Z0.564 I-0.193 J0.159
N144 X22.433 Y31.461 Z0.537 I0.193 J-0.159
N145 X22.047 Y31.779 Z0.509 I-0.193 J0.159
N146 X22.433 Y31.461 Z0.482 I0.193 J-0.159
N147 X22.047 Y31.779 Z0.454 I-0.193 J0.159
N148 X22.433 Y31.461 Z0.427 I0.193 J-0.159
N149 X22.047 Y31.779 Z0.4 I-0.193 J0.159
N150 X22.433 Y31.461 Z0.372 I0.193 J-0.159
N151 X22.047 Y31.779 Z0.345 I-0.193 J0.159
N152 X22.433 Y31.461 Z0.317 I0.193 J-0.159
N153 X22.047 Y31.779 Z0.29 I-0.193 J0.159
N154 X22.433 Y31.461 Z0.262 I0.193 J-0.159
N155 X22.047 Y31.779 Z0.235 I-0.193 J0.159
N156 X22.433 Y31.461 Z0.208 I0.193 J-0.159
N157 X22.047 Y31.779 Z0.18 I-0.193 J0.159
N158 X22.433 Y31.461 Z0.153 I0.193 J-0.159
N159 X22.047 Y31.779 Z0.125 I-0.193 J0.159
N160 X22.433 Y31.461 Z0.098 I0.193 J-0.159
N161 X22.047 Y31.779 Z0.07 I-0.193 J0.159
N162 X22.433 Y31.461 Z0.043 I0.193 J-0.159
N163 X22.047 Y31.779 Z0.016 I-0.193 J0.159
N164 X22.433 Y31.461 Z-0.012 I0.193 J-0.159
N165 X22.047 Y31.779 Z-0.039 I-0.193 J0.159
N166 X22.433 Y31.461 Z-0.067 I0.193 J-0.159
N167 X22.047 Y31.779 Z-0.094 I-0.193 J0.159
N168 X22.433 Y31.461 Z-0.122 I0.193 J-0.159
N169 X22.047 Y31.779 Z-0.149 I-0.193 J0.159
N170 X22.433 Y31.461 Z-0.176 I0.193 J-0.159
N171 X22.047 Y31.779 Z-0.204 I-0.193 J0.159
N172 X22.433 Y31.461 Z-0.231 I0.193 J-0.159
N173 X22.047 Y31.779 Z-0.259 I-0.193 J0.159
N174 X22.433 Y31.461 Z-0.286 I0.193 J-0.159
N175 X22.047 Y31.779 Z-0.314 I-0.193 J0.159
N176 X22.433 Y31.461 Z-0.341 I0.193 J-0.159
N177 X22.047 Y31.779 Z-0.368 I-0.193 J0.159
N178 X22.433 Y31.461 Z-0.396 I0.193 J-0.159
N179 X22.047 Y31.779 Z-0.423 I-0.193 J0.159
N180 X22.433 Y31.461 Z-0.451 I0.193 J-0.159
N181 X22.047 Y31.779 Z-0.478 I-0.193 J0.159
N182 X22.433 Y31.461 Z-0.506 I0.193 J-0.159
N183 X22.047 Y31.779 Z-0.533 I-0.193 J0.159
N184 X22.433 Y31.461 Z-0.56 I0.193 J-0.159
N185 X22.047 Y31.779 Z-0.588 I-0.193 J0.159
N186 X22.433 Y31.461 Z-0.615 I0.193 J-0.159
N187 X22.047 Y31.779 Z-0.643 I-0.193 J0.159
N188 X22.433 Y31.461 Z-0.67 I0.193 J-0.159
N189 X22.047 Y31.779 Z-0.698 I-0.193 J0.159
N190 X22.433 Y31.461 Z-0.725 I0.193 J-0.159
N191 X22.047 Y31.779 Z-0.752 I-0.193 J0.159
N192 X22.433 Y31.461 Z-0.78 I0.193 J-0.159
N193 X22.047 Y31.779 Z-0.807 I-0.193 J0.159
N194 X22.433 Y31.461 Z-0.835 I0.193 J-0.159
N195 X22.047 Y31.779 Z-0.862 I-0.193 J0.159
N196 X22.433 Y31.461 Z-0.89 I0.193 J-0.159
N197 X22.047 Y31.779 Z-0.917 I-0.193 J0.159
N198 X22.433 Y31.461 Z-0.944 I0.193 J-0.159
N199 X22.047 Y31.779 Z-0.972 I-0.193 J0.159
N200 X22.433 Y31.461 Z-0.999 I0.193 J-0.159
N201 X22.08 Y31.812 Z-1.025 I-0.193 J0.159
N202 G2 X22.003 Y31.756 I-0.508 J0.611 F75.
N203 G3 X21.92 Y31.701 I2.517 J-3.906
N204 X21.933 Y31.391 I0.102 J-0.151
N205 G2 X22.017 Y31.334 I-0.299 J-0.534
N206 X22.096 Y31.269 I-2.189 J-2.719
N207 G3 X22.502 Y31.266 I0.205 J0.24
N208 G1 X22.584 Y31.335
N209 G2 X22.665 Y31.391 I0.36 J-0.433
N210 G3 X22.669 Y31.708 I-0.091 J0.16
N211 G2 X22.592 Y31.76 I0.522 J0.864
N212 X22.519 Y31.817 I0.998 J1.352
N213 G3 X22.083 Y31.815 I-0.217 J-0.263
N214 G1 X22.08 Y31.812
N215 G2 X21.484 Y31.818 I-0.295 J0.355
N216 G3 X20.925 Y32.026 I-0.559 J-0.647
N217 G1 X17.893
N218 X17.85 Y31.985
N219 Y31.118
N220 X17.893 Y31.074
N221 X18.021
N222 X21.146 Y31.073
N223 X21.319 Y31.049
N224 X21.493 Y30.992
N225 X21.667 Y30.895
N226 X21.813 Y30.77
N227 X21.919 Y30.641
N228 X22.016 Y30.464
N229 X22.074 Y30.289
N230 X22.099 Y30.114
N231 X22.1 Y26.034
N232 X22.133 Y26.
N233 X22.466
N234 X22.5 Y26.034
N235 X22.502 Y30.114
N236 X22.527 Y30.289
N237 X22.584 Y30.464
N238 X22.671 Y30.624
N239 X22.797 Y30.779
N240 X22.944 Y30.902
N241 X23.1 Y30.989
N242 X23.274 Y31.047
N243 X23.404 Y31.069
N244 X29.958 Y31.074
N245 X30. Y31.118
N246 Y31.985
N247 X29.958 Y32.026
N248 X23.404 Y32.031
N249 X23.23 Y32.064
N250 X23.057 Y32.132
N251 X22.926 Y32.211
N252 X22.818 Y32.3
N253 X22.709 Y32.422
N254 X22.621 Y32.56
N255 X22.548 Y32.735
N256 X22.509 Y32.909
N257 X22.5 Y33.084
N258 Y35.006
N259 X22.466 Y35.05
N260 X22.133
N261 X22.1 Y35.006
N262 X22.099 Y32.997
N263 X22.08 Y32.84
N264 X22.042 Y32.701
N265 X21.955 Y32.516
N266 X21.862 Y32.385
N267 X21.721 Y32.246
N268 X21.58 Y32.151
N269 X21.406 Y32.075
N270 X21.232 Y32.035
N271 X20.972 Y32.026
N272 X20.925
N273 G3 X20.85 Y32.012 Z-1.01 I0. J-0.2
N274 X20.795 Y31.978 Z-0.966 I0.075 J-0.186
N275 G1 X20.765 Y31.947 Z-0.902
N276 X20.757 Y31.934 Z-0.825
N277 G0 Z3.01
N278 X22.48 Y31.691
N279 G1 Z1.409 F50.
N280 X22.482 Y31.706 Z1.334 F100.
N281 X22.485 Y31.747 Z1.27
N282 G3 X22.477 Y31.809 Z1.226 I-0.25 J-0.002
N283 X22.448 Y31.877 Z1.209 I-0.242 J-0.064
N284 X22.023 Y31.613 Z1.182 I-0.212 J-0.132
N285 X22.448 Y31.877 Z1.154 I0.212 J0.132
N286 X22.023 Y31.613 Z1.127 I-0.212 J-0.132
N287 X22.448 Y31.877 Z1.099 I0.212 J0.132
N288 X22.023 Y31.613 Z1.072 I-0.212 J-0.132
N289 X22.448 Y31.877 Z1.044 I0.212 J0.132
N290 X22.023 Y31.613 Z1.017 I-0.212 J-0.132
N291 X22.448 Y31.877 Z0.99 I0.212 J0.132
N292 X22.023 Y31.613 Z0.962 I-0.212 J-0.132
N293 X22.448 Y31.877 Z0.935 I0.212 J0.132
N294 X22.023 Y31.613 Z0.907 I-0.212 J-0.132
N295 X22.448 Y31.877 Z0.88 I0.212 J0.132
N296 X22.023 Y31.613 Z0.852 I-0.212 J-0.132
N297 X22.448 Y31.877 Z0.825 I0.212 J0.132
N298 X22.023 Y31.613 Z0.798 I-0.212 J-0.132
N299 X22.448 Y31.877 Z0.77 I0.212 J0.132
N300 X22.023 Y31.613 Z0.743 I-0.212 J-0.132
N301 X22.448 Y31.877 Z0.715 I0.212 J0.132
N302 X22.023 Y31.613 Z0.688 I-0.212 J-0.132
N303 X22.448 Y31.877 Z0.66 I0.212 J0.132
N304 X22.023 Y31.613 Z0.633 I-0.212 J-0.132
N305 X22.448 Y31.877 Z0.606 I0.212 J0.132
N306 X22.023 Y31.613 Z0.578 I-0.212 J-0.132
N307 X22.448 Y31.877 Z0.551 I0.212 J0.132
N308 X22.023 Y31.613 Z0.523 I-0.212 J-0.132
N309 X22.448 Y31.877 Z0.496 I0.212 J0.132
N310 X22.023 Y31.613 Z0.468 I-0.212 J-0.132
N311 X22.448 Y31.877 Z0.441 I0.212 J0.132
N312 X22.023 Y31.613 Z0.414 I-0.212 J-0.132
N313 X22.448 Y31.877 Z0.386 I0.212 J0.132
N314 X22.023 Y31.613 Z0.359 I-0.212 J-0.132
N315 X22.448 Y31.877 Z0.331 I0.212 J0.132
N316 X22.023 Y31.613 Z0.304 I-0.212 J-0.132
N317 X22.448 Y31.877 Z0.276 I0.212 J0.132
N318 X22.023 Y31.613 Z0.249 I-0.212 J-0.132
N319 X22.448 Y31.877 Z0.222 I0.212 J0.132
N320 X22.023 Y31.613 Z0.194 I-0.212 J-0.132
N321 X22.448 Y31.877 Z0.167 I0.212 J0.132
N322 X22.023 Y31.613 Z0.139 I-0.212 J-0.132
N323 X22.448 Y31.877 Z0.112 I0.212 J0.132
N324 X22.023 Y31.613 Z0.084 I-0.212 J-0.132
N325 X22.448 Y31.877 Z0.057 I0.212 J0.132
N326 X22.023 Y31.613 Z0.03 I-0.212 J-0.132
N327 X22.448 Y31.877 Z0.002 I0.212 J0.132
N328 X22.023 Y31.613 Z-0.025 I-0.212 J-0.132
N329 X22.448 Y31.877 Z-0.053 I0.212 J0.132
N330 X22.023 Y31.613 Z-0.08 I-0.212 J-0.132
N331 X22.448 Y31.877 Z-0.108 I0.212 J0.132
N332 X22.023 Y31.613 Z-0.135 I-0.212 J-0.132
N333 X22.448 Y31.877 Z-0.162 I0.212 J0.132
N334 X22.023 Y31.613 Z-0.19 I-0.212 J-0.132
N335 X22.448 Y31.877 Z-0.217 I0.212 J0.132
N336 X22.023 Y31.613 Z-0.245 I-0.212 J-0.132
N337 X22.448 Y31.877 Z-0.272 I0.212 J0.132
N338 X22.023 Y31.613 Z-0.299 I-0.212 J-0.132
N339 X22.448 Y31.877 Z-0.327 I0.212 J0.132
N340 X22.023 Y31.613 Z-0.354 I-0.212 J-0.132
N341 X22.448 Y31.877 Z-0.382 I0.212 J0.132
N342 X22.023 Y31.613 Z-0.409 I-0.212 J-0.132
N343 X22.448 Y31.877 Z-0.437 I0.212 J0.132
N344 X22.023 Y31.613 Z-0.464 I-0.212 J-0.132
N345 X22.448 Y31.877 Z-0.491 I0.212 J0.132
N346 X22.023 Y31.613 Z-0.519 I-0.212 J-0.132
N347 X22.448 Y31.877 Z-0.546 I0.212 J0.132
N348 X22.023 Y31.613 Z-0.574 I-0.212 J-0.132
N349 X22.448 Y31.877 Z-0.601 I0.212 J0.132
N350 X22.023 Y31.613 Z-0.629 I-0.212 J-0.132
N351 X22.448 Y31.877 Z-0.656 I0.212 J0.132
N352 X22.023 Y31.613 Z-0.683 I-0.212 J-0.132
N353 X22.448 Y31.877 Z-0.711 I0.212 J0.132
N354 X22.023 Y31.613 Z-0.738 I-0.212 J-0.132
N355 X22.448 Y31.877 Z-0.766 I0.212 J0.132
N356 X22.023 Y31.613 Z-0.793 I-0.212 J-0.132
N357 X22.448 Y31.877 Z-0.821 I0.212 J0.132
N358 X22.023 Y31.613 Z-0.848 I-0.212 J-0.132
N359 X22.448 Y31.877 Z-0.875 I0.212 J0.132
N360 X22.023 Y31.613 Z-0.903 I-0.212 J-0.132
N361 X22.448 Y31.877 Z-0.93 I0.212 J0.132
N362 X22.023 Y31.613 Z-0.958 I-0.212 J-0.132
N363 X22.448 Y31.877 Z-0.985 I0.212 J0.132
N364 X22.023 Y31.613 Z-1.013 I-0.212 J-0.132
N365 X22.448 Y31.877 Z-1.04 I0.212 J0.132
N366 X22.023 Y31.613 Z-1.067 I-0.212 J-0.132
N367 X22.448 Y31.877 Z-1.095 I0.212 J0.132
N368 X22.023 Y31.613 Z-1.122 I-0.212 J-0.132
N369 X22.448 Y31.877 Z-1.15 I0.212 J0.132
N370 X22.023 Y31.613 Z-1.177 I-0.212 J-0.132
N371 X22.448 Y31.877 Z-1.205 I0.212 J0.132
N372 X22.023 Y31.613 Z-1.232 I-0.212 J-0.132
N373 X22.448 Y31.877 Z-1.259 I0.212 J0.132
N374 X22.023 Y31.613 Z-1.287 I-0.212 J-0.132
N375 X22.448 Y31.877 Z-1.314 I0.212 J0.132
N376 X22.023 Y31.613 Z-1.342 I-0.212 J-0.132
N377 X22.448 Y31.877 Z-1.369 I0.212 J0.132
N378 X22.023 Y31.613 Z-1.397 I-0.212 J-0.132
N379 X22.448 Y31.877 Z-1.424 I0.212 J0.132
N380 X22.023 Y31.613 Z-1.451 I-0.212 J-0.132
N381 X22.448 Y31.877 Z-1.479 I0.212 J0.132
N382 X22.023 Y31.613 Z-1.506 I-0.212 J-0.132
N383 X22.448 Y31.877 Z-1.534 I0.212 J0.132
N384 X22.023 Y31.613 Z-1.561 I-0.212 J-0.132
N385 X22.448 Y31.877 Z-1.589 I0.212 J0.132
N386 X22.023 Y31.613 Z-1.616 I-0.212 J-0.132
N387 X22.448 Y31.877 Z-1.643 I0.212 J0.132
N388 X22.023 Y31.613 Z-1.671 I-0.212 J-0.132
N389 X22.448 Y31.877 Z-1.698 I0.212 J0.132
N390 X22.023 Y31.613 Z-1.726 I-0.212 J-0.132
N391 X22.448 Y31.877 Z-1.753 I0.212 J0.132
N392 X22.023 Y31.613 Z-1.781 I-0.212 J-0.132
N393 X22.448 Y31.877 Z-1.808 I0.212 J0.132
N394 X22.023 Y31.613 Z-1.835 I-0.212 J-0.132
N395 X22.448 Y31.877 Z-1.863 I0.212 J0.132
N396 X22.023 Y31.613 Z-1.89 I-0.212 J-0.132
N397 X22.448 Y31.877 Z-1.918 I0.212 J0.132
N398 X22.023 Y31.613 Z-1.945 I-0.212 J-0.132
N399 X22.448 Y31.877 Z-1.973 I0.212 J0.132
N400 X22.023 Y31.613 Z-2. I-0.212 J-0.132
N401 X22.448 Y31.877 Z-2.027 I0.212 J0.132
N402 X21.985 Y31.743 Z-2.05 I-0.212 J-0.132
N403 G1 X21.988 Y31.306 F75.
N404 X22.014 Y31.182
N405 X22.075 Y30.769
N406 X22.098 Y30.551
N407 X22.1 Y26.034
N408 X22.133 Y26.
N409 X22.466
N410 X22.5 Y26.034
N411 X22.502 Y30.551
N412 X22.553 Y30.988
N413 X22.615 Y31.337
N414 Y31.774
N415 X22.539 Y32.211
N416 X22.502 Y32.56
N417 X22.5 Y35.006
N418 X22.466 Y35.05
N419 X22.133
N420 X22.1 Y35.006
N421 X22.099 Y32.56
N422 X22.04 Y32.064
N423 X21.985 Y31.774
N424 Y31.743
N425 G3 X22. Y31.669 Z-2.035 I0.2 J0.001
N426 X22.034 Y31.614 Z-1.991 I0.185 J0.076
N427 G1 X22.066 Y31.584 Z-1.927
N428 X22.078 Y31.576 Z-1.85
N429 G0 Z3.01
N430 X22.33 Y35.05
N431 G1 Z2.3 F50.
N432 G18 G3 X22.137 Z2.1 I-0.2 K0. F100.
N433 G1 X22.133
N434 X22.1 Y35.006 Z2.098
N435 Y28.09 Z1.856
N436 X22.133 Y28.05 Z1.855
N437 X22.466 Z1.843
N438 X22.5 Y28.09 Z1.841
N439 Y35.006 Z1.6
N440 X22.466 Y35.05 Z1.598
N441 X22.133 Z1.586
N442 X22.1 Y35.006 Z1.584
N443 Y28.09 Z1.343
N444 X22.133 Y28.05 Z1.341
N445 X22.466 Z1.329
N446 X22.5 Y28.09 Z1.327
N447 Y35.006 Z1.086
N448 X22.466 Y35.05 Z1.084
N449 X22.133 Z1.072
N450 X22.1 Y35.006 Z1.07
N451 Y28.09 Z0.829
N452 X22.133 Y28.05 Z0.827
N453 X22.466 Z0.815
N454 X22.5 Y28.09 Z0.814
N455 Y35.006 Z0.572
N456 X22.466 Y35.05 Z0.57
N457 X22.133 Z0.559
N458 X22.1 Y35.006 Z0.557
N459 Y28.09 Z0.315
N460 X22.133 Y28.05 Z0.313
N461 X22.466 Z0.302
N462 X22.5 Y28.09 Z0.3
N463 Y35.006 Z0.058
N464 X22.466 Y35.05 Z0.056
N465 X22.133 Z0.045
N466 X22.1 Y35.006 Z0.043
N467 Y28.09 Z-0.199
N468 X22.133 Y28.05 Z-0.201
N469 X22.466 Z-0.212
N470 X22.5 Y28.09 Z-0.214
N471 Y35.006 Z-0.455
N472 X22.466 Y35.05 Z-0.457
N473 X22.133 Z-0.469
N474 X22.1 Y35.006 Z-0.471
N475 Y28.09 Z-0.712
N476 X22.133 Y28.05 Z-0.714
N477 X22.466 Z-0.726
N478 X22.5 Y28.09 Z-0.728
N479 Y35.006 Z-0.969
N480 X22.466 Y35.05 Z-0.971
N481 X22.133 Z-0.983
N482 X22.1 Y35.006 Z-0.985
N483 Y28.09 Z-1.226
N484 X22.133 Y28.05 Z-1.228
N485 X22.466 Z-1.24
N486 X22.5 Y28.09 Z-1.242
N487 Y35.006 Z-1.483
N488 X22.466 Y35.05 Z-1.485
N489 X22.133 Z-1.497
N490 X22.1 Y35.006 Z-1.499
N491 Y28.09 Z-1.74
N492 X22.133 Y28.05 Z-1.742
N493 X22.466 Z-1.753
N494 X22.5 Y28.09 Z-1.755
N495 Y35.006 Z-1.997
N496 X22.466 Y35.05 Z-1.999
N497 X22.133 Z-2.01
N498 X22.1 Y35.006 Z-2.012
N499 Y28.09 Z-2.254
N500 X22.133 Y28.05 Z-2.256
N501 X22.466 Z-2.267
N502 X22.5 Y28.09 Z-2.269
N503 Y35.006 Z-2.511
N504 X22.466 Y35.05 Z-2.513
N505 X22.133 Z-2.524
N506 X22.1 Y35.006 Z-2.526
N507 Y28.09 Z-2.768
N508 X22.133 Y28.05 Z-2.769
N509 X22.466 Z-2.781
N510 X22.5 Y28.09 Z-2.783
N511 Y35.006 Z-3.024
N512 X22.466 Y35.05 Z-3.026
N513 X22.133 Z-3.038
N514 X22.1 Y35.006 Z-3.04
N515 Y28.09 Z-3.281
N516 X22.133 Y28.05 Z-3.283
N517 X22.466 Z-3.295
N518 X22.5 Y28.09 Z-3.297
N519 Y35.006 Z-3.538
N520 X22.466 Y35.05 Z-3.54
N521 X22.133 Z-3.552
N522 X22.1 Y35.006 Z-3.554
N523 Y28.09 Z-3.795
N524 X22.133 Y28.05 Z-3.797
N525 X22.466 Z-3.809
N526 X22.5 Y28.09 Z-3.81
N527 Y34.95 Z-4.05
N528 Y35.006 F75.
N529 X22.466 Y35.05
N530 X22.133
N531 X22.1 Y35.006
N532 Y28.09
N533 X22.133 Y28.05
N534 X22.466
N535 X22.5 Y28.09
N536 Y34.95
N537 Z-3.85
N538 G0 Z3.01
N539 X22.1 Y33.68
N540 G1 Z2.3 F50.
N541 G19 G2 Y33.487 Z2.1 J-0.2 K0. F100.
N542 G1 Y28.09 Z1.912
N543 X22.133 Y28.05 Z1.91
N544 X22.466 Z1.898
N545 X22.5 Y28.09 Z1.896
N546 Y35.006 Z1.655
N547 X22.466 Y35.05 Z1.653
N548 X22.133 Z1.641
N549 X22.1 Y35.006 Z1.639
N550 Y28.09 Z1.398
N551 X22.133 Y28.05 Z1.396
N552 X22.466 Z1.384
N553 X22.5 Y28.09 Z1.383
N554 Y35.006 Z1.141
N555 X22.466 Y35.05 Z1.139
N556 X22.133 Z1.127
N557 X22.1 Y35.006 Z1.125
N558 Y28.09 Z0.884
N559 X22.133 Y28.05 Z0.882
N560 X22.466 Z0.871
N561 X22.5 Y28.09 Z0.869
N562 Y35.006 Z0.627
N563 X22.466 Y35.05 Z0.625
N564 X22.133 Z0.614
N565 X22.1 Y35.006 Z0.612
N566 Y28.09 Z0.37
N567 X22.133 Y28.05 Z0.368
N568 X22.466 Z0.357
N569 X22.5 Y28.09 Z0.355
N570 Y35.006 Z0.113
N571 X22.466 Y35.05 Z0.111
N572 X22.133 Z0.1
N573 X22.1 Y35.006 Z0.098
N574 Y28.09 Z-0.144
N575 X22.133 Y28.05 Z-0.145
N576 X22.466 Z-0.157
N577 X22.5 Y28.09 Z-0.159
N578 Y35.006 Z-0.4
N579 X22.466 Y35.05 Z-0.402
N580 X22.133 Z-0.414
N581 X22.1 Y35.006 Z-0.416
N582 Y28.09 Z-0.657
N583 X22.133 Y28.05 Z-0.659
N584 X22.466 Z-0.671
N585 X22.5 Y28.09 Z-0.673
N586 Y35.006 Z-0.914
N587 X22.466 Y35.05 Z-0.916
N588 X22.133 Z-0.928
N589 X22.1 Y35.006 Z-0.93
N590 Y28.09 Z-1.171
N591 X22.133 Y28.05 Z-1.173
N592 X22.466 Z-1.185
N593 X22.5 Y28.09 Z-1.186
N594 Y35.006 Z-1.428
N595 X22.466 Y35.05 Z-1.43
N596 X22.133 Z-1.441
N597 X22.1 Y35.006 Z-1.443
N598 Y28.09 Z-1.685
N599 X22.133 Y28.05 Z-1.687
N600 X22.466 Z-1.698
N601 X22.5 Y28.09 Z-1.7
N602 Y35.006 Z-1.942
N603 X22.466 Y35.05 Z-1.944
N604 X22.133 Z-1.955
N605 X22.1 Y35.006 Z-1.957
N606 Y28.09 Z-2.199
N607 X22.133 Y28.05 Z-2.201
N608 X22.466 Z-2.212
N609 X22.5 Y28.09 Z-2.214
N610 Y35.006 Z-2.455
N611 X22.466 Y35.05 Z-2.457
N612 X22.133 Z-2.469
N613 X22.1 Y35.006 Z-2.471
N614 Y28.09 Z-2.712
N615 X22.133 Y28.05 Z-2.714
N616 X22.466 Z-2.726
N617 X22.5 Y28.09 Z-2.728
N618 Y35.006 Z-2.969
N619 X22.466 Y35.05 Z-2.971
N620 X22.133 Z-2.983
N621 X22.1 Y35.006 Z-2.985
N622 Y28.09 Z-3.226
N623 X22.133 Y28.05 Z-3.228
N624 X22.466 Z-3.24
N625 X22.5 Y28.09 Z-3.242
N626 Y35.006 Z-3.483
N627 X22.466 Y35.05 Z-3.485
N628 X22.133 Z-3.497
N629 X22.1 Y35.006 Z-3.499
N630 Y28.09 Z-3.74
N631 X22.133 Y28.05 Z-3.742
N632 X22.466 Z-3.753
N633 X22.5 Y28.09 Z-3.755
N634 Y35.006 Z-3.997
N635 X22.466 Y35.05 Z-3.999
N636 X22.133 Z-4.01
N637 X22.1 Y35.006 Z-4.012
N638 Y28.09 Z-4.254
N639 X22.133 Y28.05 Z-4.256
N640 X22.466 Z-4.267
N641 X22.5 Y28.09 Z-4.269
N642 Y35.006 Z-4.511
N643 X22.466 Y35.05 Z-4.513
N644 X22.133 Z-4.524
N645 X22.1 Y35.006 Z-4.526
N646 Y28.09 Z-4.768
N647 X22.133 Y28.05 Z-4.769
N648 X22.466 Z-4.781
N649 X22.5 Y28.09 Z-4.783
N650 Y35.006 Z-5.024
N651 X22.466 Y35.05 Z-5.026
N652 X22.133 Z-5.038
N653 X22.1 Y35.006 Z-5.04
N654 Y28.09 Z-5.281
N655 X22.133 Y28.05 Z-5.283
N656 X22.466 Z-5.295
N657 X22.5 Y28.09 Z-5.297
N658 Y35.006 Z-5.538
N659 X22.466 Y35.05 Z-5.54
N660 X22.133 Z-5.552
N661 X22.1 Y35.006 Z-5.554
N662 Y28.09 Z-5.795
N663 X22.133 Y28.05 Z-5.797
N664 X22.466 Z-5.809
N665 X22.5 Y28.09 Z-5.81
N666 Y34.95 Z-6.05
N667 Y35.006 F75.
N668 X22.466 Y35.05
N669 X22.133
N670 X22.1 Y35.006
N671 Y28.09
N672 X22.133 Y28.05
N673 X22.466
N674 X22.5 Y28.09
N675 Y34.95
N676 Z-5.85
N677 G0 Z3.01
N678 X22.1 Y30.669
N679 G1 Z2.3 F50.
N680 G2 Y30.476 Z2.1 J-0.2 K0. F100.
N681 G1 Y28.09 Z2.017
N682 X22.133 Y28.05 Z2.015
N683 X22.466 Z2.003
N684 X22.5 Y28.09 Z2.001
N685 Y35.006 Z1.76
N686 X22.466 Y35.05 Z1.758
N687 X22.133 Z1.746
N688 X22.1 Y35.006 Z1.744
N689 Y28.09 Z1.503
N690 X22.133 Y28.05 Z1.501
N691 X22.466 Z1.489
N692 X22.5 Y28.09 Z1.488
N693 Y35.006 Z1.246
N694 X22.466 Y35.05 Z1.244
N695 X22.133 Z1.233
N696 X22.1 Y35.006 Z1.231
N697 Y28.09 Z0.989
N698 X22.133 Y28.05 Z0.987
N699 X22.466 Z0.976
N700 X22.5 Y28.09 Z0.974
N701 Y35.006 Z0.732
N702 X22.466 Y35.05 Z0.73
N703 X22.133 Z0.719
N704 X22.1 Y35.006 Z0.717
N705 Y28.09 Z0.475
N706 X22.133 Y28.05 Z0.474
N707 X22.466 Z0.462
N708 X22.5 Y28.09 Z0.46
N709 Y35.006 Z0.219
N710 X22.466 Y35.05 Z0.217
N711 X22.133 Z0.205
N712 X22.1 Y35.006 Z0.203
N713 Y28.09 Z-0.038
N714 X22.133 Y28.05 Z-0.04
N715 X22.466 Z-0.052
N716 X22.5 Y28.09 Z-0.054
N717 Y35.006 Z-0.295
N718 X22.466 Y35.05 Z-0.297
N719 X22.133 Z-0.309
N720 X22.1 Y35.006 Z-0.311
N721 Y28.09 Z-0.552
N722 X22.133 Y28.05 Z-0.554
N723 X22.466 Z-0.566
N724 X22.5 Y28.09 Z-0.567
N725 Y35.006 Z-0.809
N726 X22.466 Y35.05 Z-0.811
N727 X22.133 Z-0.823
N728 X22.1 Y35.006 Z-0.825
N729 Y28.09 Z-1.066
N730 X22.133 Y28.05 Z-1.068
N731 X22.466 Z-1.079
N732 X22.5 Y28.09 Z-1.081
N733 Y35.006 Z-1.323
N734 X22.466 Y35.05 Z-1.325
N735 X22.133 Z-1.336
N736 X22.1 Y35.006 Z-1.338
N737 Y28.09 Z-1.58
N738 X22.133 Y28.05 Z-1.582
N739 X22.466 Z-1.593
N740 X22.5 Y28.09 Z-1.595
N741 Y35.006 Z-1.837
N742 X22.466 Y35.05 Z-1.839
N743 X22.133 Z-1.85
N744 X22.1 Y35.006 Z-1.852
N745 Y28.09 Z-2.094
N746 X22.133 Y28.05 Z-2.095
N747 X22.466 Z-2.107
N748 X22.5 Y28.09 Z-2.109
N749 Y35.006 Z-2.35
N750 X22.466 Y35.05 Z-2.352
N751 X22.133 Z-2.364
N752 X22.1 Y35.006 Z-2.366
N753 Y28.09 Z-2.607
N754 X22.133 Y28.05 Z-2.609
N755 X22.466 Z-2.621
N756 X22.5 Y28.09 Z-2.623
N757 Y35.006 Z-2.864
N758 X22.466 Y35.05 Z-2.866
N759 X22.133 Z-2.878
N760 X22.1 Y35.006 Z-2.88
N761 Y28.09 Z-3.121
N762 X22.133 Y28.05 Z-3.123
N763 X22.466 Z-3.135
N764 X22.5 Y28.09 Z-3.136
N765 Y35.006 Z-3.378
N766 X22.466 Y35.05 Z-3.38
N767 X22.133 Z-3.391
N768 X22.1 Y35.006 Z-3.393
N769 Y28.09 Z-3.635
N770 X22.133 Y28.05 Z-3.637
N771 X22.466 Z-3.648
N772 X22.5 Y28.09 Z-3.65
N773 Y35.006 Z-3.892
N774 X22.466 Y35.05 Z-3.894
N775 X22.133 Z-3.905
N776 X22.1 Y35.006 Z-3.907
N777 Y28.09 Z-4.149
N778 X22.133 Y28.05 Z-4.151
N779 X22.466 Z-4.162
N780 X22.5 Y28.09 Z-4.164
N781 Y35.006 Z-4.405
N782 X22.466 Y35.05 Z-4.407
N783 X22.133 Z-4.419
N784 X22.1 Y35.006 Z-4.421
N785 Y28.09 Z-4.662
N786 X22.133 Y28.05 Z-4.664
N787 X22.466 Z-4.676
N788 X22.5 Y28.09 Z-4.678
N789 Y35.006 Z-4.919
N790 X22.466 Y35.05 Z-4.921
N791 X22.133 Z-4.933
N792 X22.1 Y35.006 Z-4.935
N793 Y28.09 Z-5.176
N794 X22.133 Y28.05 Z-5.178
N795 X22.466 Z-5.19
N796 X22.5 Y28.09 Z-5.192
N797 Y35.006 Z-5.433
N798 X22.466 Y35.05 Z-5.435
N799 X22.133 Z-5.447
N800 X22.1 Y35.006 Z-5.449
N801 Y28.09 Z-5.69
N802 X22.133 Y28.05 Z-5.692
N803 X22.466 Z-5.703
N804 X22.5 Y28.09 Z-5.705
N805 Y35.006 Z-5.947
N806 X22.466 Y35.05 Z-5.949
N807 X22.133 Z-5.96
N808 X22.1 Y35.006 Z-5.962
N809 Y28.09 Z-6.204
N810 X22.133 Y28.05 Z-6.206
N811 X22.466 Z-6.217
N812 X22.5 Y28.09 Z-6.219
N813 Y35.006 Z-6.461
N814 X22.466 Y35.05 Z-6.463
N815 X22.133 Z-6.474
N816 X22.1 Y35.006 Z-6.476
N817 Y28.09 Z-6.718
N818 X22.133 Y28.05 Z-6.719
N819 X22.466 Z-6.731
N820 X22.5 Y28.09 Z-6.733
N821 Y35.006 Z-6.974
N822 X22.466 Y35.05 Z-6.976
N823 X22.133 Z-6.988
N824 X22.1 Y35.006 Z-6.99
N825 Y28.09 Z-7.231
N826 X22.133 Y28.05 Z-7.233
N827 X22.466 Z-7.245
N828 X22.5 Y28.09 Z-7.247
N829 Y35.006 Z-7.488
N830 X22.466 Y35.05 Z-7.49
N831 X22.133 Z-7.502
N832 X22.1 Y35.006 Z-7.504
N833 Y28.09 Z-7.745
N834 X22.133 Y28.05 Z-7.747
N835 X22.466 Z-7.759
N836 X22.5 Y28.09 Z-7.76
N837 Y34.95 Z-8.
N838 Y35.006 F75.
N839 X22.466 Y35.05
N840 X22.133
N841 X22.1 Y35.006
N842 Y28.09
N843 X22.133 Y28.05
N844 X22.466
N845 X22.5 Y28.09
N846 Y34.95
N847 Z-7.8
N848 G0 Z3.01
N849 X22.384 Y16.131
N850 G1 Z2.3 F50.
N851 X22.402 Y16.133 Z2.216 F100.
N852 G17 G3 X22.452 Y16.148 Z2.148 I-0.046 J0.246
N853 X22.516 Y16.187 Z2.107 I-0.095 J0.231
N854 G1 X22.55 Y16.22 Z2.1
N855 G3 X22.164 Y16.538 Z2.073 I-0.193 J0.159
N856 X22.55 Y16.22 Z2.045 I0.193 J-0.159
N857 X22.164 Y16.538 Z2.018 I-0.193 J0.159
N858 X22.55 Y16.22 Z1.99 I0.193 J-0.159
N859 X22.164 Y16.538 Z1.963 I-0.193 J0.159
N860 X22.55 Y16.22 Z1.935 I0.193 J-0.159
N861 X22.164 Y16.538 Z1.908 I-0.193 J0.159
N862 X22.55 Y16.22 Z1.881 I0.193 J-0.159
N863 X22.164 Y16.538 Z1.853 I-0.193 J0.159
N864 X22.55 Y16.22 Z1.826 I0.193 J-0.159
N865 X22.164 Y16.538 Z1.798 I-0.193 J0.159
N866 X22.55 Y16.22 Z1.771 I0.193 J-0.159
N867 X22.164 Y16.538 Z1.743 I-0.193 J0.159
N868 X22.55 Y16.22 Z1.716 I0.193 J-0.159
N869 X22.164 Y16.538 Z1.689 I-0.193 J0.159
N870 X22.55 Y16.22 Z1.661 I0.193 J-0.159
N871 X22.164 Y16.538 Z1.634 I-0.193 J0.159
N872 X22.55 Y16.22 Z1.606 I0.193 J-0.159
N873 X22.164 Y16.538 Z1.579 I-0.193 J0.159
N874 X22.55 Y16.22 Z1.551 I0.193 J-0.159
N875 X22.164 Y16.538 Z1.524 I-0.193 J0.159
N876 X22.55 Y16.22 Z1.497 I0.193 J-0.159
N877 X22.164 Y16.538 Z1.469 I-0.193 J0.159
N878 X22.55 Y16.22 Z1.442 I0.193 J-0.159
N879 X22.164 Y16.538 Z1.414 I-0.193 J0.159
N880 X22.55 Y16.22 Z1.387 I0.193 J-0.159
N881 X22.164 Y16.538 Z1.359 I-0.193 J0.159
N882 X22.55 Y16.22 Z1.332 I0.193 J-0.159
N883 X22.164 Y16.538 Z1.305 I-0.193 J0.159
N884 X22.55 Y16.22 Z1.277 I0.193 J-0.159
N885 X22.164 Y16.538 Z1.25 I-0.193 J0.159
N886 X22.55 Y16.22 Z1.222 I0.193 J-0.159
N887 X22.164 Y16.538 Z1.195 I-0.193 J0.159
N888 X22.55 Y16.22 Z1.167 I0.193 J-0.159
N889 X22.164 Y16.538 Z1.14 I-0.193 J0.159
N890 X22.55 Y16.22 Z1.113 I0.193 J-0.159
N891 X22.164 Y16.538 Z1.085 I-0.193 J0.159
N892 X22.55 Y16.22 Z1.058 I0.193 J-0.159
N893 X22.164 Y16.538 Z1.03 I-0.193 J0.159
N894 X22.55 Y16.22 Z1.003 I0.193 J-0.159
N895 X22.164 Y16.538 Z0.976 I-0.193 J0.159
N896 X22.55 Y16.22 Z0.948 I0.193 J-0.159
N897 X22.164 Y16.538 Z0.921 I-0.193 J0.159
N898 X22.55 Y16.22 Z0.893 I0.193 J-0.159
N899 X22.164 Y16.538 Z0.866 I-0.193 J0.159
N900 X22.55 Y16.22 Z0.838 I0.193 J-0.159
N901 X22.164 Y16.538 Z0.811 I-0.193 J0.159
N902 X22.55 Y16.22 Z0.784 I0.193 J-0.159
N903 X22.164 Y16.538 Z0.756 I-0.193 J0.159
N904 X22.55 Y16.22 Z0.729 I0.193 J-0.159
N905 X22.164 Y16.538 Z0.701 I-0.193 J0.159
N906 X22.55 Y16.22 Z0.674 I0.193 J-0.159
N907 X22.164 Y16.538 Z0.646 I-0.193 J0.159
N908 X22.55 Y16.22 Z0.619 I0.193 J-0.159
N909 X22.164 Y16.538 Z0.592 I-0.193 J0.159
N910 X22.55 Y16.22 Z0.564 I0.193 J-0.159
N911 X22.164 Y16.538 Z0.537 I-0.193 J0.159
N912 X22.55 Y16.22 Z0.509 I0.193 J-0.159
N913 X22.164 Y16.538 Z0.482 I-0.193 J0.159
N914 X22.55 Y16.22 Z0.454 I0.193 J-0.159
N915 X22.164 Y16.538 Z0.427 I-0.193 J0.159
N916 X22.55 Y16.22 Z0.4 I0.193 J-0.159
N917 X22.164 Y16.538 Z0.372 I-0.193 J0.159
N918 X22.55 Y16.22 Z0.345 I0.193 J-0.159
N919 X22.164 Y16.538 Z0.317 I-0.193 J0.159
N920 X22.55 Y16.22 Z0.29 I0.193 J-0.159
N921 X22.164 Y16.538 Z0.262 I-0.193 J0.159
N922 X22.55 Y16.22 Z0.235 I0.193 J-0.159
N923 X22.164 Y16.538 Z0.208 I-0.193 J0.159
N924 X22.55 Y16.22 Z0.18 I0.193 J-0.159
N925 X22.164 Y16.538 Z0.153 I-0.193 J0.159
N926 X22.55 Y16.22 Z0.125 I0.193 J-0.159
N927 X22.164 Y16.538 Z0.098 I-0.193 J0.159
N928 X22.55 Y16.22 Z0.07 I0.193 J-0.159
N929 X22.164 Y16.538 Z0.043 I-0.193 J0.159
N930 X22.55 Y16.22 Z0.016 I0.193 J-0.159
N931 X22.164 Y16.538 Z-0.012 I-0.193 J0.159
N932 X22.55 Y16.22 Z-0.039 I0.193 J-0.159
N933 X22.164 Y16.538 Z-0.067 I-0.193 J0.159
N934 X22.55 Y16.22 Z-0.094 I0.193 J-0.159
N935 X22.164 Y16.538 Z-0.122 I-0.193 J0.159
N936 X22.55 Y16.22 Z-0.149 I0.193 J-0.159
N937 X22.164 Y16.538 Z-0.176 I-0.193 J0.159
N938 X22.55 Y16.22 Z-0.204 I0.193 J-0.159
N939 X22.164 Y16.538 Z-0.231 I-0.193 J0.159
N940 X22.55 Y16.22 Z-0.259 I0.193 J-0.159
N941 X22.164 Y16.538 Z-0.286 I-0.193 J0.159
N942 X22.55 Y16.22 Z-0.314 I0.193 J-0.159
N943 X22.164 Y16.538 Z-0.341 I-0.193 J0.159
N944 X22.55 Y16.22 Z-0.368 I0.193 J-0.159
N945 X22.164 Y16.538 Z-0.396 I-0.193 J0.159
N946 X22.55 Y16.22 Z-0.423 I0.193 J-0.159
N947 X22.164 Y16.538 Z-0.451 I-0.193 J0.159
N948 X22.55 Y16.22 Z-0.478 I0.193 J-0.159
N949 X22.164 Y16.538 Z-0.506 I-0.193 J0.159
N950 X22.55 Y16.22 Z-0.533 I0.193 J-0.159
N951 X22.164 Y16.538 Z-0.56 I-0.193 J0.159
N952 X22.55 Y16.22 Z-0.588 I0.193 J-0.159
N953 X22.164 Y16.538 Z-0.615 I-0.193 J0.159
N954 X22.55 Y16.22 Z-0.643 I0.193 J-0.159
N955 X22.164 Y16.538 Z-0.67 I-0.193 J0.159
N956 X22.55 Y16.22 Z-0.698 I0.193 J-0.159
N957 X22.164 Y16.538 Z-0.725 I-0.193 J0.159
N958 X22.55 Y16.22 Z-0.752 I0.193 J-0.159
N959 X22.164 Y16.538 Z-0.78 I-0.193 J0.159
N960 X22.55 Y16.22 Z-0.807 I0.193 J-0.159
N961 X22.164 Y16.538 Z-0.835 I-0.193 J0.159
N962 X22.55 Y16.22 Z-0.862 I0.193 J-0.159
N963 X22.164 Y16.538 Z-0.89 I-0.193 J0.159
N964 X22.55 Y16.22 Z-0.917 I0.193 J-0.159
N965 X22.164 Y16.538 Z-0.944 I-0.193 J0.159
N966 X22.55 Y16.22 Z-0.972 I0.193 J-0.159
N967 X22.164 Y16.538 Z-0.999 I-0.193 J0.159
N968 X22.516 Y16.187 Z-1.025 I0.193 J-0.159
N969 G2 X22.59 Y16.242 I0.615 J-0.739 F75.
N970 G1 X22.674 Y16.299
N971 G3 X22.669 Y16.609 I-0.104 J0.153
N972 G1 X22.585 Y16.663
N973 G2 X22.509 Y16.72 I0.304 J0.476
N974 G3 X22.093 Y16.726 I-0.212 J-0.234
N975 G2 X22.017 Y16.663 I-2.091 J2.448
N976 X21.935 Y16.608 I-0.375 J0.467
N977 G3 Y16.292 I0.089 J-0.158
N978 G2 X22.016 Y16.238 I-0.29 J-0.518
N979 X22.091 Y16.175 I-1.732 J-2.16
N980 G3 X22.503 I0.206 J0.239
N981 G1 X22.516 Y16.187
N982 G2 X23.115 Y16.182 I0.296 J-0.356
N983 G3 X23.676 Y15.974 I0.561 J0.653
N984 G1 X28.964
N985 X29. Y16.015
N986 Y16.882
N987 X28.964 Y16.926
N988 X23.404 Y16.931
N989 X23.23 Y16.964
N990 X23.057 Y17.032
N991 X22.888 Y17.139
N992 X22.765 Y17.254
N993 X22.671 Y17.376
N994 X22.584 Y17.536
N995 X22.527 Y17.711
N996 X22.502 Y17.886
N997 X22.5 Y21.966
N998 X22.466 Y22.
N999 X22.133
N1000 X22.1 Y21.966
N1001 X22.099 Y17.886
N1002 X22.074 Y17.711
N1003 X22.014 Y17.532
N1004 X21.919 Y17.359
N1005 X21.813 Y17.23
N1006 X21.667 Y17.105
N1007 X21.493 Y17.008
N1008 X21.319 Y16.951
N1009 X21.146 Y16.927
N1010 X17.893 Y16.926
N1011 X17.85 Y16.882
N1012 Y16.015
N1013 X17.893 Y15.974
N1014 X18.021
N1015 X21.146 Y15.973
N1016 X21.319 Y15.949
N1017 X21.493 Y15.892
N1018 X21.667 Y15.795
N1019 X21.818 Y15.664
N1020 X21.928 Y15.527
N1021 X22.014 Y15.368
N1022 X22.063 Y15.229
N1023 X22.091 Y15.091
N1024 X22.1 Y14.916
N1025 Y12.994
N1026 X22.133 Y12.95
N1027 X22.466
N1028 X22.5 Y12.994
N1029 X22.501 Y15.003
N1030 X22.525 Y15.178
N1031 X22.58 Y15.353
N1032 X22.661 Y15.509
N1033 X22.759 Y15.639
N1034 X22.872 Y15.748
N1035 X22.992 Y15.832
N1036 X23.144 Y15.907
N1037 X23.317 Y15.957
N1038 X23.491 Y15.974
N1039 X23.676
N1040 G3 X23.751 Y15.988 Z-1.01 I0. J0.2
N1041 X23.806 Y16.022 Z-0.966 I-0.075 J0.186
N1042 G1 X23.836 Y16.053 Z-0.902
N1043 X23.844 Y16.066 Z-0.825
N1044 G0 Z3.01
N1045 X22.479 Y16.571
N1046 G1 Z1.409 F50.
N1047 X22.482 Y16.585 Z1.334 F100.
N1048 X22.485 Y16.626 Z1.27
N1049 G3 X22.477 Y16.688 Z1.226 I-0.25 J-0.001
N1050 X22.448 Y16.756 Z1.209 I-0.242 J-0.063
N1051 X22.022 Y16.495 Z1.182 I-0.213 J-0.131
N1052 X22.448 Y16.756 Z1.154 I0.213 J0.131
N1053 X22.022 Y16.495 Z1.127 I-0.213 J-0.131
N1054 X22.448 Y16.756 Z1.099 I0.213 J0.131
N1055 X22.022 Y16.495 Z1.072 I-0.213 J-0.131
N1056 X22.448 Y16.756 Z1.044 I0.213 J0.131
N1057 X22.022 Y16.495 Z1.017 I-0.213 J-0.131
N1058 X22.448 Y16.756 Z0.99 I0.213 J0.131
N1059 X22.022 Y16.495 Z0.962 I-0.213 J-0.131
N1060 X22.448 Y16.756 Z0.935 I0.213 J0.131
N1061 X22.022 Y16.495 Z0.907 I-0.213 J-0.131
N1062 X22.448 Y16.756 Z0.88 I0.213 J0.131
N1063 X22.022 Y16.495 Z0.852 I-0.213 J-0.131
N1064 X22.448 Y16.756 Z0.825 I0.213 J0.131
N1065 X22.022 Y16.495 Z0.798 I-0.213 J-0.131
N1066 X22.448 Y16.756 Z0.77 I0.213 J0.131
N1067 X22.022 Y16.495 Z0.743 I-0.213 J-0.131
N1068 X22.448 Y16.756 Z0.715 I0.213 J0.131
N1069 X22.022 Y16.495 Z0.688 I-0.213 J-0.131
N1070 X22.448 Y16.756 Z0.66 I0.213 J0.131
N1071 X22.022 Y16.495 Z0.633 I-0.213 J-0.131
N1072 X22.448 Y16.756 Z0.606 I0.213 J0.131
N1073 X22.022 Y16.495 Z0.578 I-0.213 J-0.131
N1074 X22.448 Y16.756 Z0.551 I0.213 J0.131
N1075 X22.022 Y16.495 Z0.523 I-0.213 J-0.131
N1076 X22.448 Y16.756 Z0.496 I0.213 J0.131
N1077 X22.022 Y16.495 Z0.468 I-0.213 J-0.131
N1078 X22.448 Y16.756 Z0.441 I0.213 J0.131
N1079 X22.022 Y16.495 Z0.414 I-0.213 J-0.131
N1080 X22.448 Y16.756 Z0.386 I0.213 J0.131
N1081 X22.022 Y16.495 Z0.359 I-0.213 J-0.131
N1082 X22.448 Y16.756 Z0.331 I0.213 J0.131
N1083 X22.022 Y16.495 Z0.304 I-0.213 J-0.131
N1084 X22.448 Y16.756 Z0.276 I0.213 J0.131
N1085 X22.022 Y16.495 Z0.249 I-0.213 J-0.131
N1086 X22.448 Y16.756 Z0.222 I0.213 J0.131
N1087 X22.022 Y16.495 Z0.194 I-0.213 J-0.131
N1088 X22.448 Y16.756 Z0.167 I0.213 J0.131
N1089 X22.022 Y16.495 Z0.139 I-0.213 J-0.131
N1090 X22.448 Y16.756 Z0.112 I0.213 J0.131
N1091 X22.022 Y16.495 Z0.084 I-0.213 J-0.131
N1092 X22.448 Y16.756 Z0.057 I0.213 J0.131
N1093 X22.022 Y16.495 Z0.03 I-0.213 J-0.131
N1094 X22.448 Y16.756 Z0.002 I0.213 J0.131
N1095 X22.022 Y16.495 Z-0.025 I-0.213 J-0.131
N1096 X22.448 Y16.756 Z-0.053 I0.213 J0.131
N1097 X22.022 Y16.495 Z-0.08 I-0.213 J-0.131
N1098 X22.448 Y16.756 Z-0.108 I0.213 J0.131
N1099 X22.022 Y16.495 Z-0.135 I-0.213 J-0.131
N1100 X22.448 Y16.756 Z-0.162 I0.213 J0.131
N1101 X22.022 Y16.495 Z-0.19 I-0.213 J-0.131
N1102 X22.448 Y16.756 Z-0.217 I0.213 J0.131
N1103 X22.022 Y16.495 Z-0.245 I-0.213 J-0.131
N1104 X22.448 Y16.756 Z-0.272 I0.213 J0.131
N1105 X22.022 Y16.495 Z-0.299 I-0.213 J-0.131
N1106 X22.448 Y16.756 Z-0.327 I0.213 J0.131
N1107 X22.022 Y16.495 Z-0.354 I-0.213 J-0.131
N1108 X22.448 Y16.756 Z-0.382 I0.213 J0.131
N1109 X22.022 Y16.495 Z-0.409 I-0.213 J-0.131
N1110 X22.448 Y16.756 Z-0.437 I0.213 J0.131
N1111 X22.022 Y16.495 Z-0.464 I-0.213 J-0.131
N1112 X22.448 Y16.756 Z-0.491 I0.213 J0.131
N1113 X22.022 Y16.495 Z-0.519 I-0.213 J-0.131
N1114 X22.448 Y16.756 Z-0.546 I0.213 J0.131
N1115 X22.022 Y16.495 Z-0.574 I-0.213 J-0.131
N1116 X22.448 Y16.756 Z-0.601 I0.213 J0.131
N1117 X22.022 Y16.495 Z-0.629 I-0.213 J-0.131
N1118 X22.448 Y16.756 Z-0.656 I0.213 J0.131
N1119 X22.022 Y16.495 Z-0.683 I-0.213 J-0.131
N1120 X22.448 Y16.756 Z-0.711 I0.213 J0.131
N1121 X22.022 Y16.495 Z-0.738 I-0.213 J-0.131
N1122 X22.448 Y16.756 Z-0.766 I0.213 J0.131
N1123 X22.022 Y16.495 Z-0.793 I-0.213 J-0.131
N1124 X22.448 Y16.756 Z-0.821 I0.213 J0.131
N1125 X22.022 Y16.495 Z-0.848 I-0.213 J-0.131
N1126 X22.448 Y16.756 Z-0.875 I0.213 J0.131
N1127 X22.022 Y16.495 Z-0.903 I-0.213 J-0.131
N1128 X22.448 Y16.756 Z-0.93 I0.213 J0.131
N1129 X22.022 Y16.495 Z-0.958 I-0.213 J-0.131
N1130 X22.448 Y16.756 Z-0.985 I0.213 J0.131
N1131 X22.022 Y16.495 Z-1.013 I-0.213 J-0.131
N1132 X22.448 Y16.756 Z-1.04 I0.213 J0.131
N1133 X22.022 Y16.495 Z-1.067 I-0.213 J-0.131
N1134 X22.448 Y16.756 Z-1.095 I0.213 J0.131
N1135 X22.022 Y16.495 Z-1.122 I-0.213 J-0.131
N1136 X22.448 Y16.756 Z-1.15 I0.213 J0.131
N1137 X22.022 Y16.495 Z-1.177 I-0.213 J-0.131
N1138 X22.448 Y16.756 Z-1.205 I0.213 J0.131
N1139 X22.022 Y16.495 Z-1.232 I-0.213 J-0.131
N1140 X22.448 Y16.756 Z-1.259 I0.213 J0.131
N1141 X22.022 Y16.495 Z-1.287 I-0.213 J-0.131
N1142 X22.448 Y16.756 Z-1.314 I0.213 J0.131
N1143 X22.022 Y16.495 Z-1.342 I-0.213 J-0.131
N1144 X22.448 Y16.756 Z-1.369 I0.213 J0.131
N1145 X22.022 Y16.495 Z-1.397 I-0.213 J-0.131
N1146 X22.448 Y16.756 Z-1.424 I0.213 J0.131
N1147 X22.022 Y16.495 Z-1.451 I-0.213 J-0.131
N1148 X22.448 Y16.756 Z-1.479 I0.213 J0.131
N1149 X22.022 Y16.495 Z-1.506 I-0.213 J-0.131
N1150 X22.448 Y16.756 Z-1.534 I0.213 J0.131
N1151 X22.022 Y16.495 Z-1.561 I-0.213 J-0.131
N1152 X22.448 Y16.756 Z-1.589 I0.213 J0.131
N1153 X22.022 Y16.495 Z-1.616 I-0.213 J-0.131
N1154 X22.448 Y16.756 Z-1.643 I0.213 J0.131
N1155 X22.022 Y16.495 Z-1.671 I-0.213 J-0.131
N1156 X22.448 Y16.756 Z-1.698 I0.213 J0.131
N1157 X22.022 Y16.495 Z-1.726 I-0.213 J-0.131
N1158 X22.448 Y16.756 Z-1.753 I0.213 J0.131
N1159 X22.022 Y16.495 Z-1.781 I-0.213 J-0.131
N1160 X22.448 Y16.756 Z-1.808 I0.213 J0.131
N1161 X22.022 Y16.495 Z-1.835 I-0.213 J-0.131
N1162 X22.448 Y16.756 Z-1.863 I0.213 J0.131
N1163 X22.022 Y16.495 Z-1.89 I-0.213 J-0.131
N1164 X22.448 Y16.756 Z-1.918 I0.213 J0.131
N1165 X22.022 Y16.495 Z-1.945 I-0.213 J-0.131
N1166 X22.448 Y16.756 Z-1.973 I0.213 J0.131
N1167 X22.022 Y16.495 Z-2. I-0.213 J-0.131
N1168 X22.448 Y16.756 Z-2.027 I0.213 J0.131
N1169 X21.985 Y16.626 Z-2.05 I-0.213 J-0.131
N1170 G1 Y16.226 F75.
N1171 X22.014 Y16.082
N1172 X22.082 Y15.615
N1173 X22.099 Y15.44
N1174 X22.1 Y12.994
N1175 X22.133 Y12.95
N1176 X22.466
N1177 X22.5 Y12.994
N1178 X22.502 Y15.44
N1179 X22.565 Y15.964
N1180 X22.615 Y16.226
N1181 Y16.663
N1182 X22.553 Y17.012
N1183 X22.502 Y17.449
N1184 X22.5 Y21.966
N1185 X22.466 Y22.
N1186 X22.133
N1187 X22.1 Y21.966
N1188 X22.098 Y17.449
N1189 X22.048 Y17.012
N1190 X21.985 Y16.653
N1191 Y16.626
N1192 G3 X22. Y16.551 Z-2.035 I0.2 J0.
N1193 X22.033 Y16.496 Z-1.991 I0.186 J0.075
N1194 G1 X22.065 Y16.466 Z-1.927
N1195 X22.077 Y16.457 Z-1.85
N1196 G0 Z3.01
N1197 X22.331 Y19.95
N1198 G1 Z2.3 F50.
N1199 G18 G3 X22.138 Z2.1 I-0.2 K0. F100.
N1200 G1 X22.133
N1201 X22.1 Y19.91 Z2.098
N1202 Y12.994 Z1.857
N1203 X22.133 Y12.95 Z1.855
N1204 X22.466 Z1.843
N1205 X22.5 Y12.994 Z1.841
N1206 Y19.91 Z1.599
N1207 X22.466 Y19.95 Z1.598
N1208 X22.133 Z1.586
N1209 X22.1 Y19.91 Z1.584
N1210 Y12.994 Z1.343
N1211 X22.133 Y12.95 Z1.341
N1212 X22.466 Z1.329
N1213 X22.5 Y12.994 Z1.327
N1214 Y19.91 Z1.086
N1215 X22.466 Y19.95 Z1.084
N1216 X22.133 Z1.072
N1217 X22.1 Y19.91 Z1.07
N1218 Y12.994 Z0.829
N1219 X22.133 Y12.95 Z0.827
N1220 X22.466 Z0.815
N1221 X22.5 Y12.994 Z0.813
N1222 Y19.91 Z0.572
N1223 X22.466 Y19.95 Z0.57
N1224 X22.133 Z0.558
N1225 X22.1 Y19.91 Z0.557
N1226 Y12.994 Z0.315
N1227 X22.133 Y12.95 Z0.313
N1228 X22.466 Z0.302
N1229 X22.5 Y12.994 Z0.3
N1230 Y19.91 Z0.058
N1231 X22.466 Y19.95 Z0.056
N1232 X22.133 Z0.045
N1233 X22.1 Y19.91 Z0.043
N1234 Y12.994 Z-0.199
N1235 X22.133 Y12.95 Z-0.201
N1236 X22.466 Z-0.212
N1237 X22.5 Y12.994 Z-0.214
N1238 Y19.91 Z-0.456
N1239 X22.466 Y19.95 Z-0.457
N1240 X22.133 Z-0.469
N1241 X22.1 Y19.91 Z-0.471
N1242 Y12.994 Z-0.712
N1243 X22.133 Y12.95 Z-0.714
N1244 X22.466 Z-0.726
N1245 X22.5 Y12.994 Z-0.728
N1246 Y19.91 Z-0.969
N1247 X22.466 Y19.95 Z-0.971
N1248 X22.133 Z-0.983
N1249 X22.1 Y19.91 Z-0.985
N1250 Y12.994 Z-1.226
N1251 X22.133 Y12.95 Z-1.228
N1252 X22.466 Z-1.24
N1253 X22.5 Y12.994 Z-1.242
N1254 Y19.91 Z-1.483
N1255 X22.466 Y19.95 Z-1.485
N1256 X22.133 Z-1.497
N1257 X22.1 Y19.91 Z-1.498
N1258 Y12.994 Z-1.74
N1259 X22.133 Y12.95 Z-1.742
N1260 X22.466 Z-1.754
N1261 X22.5 Y12.994 Z-1.755
N1262 Y19.91 Z-1.997
N1263 X22.466 Y19.95 Z-1.999
N1264 X22.133 Z-2.01
N1265 X22.1 Y19.91 Z-2.012
N1266 Y12.994 Z-2.254
N1267 X22.133 Y12.95 Z-2.256
N1268 X22.466 Z-2.267
N1269 X22.5 Y12.994 Z-2.269
N1270 Y19.91 Z-2.511
N1271 X22.466 Y19.95 Z-2.513
N1272 X22.133 Z-2.524
N1273 X22.1 Y19.91 Z-2.526
N1274 Y12.994 Z-2.768
N1275 X22.133 Y12.95 Z-2.769
N1276 X22.466 Z-2.781
N1277 X22.5 Y12.994 Z-2.783
N1278 Y19.91 Z-3.025
N1279 X22.466 Y19.95 Z-3.026
N1280 X22.133 Z-3.038
N1281 X22.1 Y19.91 Z-3.04
N1282 Y12.994 Z-3.281
N1283 X22.133 Y12.95 Z-3.283
N1284 X22.466 Z-3.295
N1285 X22.5 Y12.994 Z-3.297
N1286 Y19.91 Z-3.538
N1287 X22.466 Y19.95 Z-3.54
N1288 X22.133 Z-3.552
N1289 X22.1 Y19.91 Z-3.554
N1290 Y12.994 Z-3.795
N1291 X22.133 Y12.95 Z-3.797
N1292 X22.466 Z-3.809
N1293 X22.5 Y12.994 Z-3.811
N1294 Y19.85 Z-4.05
N1295 Y19.91 F75.
N1296 X22.466 Y19.95
N1297 X22.133
N1298 X22.1 Y19.91
N1299 Y12.994
N1300 X22.133 Y12.95
N1301 X22.466
N1302 X22.5 Y12.994
N1303 Y19.85
N1304 Z-3.85
N1305 G0 Z3.01
N1306 X22.1 Y18.582
N1307 G1 Z2.3 F50.
N1308 G19 G2 Y18.389 Z2.1 J-0.2 K0. F100.
N1309 G1 Y12.994 Z1.912
N1310 X22.133 Y12.95 Z1.91
N1311 X22.466 Z1.898
N1312 X22.5 Y12.994 Z1.896
N1313 Y19.91 Z1.655
N1314 X22.466 Y19.95 Z1.653
N1315 X22.133 Z1.641
N1316 X22.1 Y19.91 Z1.639
N1317 Y12.994 Z1.398
N1318 X22.133 Y12.95 Z1.396
N1319 X22.466 Z1.384
N1320 X22.5 Y12.994 Z1.382
N1321 Y19.91 Z1.141
N1322 X22.466 Y19.95 Z1.139
N1323 X22.133 Z1.127
N1324 X22.1 Y19.91 Z1.126
N1325 Y12.994 Z0.884
N1326 X22.133 Y12.95 Z0.882
N1327 X22.466 Z0.871
N1328 X22.5 Y12.994 Z0.869
N1329 Y19.91 Z0.627
N1330 X22.466 Y19.95 Z0.625
N1331 X22.133 Z0.614
N1332 X22.1 Y19.91 Z0.612
N1333 Y12.994 Z0.37
N1334 X22.133 Y12.95 Z0.368
N1335 X22.466 Z0.357
N1336 X22.5 Y12.994 Z0.355
N1337 Y19.91 Z0.113
N1338 X22.466 Y19.95 Z0.111
N1339 X22.133 Z0.1
N1340 X22.1 Y19.91 Z0.098
N1341 Y12.994 Z-0.143
N1342 X22.133 Y12.95 Z-0.145
N1343 X22.466 Z-0.157
N1344 X22.5 Y12.994 Z-0.159
N1345 Y19.91 Z-0.401
N1346 X22.466 Y19.95 Z-0.402
N1347 X22.133 Z-0.414
N1348 X22.1 Y19.91 Z-0.416
N1349 Y12.994 Z-0.657
N1350 X22.133 Y12.95 Z-0.659
N1351 X22.466 Z-0.671
N1352 X22.5 Y12.994 Z-0.673
N1353 Y19.91 Z-0.914
N1354 X22.466 Y19.95 Z-0.916
N1355 X22.133 Z-0.928
N1356 X22.1 Y19.91 Z-0.93
N1357 Y12.994 Z-1.171
N1358 X22.133 Y12.95 Z-1.173
N1359 X22.466 Z-1.185
N1360 X22.5 Y12.994 Z-1.187
N1361 Y19.91 Z-1.428
N1362 X22.466 Y19.95 Z-1.43
N1363 X22.133 Z-1.442
N1364 X22.1 Y19.91 Z-1.443
N1365 Y12.994 Z-1.685
N1366 X22.133 Y12.95 Z-1.687
N1367 X22.466 Z-1.698
N1368 X22.5 Y12.994 Z-1.7
N1369 Y19.91 Z-1.942
N1370 X22.466 Y19.95 Z-1.944
N1371 X22.133 Z-1.955
N1372 X22.1 Y19.91 Z-1.957
N1373 Y12.994 Z-2.199
N1374 X22.133 Y12.95 Z-2.201
N1375 X22.466 Z-2.212
N1376 X22.5 Y12.994 Z-2.214
N1377 Y19.91 Z-2.456
N1378 X22.466 Y19.95 Z-2.457
N1379 X22.133 Z-2.469
N1380 X22.1 Y19.91 Z-2.471
N1381 Y12.994 Z-2.712
N1382 X22.133 Y12.95 Z-2.714
N1383 X22.466 Z-2.726
N1384 X22.5 Y12.994 Z-2.728
N1385 Y19.91 Z-2.969
N1386 X22.466 Y19.95 Z-2.971
N1387 X22.133 Z-2.983
N1388 X22.1 Y19.91 Z-2.985
N1389 Y12.994 Z-3.226
N1390 X22.133 Y12.95 Z-3.228
N1391 X22.466 Z-3.24
N1392 X22.5 Y12.994 Z-3.242
N1393 Y19.91 Z-3.483
N1394 X22.466 Y19.95 Z-3.485
N1395 X22.133 Z-3.497
N1396 X22.1 Y19.91 Z-3.498
N1397 Y12.994 Z-3.74
N1398 X22.133 Y12.95 Z-3.742
N1399 X22.466 Z-3.754
N1400 X22.5 Y12.994 Z-3.755
N1401 Y19.91 Z-3.997
N1402 X22.466 Y19.95 Z-3.999
N1403 X22.133 Z-4.01
N1404 X22.1 Y19.91 Z-4.012
N1405 Y12.994 Z-4.254
N1406 X22.133 Y12.95 Z-4.256
N1407 X22.466 Z-4.267
N1408 X22.5 Y12.994 Z-4.269
N1409 Y19.91 Z-4.511
N1410 X22.466 Y19.95 Z-4.513
N1411 X22.133 Z-4.524
N1412 X22.1 Y19.91 Z-4.526
N1413 Y12.994 Z-4.768
N1414 X22.133 Y12.95 Z-4.769
N1415 X22.466 Z-4.781
N1416 X22.5 Y12.994 Z-4.783
N1417 Y19.91 Z-5.025
N1418 X22.466 Y19.95 Z-5.026
N1419 X22.133 Z-5.038
N1420 X22.1 Y19.91 Z-5.04
N1421 Y12.994 Z-5.281
N1422 X22.133 Y12.95 Z-5.283
N1423 X22.466 Z-5.295
N1424 X22.5 Y12.994 Z-5.297
N1425 Y19.91 Z-5.538
N1426 X22.466 Y19.95 Z-5.54
N1427 X22.133 Z-5.552
N1428 X22.1 Y19.91 Z-5.554
N1429 Y12.994 Z-5.795
N1430 X22.133 Y12.95 Z-5.797
N1431 X22.466 Z-5.809
N1432 X22.5 Y12.994 Z-5.811
N1433 Y19.85 Z-6.05
N1434 Y19.91 F75.
N1435 X22.466 Y19.95
N1436 X22.133
N1437 X22.1 Y19.91
N1438 Y12.994
N1439 X22.133 Y12.95
N1440 X22.466
N1441 X22.5 Y12.994
N1442 Y19.85
N1443 Z-5.85
N1444 G0 Z3.01
N1445 X22.1 Y15.571
N1446 G1 Z2.3 F50.
N1447 G2 Y15.378 Z2.1 J-0.2 K0. F100.
N1448 G1 Y12.994 Z2.017
N1449 X22.133 Y12.95 Z2.015
N1450 X22.466 Z2.003
N1451 X22.5 Y12.994 Z2.001
N1452 Y19.91 Z1.76
N1453 X22.466 Y19.95 Z1.758
N1454 X22.133 Z1.746
N1455 X22.1 Y19.91 Z1.744
N1456 Y12.994 Z1.503
N1457 X22.133 Y12.95 Z1.501
N1458 X22.466 Z1.489
N1459 X22.5 Y12.994 Z1.487
N1460 Y19.91 Z1.246
N1461 X22.466 Y19.95 Z1.244
N1462 X22.133 Z1.232
N1463 X22.1 Y19.91 Z1.231
N1464 Y12.994 Z0.989
N1465 X22.133 Y12.95 Z0.987
N1466 X22.466 Z0.976
N1467 X22.5 Y12.994 Z0.974
N1468 Y19.91 Z0.732
N1469 X22.466 Y19.95 Z0.73
N1470 X22.133 Z0.719
N1471 X22.1 Y19.91 Z0.717
N1472 Y12.994 Z0.475
N1473 X22.133 Y12.95 Z0.473
N1474 X22.466 Z0.462
N1475 X22.5 Y12.994 Z0.46
N1476 Y19.91 Z0.218
N1477 X22.466 Y19.95 Z0.217
N1478 X22.133 Z0.205
N1479 X22.1 Y19.91 Z0.203
N1480 Y12.994 Z-0.038
N1481 X22.133 Y12.95 Z-0.04
N1482 X22.466 Z-0.052
N1483 X22.5 Y12.994 Z-0.054
N1484 Y19.91 Z-0.295
N1485 X22.466 Y19.95 Z-0.297
N1486 X22.133 Z-0.309
N1487 X22.1 Y19.91 Z-0.311
N1488 Y12.994 Z-0.552
N1489 X22.133 Y12.95 Z-0.554
N1490 X22.466 Z-0.566
N1491 X22.5 Y12.994 Z-0.568
N1492 Y19.91 Z-0.809
N1493 X22.466 Y19.95 Z-0.811
N1494 X22.133 Z-0.823
N1495 X22.1 Y19.91 Z-0.824
N1496 Y12.994 Z-1.066
N1497 X22.133 Y12.95 Z-1.068
N1498 X22.466 Z-1.079
N1499 X22.5 Y12.994 Z-1.081
N1500 Y19.91 Z-1.323
N1501 X22.466 Y19.95 Z-1.325
N1502 X22.133 Z-1.336
N1503 X22.1 Y19.91 Z-1.338
N1504 Y12.994 Z-1.58
N1505 X22.133 Y12.95 Z-1.582
N1506 X22.466 Z-1.593
N1507 X22.5 Y12.994 Z-1.595
N1508 Y19.91 Z-1.837
N1509 X22.466 Y19.95 Z-1.839
N1510 X22.133 Z-1.85
N1511 X22.1 Y19.91 Z-1.852
N1512 Y12.994 Z-2.093
N1513 X22.133 Y12.95 Z-2.095
N1514 X22.466 Z-2.107
N1515 X22.5 Y12.994 Z-2.109
N1516 Y19.91 Z-2.351
N1517 X22.466 Y19.95 Z-2.352
N1518 X22.133 Z-2.364
N1519 X22.1 Y19.91 Z-2.366
N1520 Y12.994 Z-2.607
N1521 X22.133 Y12.95 Z-2.609
N1522 X22.466 Z-2.621
N1523 X22.5 Y12.994 Z-2.623
N1524 Y19.91 Z-2.864
N1525 X22.466 Y19.95 Z-2.866
N1526 X22.133 Z-2.878
N1527 X22.1 Y19.91 Z-2.88
N1528 Y12.994 Z-3.121
N1529 X22.133 Y12.95 Z-3.123
N1530 X22.466 Z-3.135
N1531 X22.5 Y12.994 Z-3.137
N1532 Y19.91 Z-3.378
N1533 X22.466 Y19.95 Z-3.38
N1534 X22.133 Z-3.392
N1535 X22.1 Y19.91 Z-3.393
N1536 Y12.994 Z-3.635
N1537 X22.133 Y12.95 Z-3.637
N1538 X22.466 Z-3.648
N1539 X22.5 Y12.994 Z-3.65
N1540 Y19.91 Z-3.892
N1541 X22.466 Y19.95 Z-3.894
N1542 X22.133 Z-3.905
N1543 X22.1 Y19.91 Z-3.907
N1544 Y12.994 Z-4.149
N1545 X22.133 Y12.95 Z-4.151
N1546 X22.466 Z-4.162
N1547 X22.5 Y12.994 Z-4.164
N1548 Y19.91 Z-4.406
N1549 X22.466 Y19.95 Z-4.407
N1550 X22.133 Z-4.419
N1551 X22.1 Y19.91 Z-4.421
N1552 Y12.994 Z-4.662
N1553 X22.133 Y12.95 Z-4.664
N1554 X22.466 Z-4.676
N1555 X22.5 Y12.994 Z-4.678
N1556 Y19.91 Z-4.919
N1557 X22.466 Y19.95 Z-4.921
N1558 X22.133 Z-4.933
N1559 X22.1 Y19.91 Z-4.935
N1560 Y12.994 Z-5.176
N1561 X22.133 Y12.95 Z-5.178
N1562 X22.466 Z-5.19
N1563 X22.5 Y12.994 Z-5.192
N1564 Y19.91 Z-5.433
N1565 X22.466 Y19.95 Z-5.435
N1566 X22.133 Z-5.447
N1567 X22.1 Y19.91 Z-5.448
N1568 Y12.994 Z-5.69
N1569 X22.133 Y12.95 Z-5.692
N1570 X22.466 Z-5.704
N1571 X22.5 Y12.994 Z-5.705
N1572 Y19.91 Z-5.947
N1573 X22.466 Y19.95 Z-5.949
N1574 X22.133 Z-5.96
N1575 X22.1 Y19.91 Z-5.962
N1576 Y12.994 Z-6.204
N1577 X22.133 Y12.95 Z-6.206
N1578 X22.466 Z-6.217
N1579 X22.5 Y12.994 Z-6.219
N1580 Y19.91 Z-6.461
N1581 X22.466 Y19.95 Z-6.463
N1582 X22.133 Z-6.474
N1583 X22.1 Y19.91 Z-6.476
N1584 Y12.994 Z-6.718
N1585 X22.133 Y12.95 Z-6.719
N1586 X22.466 Z-6.731
N1587 X22.5 Y12.994 Z-6.733
N1588 Y19.91 Z-6.975
N1589 X22.466 Y19.95 Z-6.976
N1590 X22.133 Z-6.988
N1591 X22.1 Y19.91 Z-6.99
N1592 Y12.994 Z-7.231
N1593 X22.133 Y12.95 Z-7.233
N1594 X22.466 Z-7.245
N1595 X22.5 Y12.994 Z-7.247
N1596 Y19.91 Z-7.488
N1597 X22.466 Y19.95 Z-7.49
N1598 X22.133 Z-7.502
N1599 X22.1 Y19.91 Z-7.504
N1600 Y12.994 Z-7.745
N1601 X22.133 Y12.95 Z-7.747
N1602 X22.466 Z-7.759
N1603 X22.5 Y12.994 Z-7.761
N1604 Y19.85 Z-8.
N1605 Y19.91 F75.
N1606 X22.466 Y19.95
N1607 X22.133
N1608 X22.1 Y19.91
N1609 Y12.994
N1610 X22.133 Y12.95
N1611 X22.466
N1612 X22.5 Y12.994
N1613 Y19.85
N1614 Z-7.8
N1615 G0 Z11.
N1616 G17
N1617 G53 Z0.
N1618 
N1619 (ADAPTIVE3)
N1620 M5
N1621 M9
N1622 M1
N1623 T2 M6
N1624 M3 S8000
N1625 G54
N1626 M8
N1627 G0 X76.595 Y-1.578
N1628 Z15.
N1629 Z5.
N1630 Z2.819
N1631 G1 Z2.502 F100.
N1632 Z-2.
N1633 X76.661 Y-1.558 F150.
N1634 X76.806 Y-1.511
N1635 X76.952 Y-1.447
N1636 X77.098 Y-1.38
N1637 X77.389 Y-1.196
N1638 X77.41 Y-1.181
N1639 X77.302 Y-1.077
N1640 X77.146 Y-0.981
N1641 X77.047 Y-0.93
N1642 X76.819 Y-0.824
N1643 X76.518 Y-0.713
N1644 X76.105 Y-0.598
N1645 X75.493 Y-0.478
N1646 X74.855 Y-0.406
N1647 X74.214 Y-0.364
N1648 X73.572 Y-0.34
N1649 X72.93 Y-0.325
N1650 X72.548 Y-0.32
N1651 X72.41 Y-0.331
N1652 X72.276 Y-0.365
N1653 X72.15 Y-0.422
N1654 X72.142 Y-0.426
N1655 X71.996 Y-0.488
N1656 X71.85 Y-0.533
N1657 X71.704 Y-0.564
N1658 X71.559 Y-0.582
N1659 X71.121 Y-0.587
N1660 X49.256 Y-0.588
N1661 X48.819 Y-0.575
N1662 X48.673 Y-0.549
N1663 X48.35 Y-0.494
N1664 X48.157 Y-0.505
N1665 X47.981 Y-0.583
N1666 X47.844 Y-0.719
N1667 X47.764 Y-0.894
N1668 X47.752 Y-1.086
N1669 X47.808 Y-1.27
N1670 X47.926 Y-1.423
N1671 X48.09 Y-1.524
N1672 G3 X48.212 Y-1.551 I0.282 J0.96 F100.
N1673 X48.689 Y-1.512 I0.16 J0.987 F150.
N1674 X48.787 Y-0.599 I-0.16 J0.479
N1675 X48.673 Y-0.549 I-0.258 J-0.434 F100.
N1676 G1 X48.527 Y-0.511 F150.
N1677 X48.382 Y-0.461
N1678 X48.236 Y-0.387
N1679 X48.196 Y-0.362
N1680 X48.126 Y-0.322
N1681 X47.981 Y-0.283
N1682 X47.797 Y-0.317
N1683 X47.633 Y-0.408
N1684 X47.507 Y-0.548
N1685 X47.434 Y-0.721
N1686 X47.421 Y-0.908
N1687 X47.469 Y-1.089
N1688 X47.574 Y-1.245
N1689 X47.723 Y-1.358
N1690 G3 X47.808 Y-1.384 I0.119 J0.247 F100.
N1691 G1 X47.844 Y-1.387
N1692 G3 X48.29 Y-0.443 I0.035 J0.561 F150.
N1693 X48.196 Y-0.362 I-0.411 J-0.383 F100.
N1694 G1 X48.104 Y-0.303 F150.
N1695 X47.944 Y-0.185
N1696 X47.88 Y-0.137
N1697 X47.743 Y-0.075
N1698 X47.594 Y-0.061
N1699 X47.416 Y-0.119
N1700 X47.266 Y-0.23
N1701 X47.159 Y-0.383
N1702 X47.106 Y-0.563
N1703 X47.113 Y-0.749
N1704 X47.178 Y-0.924
N1705 X47.296 Y-1.069
N1706 G3 X47.406 Y-1.125 I0.173 J0.207 F100.
N1707 G1 X47.42 Y-1.128 F150.
N1708 G3 X48.017 Y-0.286 I0.101 J0.561
N1709 X47.944 Y-0.185 I-0.495 J-0.281 F100.
N1710 G1 X47.918 Y-0.157 F150.
N1711 X47.784 Y-0.012
N1712 X47.766 Y0.013
N1713 X47.696 Y0.098
N1714 X47.572 Y0.182
N1715 X47.428 Y0.223
N1716 X47.237 Y0.192
N1717 X47.066 Y0.103
N1718 X46.934 Y-0.037
N1719 X46.853 Y-0.213
N1720 X46.833 Y-0.404
N1721 X46.875 Y-0.593
N1722 X46.975 Y-0.757
N1723 G3 X47.061 Y-0.82 I0.201 J0.185 F100.
N1724 G1 X47.077 Y-0.827
N1725 G3 X47.824 Y-0.097 I0.221 J0.52 F150.
N1726 X47.766 Y0.013 I-0.525 J-0.209 F100.
N1727 G1 X47.676 Y0.134 F150.
N1728 X47.653 Y0.17
N1729 X47.586 Y0.28
N1730 X47.53 Y0.372
N1731 X47.416 Y0.47
N1732 X47.278 Y0.528
N1733 X47.087 Y0.523
N1734 X46.907 Y0.458
N1735 X46.758 Y0.338
N1736 X46.654 Y0.177
N1737 X46.607 Y-0.008
N1738 X46.622 Y-0.199
N1739 X46.697 Y-0.375
N1740 G3 X46.788 Y-0.459 I0.223 J0.152 F100.
N1741 G1 X46.815 Y-0.472 F150.
N1742 G3 X47.619 Y0.16 I0.226 J0.539
N1743 X47.586 Y0.28 I-0.577 J-0.093 F100.
N1744 G1 X47.507 Y0.464 F150.
N1745 X47.481 Y0.55
N1746 X47.446 Y0.649
N1747 X47.354 Y0.768
N1748 X47.23 Y0.851
N1749 X47.043 Y0.883
N1750 X46.856 Y0.854
N1751 X46.687 Y0.768
N1752 X46.554 Y0.634
N1753 X46.469 Y0.464
N1754 X46.443 Y0.277
N1755 X46.476 Y0.091
N1756 G3 X46.544 Y-0.01 I0.255 J0.099 F100.
N1757 X47.499 Y0.426 I0.388 J0.416 F150.
N1758 X47.481 Y0.55 I-0.568 J-0.021 F100.
N1759 G1 X47.475 Y0.571 F150.
N1760 X47.442 Y0.717
N1761 X47.425 Y0.833
N1762 X47.403 Y0.943
N1763 X47.334 Y1.076
N1764 X47.226 Y1.18
N1765 X47.05 Y1.243
N1766 X46.863 Y1.249
N1767 X46.684 Y1.196
N1768 X46.53 Y1.09
N1769 X46.417 Y0.942
N1770 X46.355 Y0.765
N1771 X46.351 Y0.578
N1772 X46.38 Y0.426
N1773 X46.413 Y0.28
N1774 X46.461 Y0.134
N1775 X46.476 Y0.091
N1776 G3 X46.546 Y-0.011 I0.243 J0.094 F100.
N1777 X46.773 Y-0.07 I0.172 J0.196 F150.
N1778 X47.43 Y0.709 I-0.173 J0.812
N1779 X47.425 Y0.833 I-0.829 J0.033 F100.
N1780 G1 X47.421 Y0.863 F150.
N1781 X47.415 Y1.009
N1782 X47.413 Y1.155
N1783 X47.407 Y1.263
N1784 X47.353 Y1.403
N1785 X47.26 Y1.521
N1786 X47.095 Y1.608
N1787 X46.912 Y1.639
N1788 X46.728 Y1.612
N1789 X46.561 Y1.528
N1790 X46.429 Y1.396
N1791 X46.345 Y1.23
N1792 X46.318 Y1.046
N1793 X46.321 Y0.863
N1794 X46.332 Y0.717
N1795 X46.351 Y0.578
N1796 G3 X46.4 Y0.465 I0.259 J0.045 F100.
N1797 X46.62 Y0.361 I0.21 J0.158 F150.
N1798 X47.399 Y1.031 I-0.03 J0.823
N1799 X47.413 Y1.155 I-0.809 J0.153 F100.
N1800 G1 Y1.526 F150.
N1801 X47.407 Y1.638
N1802 X47.355 Y1.779
N1803 X47.264 Y1.898
N1804 X47.102 Y1.992
N1805 X46.919 Y2.029
N1806 X46.734 Y2.006
N1807 X46.565 Y1.926
N1808 X46.431 Y1.797
N1809 X46.344 Y1.631
N1810 X46.315 Y1.446
N1811 X46.318 Y1.046
N1812 G3 X46.351 Y0.927 I0.27 J0.012 F100.
N1813 X46.556 Y0.79 I0.236 J0.131 F150.
N1814 X47.398 Y1.403 I0.089 J0.764
N1815 X47.413 Y1.526 I-0.754 J0.151 F100.
N1816 G1 Y1.928 F150.
N1817 X47.407 Y2.037
N1818 X47.353 Y2.176
N1819 X47.2 Y2.312
N1820 X47.009 Y2.387
N1821 X46.804 Y2.391
N1822 X46.61 Y2.323
N1823 X46.452 Y2.192
N1824 X46.349 Y2.015
N1825 X46.314 Y1.813
N1826 X46.315 Y1.446
N1827 G3 X46.348 Y1.327 I0.27 J0.011 F100.
N1828 X46.555 Y1.188 I0.237 J0.13 F150.
N1829 X47.398 Y1.804 I0.087 J0.766
N1830 X47.413 Y1.928 I-0.756 J0.151 F100.
N1831 G1 Y2.255 F150.
N1832 X47.407 Y2.376
N1833 X47.363 Y2.519
N1834 X47.277 Y2.642
N1835 X47.115 Y2.741
N1836 X46.93 Y2.783
N1837 X46.742 Y2.763
N1838 X46.57 Y2.684
N1839 X46.432 Y2.554
N1840 X46.344 Y2.387
N1841 X46.313 Y2.2
N1842 X46.314 Y1.813
N1843 G3 X46.347 Y1.694 I0.271 J0.011 F100.
N1844 X46.531 Y1.558 I0.238 J0.13 F150.
N1845 X47.398 Y2.132 I0.145 J0.723
N1846 X47.413 Y2.255 I-0.722 J0.149 F100.
N1847 G1 Y2.656 F150.
N1848 X47.407 Y2.772
N1849 X47.359 Y2.914
N1850 X47.269 Y3.034
N1851 X47.109 Y3.131
N1852 X46.925 Y3.172
N1853 X46.738 Y3.152
N1854 X46.568 Y3.073
N1855 X46.431 Y2.944
N1856 X46.343 Y2.778
N1857 X46.313 Y2.593
N1858 Y2.2
N1859 G3 X46.345 Y2.081 I0.271 J0.009 F100.
N1860 X46.539 Y1.942 I0.239 J0.129 F150.
N1861 X47.398 Y2.533 I0.123 J0.74
N1862 X47.413 Y2.656 I-0.735 J0.15 F100.
N1863 G1 Y3.05 F150.
N1864 X47.407 Y3.164
N1865 X47.358 Y3.306
N1866 X47.268 Y3.426
N1867 X47.107 Y3.523
N1868 X46.924 Y3.563
N1869 X46.737 Y3.542
N1870 X46.567 Y3.463
N1871 X46.431 Y3.334
N1872 X46.343 Y3.169
N1873 X46.313 Y2.984
N1874 Y2.593
N1875 G3 X46.345 Y2.474 I0.271 J0.009 F100.
N1876 X46.54 Y2.335 I0.239 J0.129 F150.
N1877 X47.398 Y2.926 I0.123 J0.741
N1878 X47.413 Y3.05 I-0.736 J0.15 F100.
N1879 G1 Y3.458 F150.
N1880 X47.407 Y3.568
N1881 X47.354 Y3.708
N1882 X47.201 Y3.845
N1883 X47.011 Y3.92
N1884 X46.806 Y3.925
N1885 X46.612 Y3.858
N1886 X46.453 Y3.728
N1887 X46.349 Y3.552
N1888 X46.313 Y3.35
N1889 Y2.984
N1890 G3 X46.345 Y2.864 I0.271 J0.009 F100.
N1891 X46.549 Y2.724 I0.239 J0.129 F150.
N1892 X47.398 Y3.334 I0.098 J0.76
N1893 X47.413 Y3.458 I-0.751 J0.15 F100.
N1894 G1 Y3.823 F150.
N1895 X47.407 Y3.935
N1896 X47.354 Y4.075
N1897 X47.263 Y4.195
N1898 X47.1 Y4.286
N1899 X46.916 Y4.321
N1900 X46.731 Y4.297
N1901 X46.563 Y4.216
N1902 X46.429 Y4.086
N1903 X46.343 Y3.92
N1904 X46.313 Y3.735
N1905 Y3.35
N1906 G3 X46.345 Y3.23 I0.271 J0.009 F100.
N1907 X46.549 Y3.09 I0.239 J0.129 F150.
N1908 X47.398 Y3.699 I0.099 J0.759
N1909 X47.413 Y3.823 I-0.75 J0.15 F100.
N1910 G1 Y4.216 F150.
N1911 X47.407 Y4.326
N1912 X47.354 Y4.466
N1913 X47.201 Y4.603
N1914 X47.01 Y4.678
N1915 X46.805 Y4.683
N1916 X46.611 Y4.616
N1917 X46.453 Y4.486
N1918 X46.349 Y4.309
N1919 X46.313 Y4.107
N1920 Y3.735
N1921 G3 X46.345 Y3.616 I0.271 J0.009 F100.
N1922 X46.553 Y3.476 I0.238 J0.129 F150.
N1923 X47.398 Y4.092 I0.088 J0.767
N1924 X47.413 Y4.216 I-0.758 J0.151 F100.
N1925 G1 Y4.552 F150.
N1926 X47.407 Y4.671
N1927 X47.361 Y4.814
N1928 X47.275 Y4.937
N1929 X47.113 Y5.034
N1930 X46.928 Y5.075
N1931 X46.741 Y5.054
N1932 X46.569 Y4.975
N1933 X46.432 Y4.845
N1934 X46.343 Y4.678
N1935 X46.313 Y4.492
N1936 Y4.107
N1937 G3 X46.345 Y3.988 I0.271 J0.009 F100.
N1938 X46.533 Y3.85 I0.239 J0.129 F150.
N1939 X47.398 Y4.428 I0.14 J0.727
N1940 X47.413 Y4.552 I-0.725 J0.149 F100.
N1941 G1 Y4.945 F150.
N1942 X47.407 Y5.061
N1943 X47.359 Y5.203
N1944 X47.271 Y5.324
N1945 X47.11 Y5.422
N1946 X46.927 Y5.464
N1947 X46.74 Y5.444
N1948 X46.569 Y5.365
N1949 X46.432 Y5.236
N1950 X46.343 Y5.07
N1951 X46.313 Y4.885
N1952 Y4.492
N1953 G3 X46.345 Y4.373 I0.271 J0.009 F100.
N1954 X46.538 Y4.234 I0.239 J0.129 F150.
N1955 X47.398 Y4.821 I0.128 J0.737
N1956 X47.413 Y4.945 I-0.733 J0.15 F100.
N1957 G1 Y5.353 F150.
N1958 X47.407 Y5.464
N1959 X47.355 Y5.605
N1960 X47.203 Y5.743
N1961 X47.013 Y5.82
N1962 X46.807 Y5.825
N1963 X46.613 Y5.759
N1964 X46.453 Y5.63
N1965 X46.349 Y5.453
N1966 X46.313 Y5.251
N1967 Y4.885
N1968 G3 X46.345 Y4.765 I0.271 J0.009 F100.
N1969 X46.546 Y4.626 I0.239 J0.129 F150.
N1970 X47.398 Y5.229 I0.106 J0.754
N1971 X47.413 Y5.353 I-0.746 J0.15 F100.
N1972 G1 Y5.718 F150.
N1973 X47.407 Y5.832
N1974 X47.355 Y5.972
N1975 X47.265 Y6.092
N1976 X47.102 Y6.185
N1977 X46.918 Y6.221
N1978 X46.733 Y6.197
N1979 X46.564 Y6.116
N1980 X46.429 Y5.986
N1981 X46.343 Y5.82
N1982 X46.313 Y5.635
N1983 Y5.251
N1984 G3 X46.345 Y5.131 I0.271 J0.009 F100.
N1985 X46.545 Y4.992 I0.239 J0.129 F150.
N1986 X47.398 Y5.594 I0.108 J0.753
N1987 X47.413 Y5.718 I-0.745 J0.15 F100.
N1988 G1 Y6.111 F150.
N1989 X47.407 Y6.222
N1990 X47.355 Y6.363
N1991 X47.202 Y6.5
N1992 X47.012 Y6.576
N1993 X46.807 Y6.582
N1994 X46.612 Y6.515
N1995 X46.453 Y6.386
N1996 X46.349 Y6.209
N1997 X46.313 Y6.007
N1998 Y5.635
N1999 G3 X46.345 Y5.516 I0.271 J0.009 F100.
N2000 X46.55 Y5.376 I0.238 J0.129 F150.
N2001 X47.398 Y5.987 I0.095 J0.762
N2002 X47.413 Y6.111 I-0.753 J0.151 F100.
N2003 G1 Y6.447 F150.
N2004 X47.407 Y6.567
N2005 X47.362 Y6.711
N2006 X47.276 Y6.834
N2007 X47.114 Y6.932
N2008 X46.93 Y6.973
N2009 X46.742 Y6.953
N2010 X46.57 Y6.874
N2011 X46.432 Y6.744
N2012 X46.344 Y6.577
N2013 X46.313 Y6.39
N2014 Y6.007
N2015 G3 X46.345 Y5.888 I0.271 J0.009 F100.
N2016 X46.53 Y5.75 I0.239 J0.129 F150.
N2017 X47.398 Y6.323 I0.146 J0.722
N2018 X47.413 Y6.447 I-0.722 J0.149 F100.
N2019 G1 Y6.84 F150.
N2020 X47.41 Y6.954
N2021 X47.363 Y7.097
N2022 X47.276 Y7.219
N2023 X47.115 Y7.319
N2024 X46.931 Y7.361
N2025 X46.743 Y7.343
N2026 X46.571 Y7.265
N2027 X46.433 Y7.135
N2028 X46.344 Y6.968
N2029 X46.313 Y6.782
N2030 Y6.39
N2031 G3 X46.345 Y6.271 I0.269 J0.009 F100.
N2032 X46.54 Y6.134 I0.236 J0.129 F150.
N2033 X47.396 Y6.717 I0.116 J0.749
N2034 X47.413 Y6.84 I-0.739 J0.166 F100.
N2035 G1 X47.416 Y6.986 F150.
N2036 X47.426 Y7.132
N2037 X47.433 Y7.176
N2038 X47.443 Y7.288
N2039 X47.412 Y7.434
N2040 X47.339 Y7.566
N2041 X47.177 Y7.686
N2042 X46.985 Y7.745
N2043 X46.784 Y7.737
N2044 X46.597 Y7.662
N2045 X46.445 Y7.529
N2046 X46.347 Y7.354
N2047 X46.313 Y7.155
N2048 Y6.782
N2049 G3 X46.346 Y6.663 I0.261 J0.009 F100.
N2050 X46.534 Y6.533 I0.228 J0.128 F150.
N2051 X47.401 Y7.055 I0.12 J0.781
N2052 X47.433 Y7.176 I-0.747 J0.259 F100.
N2053 G1 X47.447 Y7.277 F150.
N2054 X47.487 Y7.423
N2055 X47.507 Y7.487
N2056 X47.538 Y7.584
N2057 X47.531 Y7.734
N2058 X47.479 Y7.874
N2059 X47.338 Y8.019
N2060 X47.16 Y8.113
N2061 X46.96 Y8.146
N2062 X46.761 Y8.116
N2063 X46.58 Y8.026
N2064 X46.437 Y7.883
N2065 X46.345 Y7.704
N2066 X46.313 Y7.504
N2067 Y7.155
N2068 G3 X46.347 Y7.037 I0.25 J0.009 F100.
N2069 X46.546 Y6.914 I0.216 J0.127 F150.
N2070 X47.448 Y7.377 I0.068 J0.979
N2071 X47.507 Y7.487 I-0.835 J0.516 F100.
N2072 G1 X47.541 Y7.569 F150.
N2073 X47.61 Y7.715
N2074 X47.633 Y7.754
N2075 X47.682 Y7.843
N2076 X47.704 Y7.992
N2077 X47.68 Y8.14
N2078 X47.62 Y8.277
N2079 X47.534 Y8.4
N2080 X47.362 Y8.521
N2081 X47.163 Y8.587
N2082 X46.954 Y8.594
N2083 X46.751 Y8.54
N2084 X46.572 Y8.43
N2085 X46.432 Y8.273
N2086 X46.343 Y8.083
N2087 X46.313 Y7.875
N2088 Y7.504
N2089 G3 X46.341 Y7.384 I0.317 J0.011 F100.
N2090 X46.785 Y7.238 I0.289 J0.132 F150.
N2091 G1 X47.523 Y7.651
N2092 X47.547 Y7.665
N2093 G3 X47.633 Y7.754 I-0.179 J0.262 F100.
N2094 G1 X47.698 Y7.86 F150.
N2095 X47.799 Y7.985
N2096 X47.817 Y8.006
N2097 X47.886 Y8.087
N2098 X47.941 Y8.227
N2099 X47.951 Y8.377
N2100 X47.928 Y8.525
N2101 X47.875 Y8.665
N2102 X47.798 Y8.794
N2103 X47.7 Y8.908
N2104 X47.587 Y9.006
N2105 X47.46 Y9.085
N2106 X47.436 Y9.096
N2107 X47.219 Y9.159
N2108 X46.994
N2109 X46.777 Y9.096
N2110 X46.587 Y8.974
N2111 X46.439 Y8.803
N2112 X46.345 Y8.597
N2113 X46.313 Y8.374
N2114 Y7.875
N2115 G3 X46.341 Y7.755 I0.317 J0.011 F100.
N2116 X46.737 Y7.588 I0.289 J0.132 F150.
N2117 G1 X47.7 Y7.933
N2118 X47.713 Y7.938
N2119 G3 X47.817 Y8.006 I-0.12 J0.294 F100.
N2120 G1 X47.944 Y8.142 F150.
N2121 X47.955 Y8.152
N2122 X48.063 Y8.233
N2123 X48.154 Y8.308
N2124 X48.234 Y8.435
N2125 X48.279 Y8.578
N2126 X48.295 Y8.727
N2127 X48.285 Y8.877
N2128 X48.251 Y9.023
N2129 X48.197 Y9.163
N2130 X48.122 Y9.293
N2131 X48.033 Y9.414
N2132 X47.928 Y9.521
N2133 X47.811 Y9.615
N2134 X47.684 Y9.695
N2135 X47.548 Y9.759
N2136 X47.407 Y9.808
N2137 X47.26 Y9.84
N2138 X47.111 Y9.856
N2139 X46.905 Y9.83
N2140 X46.712 Y9.751
N2141 X46.547 Y9.625
N2142 X46.42 Y9.461
N2143 X46.34 Y9.269
N2144 X46.313 Y9.062
N2145 Y8.374
N2146 G3 X46.341 Y8.253 I0.317 J0.011 F100.
N2147 X46.658 Y8.069 I0.289 J0.132 F150.
N2148 G1 X47.909 Y8.177
N2149 X47.949 Y8.183
N2150 G3 X48.063 Y8.233 I-0.068 J0.31 F100.
N2151 G1 X48.09 Y8.253 F150.
N2152 X48.153 Y8.298
N2153 X48.236 Y8.347
N2154 X48.352 Y8.406
N2155 X48.472 Y8.475
N2156 X48.58 Y8.58
N2157 X48.66 Y8.706
N2158 X48.715 Y8.846
N2159 X48.747 Y8.992
N2160 X48.757 Y9.142
N2161 X48.747 Y9.292
N2162 X48.719 Y9.439
N2163 X48.675 Y9.582
N2164 X48.615 Y9.72
N2165 X48.542 Y9.851
N2166 X48.457 Y9.974
N2167 X48.361 Y10.089
N2168 X48.254 Y10.195
N2169 X48.139 Y10.291
N2170 X48.016 Y10.377
N2171 X47.886 Y10.451
N2172 X47.749 Y10.514
N2173 X47.608 Y10.564
N2174 X47.462 Y10.6
N2175 X47.314 Y10.623
N2176 X47.165 Y10.633
N2177 X47.011 Y10.627
N2178 X46.79 Y10.567
N2179 X46.595 Y10.446
N2180 X46.443 Y10.274
N2181 X46.346 Y10.066
N2182 X46.313 Y9.839
N2183 Y9.062
N2184 G3 X46.341 Y8.942 I0.317 J0.011 F100.
N2185 X46.556 Y8.765 I0.289 J0.132 F150.
N2186 G1 X48.144 Y8.385
N2187 G3 X48.232 Y8.377 I0.074 J0.309
N2188 X48.352 Y8.406 I-0.014 J0.317 F100.
N2189 G1 X48.382 Y8.421 F150.
N2190 X48.441 Y8.444
N2191 X48.527 Y8.474
N2192 X48.673 Y8.51
N2193 X48.717 Y8.517
N2194 X48.841 Y8.545
N2195 X48.97 Y8.621
N2196 X49.08 Y8.723
N2197 X49.171 Y8.843
N2198 X49.242 Y8.975
N2199 X49.295 Y9.115
N2200 X49.33 Y9.261
N2201 X49.349 Y9.41
N2202 X49.353 Y9.56
N2203 X49.342 Y9.709
N2204 X49.317 Y9.857
N2205 X49.28 Y10.002
N2206 X49.23 Y10.147
N2207 X49.168 Y10.288
N2208 X49.091 Y10.431
N2209 X48.999 Y10.574
N2210 X48.894 Y10.71
N2211 X48.779 Y10.838
N2212 X48.65 Y10.96
N2213 X48.507 Y11.074
N2214 X48.353 Y11.178
N2215 X48.191 Y11.269
N2216 X48.032 Y11.343
N2217 X47.881 Y11.399
N2218 X47.71 Y11.447
N2219 X47.554 Y11.478
N2220 X47.405 Y11.495
N2221 X47.242 Y11.5
N2222 X47.092 Y11.492
N2223 X46.943 Y11.472
N2224 X46.933 Y11.47
N2225 X46.733 Y11.396
N2226 X46.559 Y11.271
N2227 X46.426 Y11.104
N2228 X46.342 Y10.907
N2229 X46.313 Y10.696
N2230 Y9.839
N2231 G3 X46.341 Y9.719 I0.317 J0.011 F100.
N2232 X46.489 Y9.566 I0.289 J0.132 F150.
N2233 G1 X48.533 Y8.548
N2234 G3 X48.594 Y8.525 I0.142 J0.284
N2235 X48.717 Y8.517 I0.081 J0.307 F100.
N2236 G1 X48.819 Y8.535 F150.
N2237 X49.11 Y8.545
N2238 X49.259 Y8.557
N2239 X49.402 Y8.603
N2240 X49.532 Y8.678
N2241 X49.648 Y8.773
N2242 X49.75 Y8.883
N2243 X49.836 Y9.006
N2244 X49.908 Y9.137
N2245 X49.966 Y9.275
N2246 X50.011 Y9.419
N2247 X50.042 Y9.566
N2248 X50.061 Y9.717
N2249 X50.068 Y9.874
N2250 X50.062 Y10.039
N2251 X50.041 Y10.213
N2252 X50.005 Y10.393
N2253 X49.953 Y10.576
N2254 X49.885 Y10.759
N2255 X49.799 Y10.943
N2256 X49.694 Y11.127
N2257 X49.57 Y11.309
N2258 X49.429 Y11.484
N2259 X49.273 Y11.648
N2260 X49.101 Y11.802
N2261 X48.917 Y11.942
N2262 X48.722 Y12.067
N2263 X48.518 Y12.176
N2264 X48.305 Y12.268
N2265 X48.087 Y12.343
N2266 X47.887 Y12.394
N2267 X47.692 Y12.427
N2268 X47.498 Y12.444
N2269 X47.332 Y12.446
N2270 X47.153 Y12.433
N2271 X46.989 Y12.407
N2272 X46.923 Y12.392
N2273 X46.726 Y12.316
N2274 X46.555 Y12.19
N2275 X46.424 Y12.024
N2276 X46.341 Y11.829
N2277 X46.313 Y11.62
N2278 Y10.696
N2279 G3 X46.341 Y10.575 I0.317 J0.011 F100.
N2280 X46.441 Y10.452 I0.289 J0.132 F150.
N2281 G1 X48.922 Y8.607
N2282 G3 X48.989 Y8.569 I0.189 J0.255
N2283 X49.11 Y8.545 I0.123 J0.293 F100.
N2284 G1 X49.256 Y8.549 F150.
N2285 X49.694
N2286 X49.774 Y8.553
N2287 X49.922 Y8.578
N2288 X50.062 Y8.631
N2289 X50.193 Y8.705
N2290 X50.312 Y8.796
N2291 X50.419 Y8.901
N2292 X50.515 Y9.016
N2293 X50.598 Y9.141
N2294 X50.67 Y9.272
N2295 X50.733 Y9.414
N2296 X50.786 Y9.565
N2297 X50.829 Y9.73
N2298 X50.861 Y9.91
N2299 X50.879 Y10.102
N2300 X50.882 Y10.299
N2301 X50.868 Y10.509
N2302 X50.835 Y10.731
N2303 X50.783 Y10.959
N2304 X50.71 Y11.188
N2305 X50.616 Y11.418
N2306 X50.5 Y11.65
N2307 X50.359 Y11.879
N2308 X50.197 Y12.104
N2309 X50.012 Y12.319
N2310 X49.807 Y12.522
N2311 X49.583 Y12.712
N2312 X49.345 Y12.882
N2313 X49.096 Y13.032
N2314 X48.838 Y13.16
N2315 X48.577 Y13.264
N2316 X48.312 Y13.346
N2317 X48.047 Y13.405
N2318 X47.815 Y13.437
N2319 X47.577 Y13.451
N2320 X47.378 Y13.447
N2321 X47.186 Y13.427
N2322 X47.001 Y13.393
N2323 X46.84 Y13.35
N2324 X46.626 Y13.234
N2325 X46.458 Y13.059
N2326 X46.35 Y12.842
N2327 X46.313 Y12.602
N2328 Y11.62
N2329 G3 X46.341 Y11.499 I0.317 J0.011 F100.
N2330 X46.418 Y11.395 I0.289 J0.132 F150.
N2331 G1 X49.492 Y8.63
N2332 G3 X49.573 Y8.578 I0.212 J0.236
N2333 X49.694 Y8.549 I0.132 J0.289 F100.
N2334 G1 X50.357 F150.
N2335 X50.437 Y8.553
N2336 X50.586 Y8.572
N2337 X50.729 Y8.616
N2338 X50.865 Y8.681
N2339 X50.991 Y8.762
N2340 X51.107 Y8.856
N2341 X51.214 Y8.961
N2342 X51.311 Y9.076
N2343 X51.401 Y9.205
N2344 X51.485 Y9.345
N2345 X51.561 Y9.501
N2346 X51.631 Y9.679
N2347 X51.688 Y9.87
N2348 X51.733 Y10.073
N2349 X51.763 Y10.297
N2350 X51.775 Y10.537
N2351 X51.768 Y10.785
N2352 X51.74 Y11.042
N2353 X51.689 Y11.313
N2354 X51.612 Y11.594
N2355 X51.507 Y11.881
N2356 X51.377 Y12.166
N2357 X51.22 Y12.446
N2358 X51.036 Y12.722
N2359 X50.823 Y12.99
N2360 X50.584 Y13.246
N2361 X50.321 Y13.486
N2362 X50.038 Y13.706
N2363 X49.737 Y13.902
N2364 X49.421 Y14.074
N2365 X49.101 Y14.217
N2366 X48.776 Y14.331
N2367 X48.458 Y14.415
N2368 X48.148 Y14.47
N2369 X47.85 Y14.499
N2370 X47.611 Y14.503
N2371 X47.368 Y14.488
N2372 X47.159 Y14.458
N2373 X46.983 Y14.417
N2374 X46.868 Y14.381
N2375 X46.686 Y14.298
N2376 X46.531 Y14.171
N2377 X46.412 Y14.009
N2378 X46.338 Y13.823
N2379 X46.313 Y13.624
N2380 Y12.602
N2381 G3 X46.341 Y12.482 I0.317 J0.011 F100.
N2382 X46.405 Y12.389 I0.289 J0.132 F150.
N2383 G1 X50.143 Y8.642
N2384 G3 X50.236 Y8.578 I0.225 J0.224
N2385 X50.357 Y8.549 I0.132 J0.289 F100.
N2386 G1 X51.151 F150.
N2387 X51.231 Y8.553
N2388 X51.38 Y8.576
N2389 X51.523 Y8.622
N2390 X51.658 Y8.685
N2391 X51.787 Y8.763
N2392 X51.906 Y8.854
N2393 X52.017 Y8.955
N2394 X52.124 Y9.07
N2395 X52.227 Y9.2
N2396 X52.329 Y9.354
N2397 X52.423 Y9.522
N2398 X52.508 Y9.709
N2399 X52.584 Y9.921
N2400 X52.647 Y10.15
N2401 X52.692 Y10.392
N2402 X52.721 Y10.66
N2403 X52.728 Y10.951
N2404 X52.712 Y11.25
N2405 X52.67 Y11.56
N2406 X52.599 Y11.884
N2407 X52.496 Y12.22
N2408 X52.361 Y12.562
N2409 X52.192 Y12.906
N2410 X51.991 Y13.243
N2411 X51.759 Y13.57
N2412 X51.496 Y13.884
N2413 X51.2 Y14.184
N2414 X50.876 Y14.464
N2415 X50.528 Y14.719
N2416 X50.159 Y14.946
N2417 X49.777 Y15.141
N2418 X49.387 Y15.302
N2419 X49.001 Y15.426
N2420 X48.631 Y15.513
N2421 X48.275 Y15.566
N2422 X47.936 Y15.59
N2423 X47.649 Y15.587
N2424 X47.38 Y15.562
N2425 X47.168 Y15.526
N2426 X46.954 Y15.471
N2427 X46.78 Y15.411
N2428 X46.604 Y15.334
N2429 X46.45 Y15.251
N2430 X46.353 Y15.188
N2431 X46.218 Y15.06
N2432 X46.141 Y14.891
N2433 X46.131 Y14.705
N2434 X46.191 Y14.529
N2435 X46.312 Y14.388
N2436 X46.313 Y14.275
N2437 Y13.624
N2438 G3 X46.341 Y13.504 I0.317 J0.011 F100.
N2439 X46.4 Y13.417 I0.289 J0.132 F150.
N2440 G1 X50.932 Y8.648
N2441 G3 X51.031 Y8.578 I0.23 J0.219
N2442 X51.151 Y8.549 I0.132 J0.289 F100.
N2443 G1 X51.96 F150.
N2444 X52.04 Y8.553
N2445 X52.189 Y8.572
N2446 X52.334 Y8.612
N2447 X52.472 Y8.67
N2448 X52.604 Y8.742
N2449 X52.728 Y8.826
N2450 X52.848 Y8.925
N2451 X52.963 Y9.036
N2452 X53.083 Y9.171
N2453 X53.197 Y9.323
N2454 X53.306 Y9.495
N2455 X53.412 Y9.698
N2456 X53.505 Y9.914
N2457 X53.586 Y10.156
N2458 X53.653 Y10.428
N2459 X53.701 Y10.72
N2460 X53.726 Y11.026
N2461 X53.727 Y11.359
N2462 X53.698 Y11.718
N2463 X53.638 Y12.095
N2464 X53.545 Y12.476
N2465 X53.416 Y12.863
N2466 X53.249 Y13.26
N2467 X53.041 Y13.659
N2468 X52.793 Y14.054
N2469 X52.505 Y14.439
N2470 X52.18 Y14.809
N2471 X51.82 Y15.157
N2472 X51.429 Y15.479
N2473 X51.011 Y15.77
N2474 X50.575 Y16.024
N2475 X50.127 Y16.239
N2476 X49.675 Y16.413
N2477 X49.225 Y16.546
N2478 X48.79 Y16.637
N2479 X48.376 Y16.69
N2480 X48. Y16.707
N2481 X47.65 Y16.695
N2482 X47.318 Y16.657
N2483 X47.011 Y16.596
N2484 X46.77 Y16.528
N2485 X46.54 Y16.442
N2486 X46.36 Y16.359
N2487 X46.214 Y16.275
N2488 X46.065 Y16.174
N2489 X45.939 Y16.073
N2490 X45.83 Y15.97
N2491 X45.731 Y15.858
N2492 X45.641 Y15.738
N2493 X45.562 Y15.611
N2494 X45.533 Y15.553
N2495 X45.461 Y15.335
N2496 X45.454 Y15.106
N2497 X45.513 Y14.884
N2498 X45.633 Y14.689
N2499 X45.804 Y14.536
N2500 X46.012 Y14.438
N2501 X46.238 Y14.404
N2502 X46.28 Y14.408 F100.
N2503 G2 X46.363 Y14.41 I0.051 J-0.313
N2504 X46.547 Y14.327 I-0.032 J-0.316 F150.
N2505 G1 X52.059 Y9.207
N2506 G2 X51.943 Y8.673 I-0.216 J-0.233
N2507 G3 X51.905 Y8.639 I0.02 J-0.06
N2508 X51.96 Y8.549 I0.057 J-0.027 F100.
N2509 G1 X52.835 F150.
N2510 X52.915 Y8.553
N2511 X53.064 Y8.57
N2512 X53.209 Y8.607
N2513 X53.349 Y8.662
N2514 X53.483 Y8.73
N2515 X53.609 Y8.81
N2516 X53.739 Y8.909
N2517 X53.863 Y9.02
N2518 X53.994 Y9.158
N2519 X54.12 Y9.314
N2520 X54.244 Y9.494
N2521 X54.364 Y9.706
N2522 X54.471 Y9.932
N2523 X54.568 Y10.191
N2524 X54.652 Y10.486
N2525 X54.714 Y10.797
N2526 X54.754 Y11.136
N2527 X54.768 Y11.509
N2528 X54.751 Y11.909
N2529 X54.699 Y12.327
N2530 X54.612 Y12.75
N2531 X54.482 Y13.193
N2532 X54.308 Y13.651
N2533 X54.086 Y14.115
N2534 X53.818 Y14.577
N2535 X53.504 Y15.031
N2536 X53.145 Y15.469
N2537 X52.746 Y15.885
N2538 X52.309 Y16.271
N2539 X51.84 Y16.622
N2540 X51.347 Y16.934
N2541 X50.836 Y17.202
N2542 X50.402 Y17.387
N2543 X50.301 Y17.422
N2544 X50.197 Y17.444
N2545 X50.091 Y17.451
N2546 X49.256
N2547 X48.819 Y17.465
N2548 X48.709 Y17.482
N2549 X48.673 Y17.489
N2550 X48.527 Y17.527
N2551 X48.483 Y17.543
N2552 X48.406 Y17.565
N2553 X48.144 Y17.622
N2554 X47.871 Y17.658
N2555 X47.588 Y17.672
N2556 X47.295 Y17.664
N2557 X47.007 Y17.632
N2558 X46.731 Y17.579
N2559 X46.465 Y17.505
N2560 X46.214 Y17.414
N2561 X45.981 Y17.306
N2562 X45.763 Y17.184
N2563 X45.56 Y17.047
N2564 X45.387 Y16.91
N2565 X45.233 Y16.766
N2566 X45.094 Y16.612
N2567 X44.988 Y16.475
N2568 X44.887 Y16.321
N2569 X44.804 Y16.167
N2570 X44.742 Y16.027
N2571 X44.688 Y15.872
N2572 X44.647 Y15.716
N2573 X44.621 Y15.568
N2574 X44.607 Y15.419
N2575 X44.606 Y15.264
N2576 X44.616 Y15.114
N2577 X44.623 Y15.073
N2578 X44.689 Y14.86
N2579 X44.812 Y14.674
N2580 X44.982 Y14.529
N2581 X45.185 Y14.437
N2582 X45.406 Y14.406
N2583 X45.51
N2584 G3 X45.631 Y14.434 I-0.011 J0.317 F100.
N2585 X45.709 Y14.485 I-0.132 J0.289 F150.
N2586 G1 X48.578 Y17.008
N2587 G3 X48.588 Y17.476 I-0.21 J0.238
N2588 X48.483 Y17.543 I-0.219 J-0.229 F100.
N2589 G1 X48.382 Y17.578 F150.
N2590 X48.236 Y17.65
N2591 X48.09 Y17.743
N2592 X48.044 Y17.774
N2593 X47.994 Y17.812
N2594 X47.944 Y17.843
N2595 X47.908 Y17.859
N2596 X47.871 Y17.87
N2597 X47.835 Y17.876
N2598 X47.799 Y17.878
N2599 X45.904
N2600 X45.823 Y17.874
N2601 X45.674 Y17.857
N2602 X45.526 Y17.827
N2603 X45.369 Y17.783
N2604 X45.206 Y17.722
N2605 X45.042 Y17.645
N2606 X44.88 Y17.553
N2607 X44.719 Y17.443
N2608 X44.564 Y17.318
N2609 X44.415 Y17.177
N2610 X44.275 Y17.02
N2611 X44.147 Y16.852
N2612 X44.032 Y16.673
N2613 X43.931 Y16.483
N2614 X43.845 Y16.285
N2615 X43.78 Y16.095
N2616 X43.734 Y15.913
N2617 X43.7 Y15.718
N2618 X43.686 Y15.551
N2619 X43.684 Y15.384
N2620 X43.697 Y15.211
N2621 X43.72 Y15.063
N2622 X43.731 Y15.016
N2623 X43.807 Y14.819
N2624 X43.932 Y14.648
N2625 X44.098 Y14.517
N2626 X44.293 Y14.434
N2627 X44.503 Y14.406
N2628 X45.406
N2629 G3 X45.527 Y14.434 I-0.011 J0.317 F100.
N2630 X45.708 Y14.668 I-0.132 J0.289 F150.
N2631 G1 X46.205 Y17.506
N2632 G3 X46.024 Y17.85 I-0.313 J0.055
N2633 X45.904 Y17.878 I-0.132 J-0.289 F100.
N2634 G1 X44.737 F150.
N2635 X44.657 Y17.874
N2636 X44.508 Y17.862
N2637 X44.361 Y17.832
N2638 X44.218 Y17.787
N2639 X44.08 Y17.728
N2640 X43.945 Y17.657
N2641 X43.805 Y17.568
N2642 X43.669 Y17.465
N2643 X43.532 Y17.342
N2644 X43.397 Y17.201
N2645 X43.27 Y17.044
N2646 X43.153 Y16.873
N2647 X43.047 Y16.689
N2648 X42.955 Y16.493
N2649 X42.877 Y16.285
N2650 X42.815 Y16.072
N2651 X42.777 Y15.881
N2652 X42.752 Y15.675
N2653 X42.745 Y15.495
N2654 X42.752 Y15.327
N2655 X42.774 Y15.148
N2656 X42.805 Y14.996
N2657 X42.81 Y14.978
N2658 X42.892 Y14.791
N2659 X43.018 Y14.631
N2660 X43.181 Y14.509
N2661 X43.37 Y14.432
N2662 X43.573 Y14.406
N2663 X44.503
N2664 G3 X44.624 Y14.434 I-0.011 J0.317 F100.
N2665 X44.808 Y14.697 I-0.132 J0.289 F150.
N2666 G1 X45.043 Y17.535
N2667 G3 X44.858 Y17.85 I-0.316 J0.026
N2668 X44.737 Y17.878 I-0.132 J-0.289 F100.
N2669 G1 X43.637 F150.
N2670 X43.557 Y17.874
N2671 X43.408 Y17.852
N2672 X43.264 Y17.812
N2673 X43.124 Y17.756
N2674 X42.991 Y17.688
N2675 X42.864 Y17.609
N2676 X42.73 Y17.51
N2677 X42.599 Y17.395
N2678 X42.471 Y17.263
N2679 X42.347 Y17.113
N2680 X42.228 Y16.943
N2681 X42.12 Y16.76
N2682 X42.026 Y16.564
N2683 X41.946 Y16.358
N2684 X41.882 Y16.142
N2685 X41.836 Y15.928
N2686 X41.811 Y15.736
N2687 X41.802 Y15.534
N2688 X41.807 Y15.364
N2689 X41.827 Y15.185
N2690 X41.859 Y15.02
N2691 X41.869 Y14.986
N2692 X41.95 Y14.797
N2693 X42.076 Y14.635
N2694 X42.24 Y14.51
N2695 X42.43 Y14.432
N2696 X42.633 Y14.406
N2697 X43.573
N2698 G3 X43.693 Y14.434 I-0.011 J0.317 F100.
N2699 X43.879 Y14.716 I-0.132 J0.289 F150.
N2700 G1 X43.943 Y17.554
N2701 G3 X43.757 Y17.85 I-0.317 J0.007
N2702 X43.637 Y17.878 I-0.132 J-0.289 F100.
N2703 G1 X42.697 F150.
N2704 X42.617 Y17.874
N2705 X42.468 Y17.856
N2706 X42.322 Y17.82
N2707 X42.182 Y17.767
N2708 X42.047 Y17.7
N2709 X41.919 Y17.622
N2710 X41.792 Y17.529
N2711 X41.661 Y17.416
N2712 X41.536 Y17.289
N2713 X41.412 Y17.141
N2714 X41.294 Y16.976
N2715 X41.185 Y16.793
N2716 X41.09 Y16.599
N2717 X41.009 Y16.393
N2718 X40.943 Y16.178
N2719 X40.895 Y15.961
N2720 X40.868 Y15.766
N2721 X40.857 Y15.559
N2722 X40.861 Y15.386
N2723 X40.88 Y15.207
N2724 X40.912 Y15.038
N2725 X40.925 Y14.991
N2726 X41.005 Y14.8
N2727 X41.131 Y14.637
N2728 X41.295 Y14.512
N2729 X41.486 Y14.433
N2730 X41.691 Y14.406
N2731 X42.633
N2732 G3 X42.754 Y14.434 I-0.011 J0.317 F100.
N2733 X42.94 Y14.716 I-0.132 J0.289 F150.
N2734 G1 X43.003 Y17.554
N2735 G3 X42.817 Y17.85 I-0.317 J0.007
N2736 X42.697 Y17.878 I-0.132 J-0.289 F100.
N2737 G1 X41.742 F150.
N2738 X41.662 Y17.874
N2739 X41.513 Y17.857
N2740 X41.367 Y17.82
N2741 X41.227 Y17.767
N2742 X41.093 Y17.7
N2743 X40.965 Y17.621
N2744 X40.841 Y17.53
N2745 X40.711 Y17.417
N2746 X40.584 Y17.288
N2747 X40.463 Y17.143
N2748 X40.347 Y16.978
N2749 X40.238 Y16.795
N2750 X40.143 Y16.6
N2751 X40.061 Y16.393
N2752 X39.996 Y16.177
N2753 X39.949 Y15.962
N2754 X39.923 Y15.764
N2755 X39.912 Y15.558
N2756 X39.917 Y15.385
N2757 X39.936 Y15.204
N2758 X39.968 Y15.036
N2759 X39.981 Y14.989
N2760 X40.061 Y14.799
N2761 X40.187 Y14.636
N2762 X40.351 Y14.511
N2763 X40.542 Y14.433
N2764 X40.746 Y14.406
N2765 X41.691
N2766 G3 X41.811 Y14.434 I-0.011 J0.317 F100.
N2767 X41.997 Y14.717 I-0.132 J0.289 F150.
N2768 G1 X42.048 Y17.555
N2769 G3 X41.863 Y17.85 I-0.317 J0.006
N2770 X41.742 Y17.878 I-0.132 J-0.289 F100.
N2771 G1 X40.802 F150.
N2772 X40.722 Y17.874
N2773 X40.572 Y17.858
N2774 X40.427 Y17.822
N2775 X40.286 Y17.77
N2776 X40.152 Y17.704
N2777 X40.024 Y17.626
N2778 X39.899 Y17.535
N2779 X39.769 Y17.423
N2780 X39.644 Y17.296
N2781 X39.522 Y17.151
N2782 X39.406 Y16.987
N2783 X39.297 Y16.805
N2784 X39.201 Y16.61
N2785 X39.119 Y16.405
N2786 X39.053 Y16.189
N2787 X39.005 Y15.972
N2788 X38.978 Y15.774
N2789 X38.967 Y15.566
N2790 X38.971 Y15.392
N2791 X38.99 Y15.212
N2792 X39.022 Y15.042
N2793 X39.035 Y14.992
N2794 X39.115 Y14.801
N2795 X39.241 Y14.637
N2796 X39.405 Y14.512
N2797 X39.596 Y14.433
N2798 X39.801 Y14.406
N2799 X40.746
N2800 G3 X40.867 Y14.434 I-0.011 J0.317 F100.
N2801 X41.053 Y14.717 I-0.132 J0.289 F150.
N2802 G1 X41.108 Y17.555
N2803 G3 X40.922 Y17.85 I-0.317 J0.006
N2804 X40.802 Y17.878 I-0.132 J-0.289 F100.
N2805 G1 X39.847 F150.
N2806 X39.767 Y17.874
N2807 X39.618 Y17.857
N2808 X39.472 Y17.82
N2809 X39.332 Y17.767
N2810 X39.198 Y17.7
N2811 X39.07 Y17.621
N2812 X38.947 Y17.53
N2813 X38.818 Y17.418
N2814 X38.691 Y17.289
N2815 X38.57 Y17.144
N2816 X38.455 Y16.98
N2817 X38.346 Y16.796
N2818 X38.251 Y16.601
N2819 X38.17 Y16.394
N2820 X38.105 Y16.177
N2821 X38.058 Y15.962
N2822 X38.032 Y15.764
N2823 X38.021 Y15.557
N2824 X38.026 Y15.384
N2825 X38.046 Y15.202
N2826 X38.078 Y15.035
N2827 X38.091 Y14.988
N2828 X38.171 Y14.798
N2829 X38.297 Y14.636
N2830 X38.461 Y14.511
N2831 X38.652 Y14.433
N2832 X38.856 Y14.406
N2833 X39.801
N2834 G3 X39.922 Y14.434 I-0.011 J0.317 F100.
N2835 X40.108 Y14.718 I-0.132 J0.289 F150.
N2836 G1 X40.153 Y17.556
N2837 G3 X39.968 Y17.85 I-0.317 J0.005
N2838 X39.847 Y17.878 I-0.132 J-0.289 F100.
N2839 G1 X38.907 F150.
N2840 X38.827 Y17.874
N2841 X38.677 Y17.858
N2842 X38.532 Y17.822
N2843 X38.391 Y17.769
N2844 X38.257 Y17.703
N2845 X38.129 Y17.624
N2846 X38.005 Y17.533
N2847 X37.875 Y17.421
N2848 X37.75 Y17.294
N2849 X37.629 Y17.149
N2850 X37.512 Y16.985
N2851 X37.404 Y16.802
N2852 X37.308 Y16.607
N2853 X37.227 Y16.401
N2854 X37.161 Y16.185
N2855 X37.114 Y15.968
N2856 X37.087 Y15.771
N2857 X37.076 Y15.563
N2858 X37.081 Y15.389
N2859 X37.1 Y15.208
N2860 X37.132 Y15.039
N2861 X37.145 Y14.99
N2862 X37.225 Y14.8
N2863 X37.351 Y14.637
N2864 X37.515 Y14.511
N2865 X37.706 Y14.433
N2866 X37.911 Y14.406
N2867 X38.856
N2868 G3 X38.977 Y14.434 I-0.011 J0.317 F100.
N2869 X39.162 Y14.718 I-0.132 J0.289 F150.
N2870 G1 X39.213 Y17.555
N2871 G3 X39.027 Y17.85 I-0.317 J0.006
N2872 X38.907 Y17.878 I-0.132 J-0.289 F100.
N2873 G1 X37.952 F150.
N2874 X37.872 Y17.874
N2875 X37.723 Y17.856
N2876 X37.578 Y17.819
N2877 X37.437 Y17.766
N2878 X37.303 Y17.698
N2879 X37.176 Y17.619
N2880 X37.053 Y17.528
N2881 X36.923 Y17.415
N2882 X36.797 Y17.285
N2883 X36.677 Y17.14
N2884 X36.561 Y16.976
N2885 X36.453 Y16.792
N2886 X36.358 Y16.596
N2887 X36.277 Y16.389
N2888 X36.213 Y16.172
N2889 X36.167 Y15.957
N2890 X36.141 Y15.759
N2891 X36.13 Y15.552
N2892 X36.136 Y15.379
N2893 X36.156 Y15.198
N2894 X36.188 Y15.031
N2895 X36.201 Y14.987
N2896 X36.281 Y14.797
N2897 X36.407 Y14.635
N2898 X36.571 Y14.511
N2899 X36.761 Y14.433
N2900 X36.965 Y14.406
N2901 X37.911
N2902 G3 X38.031 Y14.434 I-0.011 J0.317 F100.
N2903 X38.217 Y14.719 I-0.132 J0.289 F150.
N2904 G1 X38.258 Y17.556
N2905 G3 X38.073 Y17.85 I-0.317 J0.005
N2906 X37.952 Y17.878 I-0.132 J-0.289 F100.
N2907 G1 X37.012 F150.
N2908 X36.932 Y17.874
N2909 X36.783 Y17.857
N2910 X36.637 Y17.821
N2911 X36.497 Y17.768
N2912 X36.362 Y17.701
N2913 X36.235 Y17.622
N2914 X36.111 Y17.531
N2915 X35.981 Y17.418
N2916 X35.856 Y17.29
N2917 X35.735 Y17.145
N2918 X35.618 Y16.98
N2919 X35.51 Y16.797
N2920 X35.415 Y16.602
N2921 X35.334 Y16.396
N2922 X35.269 Y16.179
N2923 X35.222 Y15.962
N2924 X35.196 Y15.765
N2925 X35.185 Y15.558
N2926 X35.19 Y15.384
N2927 X35.21 Y15.203
N2928 X35.242 Y15.035
N2929 X35.255 Y14.988
N2930 X35.335 Y14.799
N2931 X35.461 Y14.636
N2932 X35.625 Y14.511
N2933 X35.816 Y14.433
N2934 X36.02 Y14.406
N2935 X36.965
N2936 G3 X37.086 Y14.434 I-0.011 J0.317 F100.
N2937 X37.272 Y14.718 I-0.132 J0.289 F150.
N2938 G1 X37.318 Y17.556
N2939 G3 X37.132 Y17.85 I-0.317 J0.005
N2940 X37.012 Y17.878 I-0.132 J-0.289 F100.
N2941 G1 X36.057 F150.
N2942 X35.977 Y17.874
N2943 X35.828 Y17.856
N2944 X35.683 Y17.818
N2945 X35.543 Y17.764
N2946 X35.409 Y17.697
N2947 X35.282 Y17.617
N2948 X35.158 Y17.525
N2949 X35.029 Y17.412
N2950 X34.903 Y17.282
N2951 X34.782 Y17.136
N2952 X34.667 Y16.971
N2953 X34.559 Y16.787
N2954 X34.465 Y16.59
N2955 X34.384 Y16.383
N2956 X34.32 Y16.166
N2957 X34.275 Y15.951
N2958 X34.249 Y15.753
N2959 X34.24 Y15.547
N2960 X34.245 Y15.375
N2961 X34.266 Y15.193
N2962 X34.299 Y15.026
N2963 X34.31 Y14.985
N2964 X34.391 Y14.796
N2965 X34.517 Y14.634
N2966 X34.681 Y14.51
N2967 X34.871 Y14.432
N2968 X35.074 Y14.406
N2969 X36.02
N2970 G3 X36.141 Y14.434 I-0.011 J0.317 F100.
N2971 X36.326 Y14.719 I-0.132 J0.289 F150.
N2972 G1 X36.363 Y17.557
N2973 G3 X36.178 Y17.85 I-0.317 J0.004
N2974 X36.057 Y17.878 I-0.132 J-0.289 F100.
N2975 G1 X35.117 F150.
N2976 X35.037 Y17.874
N2977 X34.888 Y17.857
N2978 X34.742 Y17.82
N2979 X34.602 Y17.766
N2980 X34.468 Y17.699
N2981 X34.34 Y17.62
N2982 X34.216 Y17.528
N2983 X34.086 Y17.415
N2984 X33.962 Y17.287
N2985 X33.84 Y17.14
N2986 X33.724 Y16.975
N2987 X33.616 Y16.791
N2988 X33.522 Y16.596
N2989 X33.441 Y16.39
N2990 X33.377 Y16.173
N2991 X33.33 Y15.956
N2992 X33.304 Y15.759
N2993 X33.294 Y15.552
N2994 X33.3 Y15.379
N2995 X33.32 Y15.198
N2996 X33.352 Y15.03
N2997 X33.364 Y14.987
N2998 X33.445 Y14.797
N2999 X33.571 Y14.635
N3000 X33.735 Y14.511
N3001 X33.925 Y14.433
N3002 X34.129 Y14.406
N3003 X35.074
N3004 G3 X35.195 Y14.434 I-0.011 J0.317 F100.
N3005 X35.381 Y14.718 I-0.132 J0.289 F150.
N3006 G1 X35.423 Y17.556
N3007 G3 X35.237 Y17.85 I-0.317 J0.005
N3008 X35.117 Y17.878 I-0.132 J-0.289 F100.
N3009 G1 X34.162 F150.
N3010 X34.082 Y17.874
N3011 X33.933 Y17.855
N3012 X33.788 Y17.817
N3013 X33.648 Y17.763
N3014 X33.514 Y17.695
N3015 X33.387 Y17.615
N3016 X33.264 Y17.523
N3017 X33.134 Y17.409
N3018 X33.008 Y17.278
N3019 X32.888 Y17.132
N3020 X32.773 Y16.966
N3021 X32.665 Y16.781
N3022 X32.571 Y16.585
N3023 X32.492 Y16.377
N3024 X32.428 Y16.16
N3025 X32.383 Y15.945
N3026 X32.358 Y15.747
N3027 X32.349 Y15.542
N3028 X32.355 Y15.37
N3029 X32.376 Y15.188
N3030 X32.409 Y15.022
N3031 X32.42 Y14.983
N3032 X32.501 Y14.795
N3033 X32.627 Y14.634
N3034 X32.79 Y14.51
N3035 X32.98 Y14.432
N3036 X33.183 Y14.406
N3037 X34.129
N3038 G3 X34.25 Y14.434 I-0.011 J0.317 F100.
N3039 X34.435 Y14.719 I-0.132 J0.289 F150.
N3040 G1 X34.468 Y17.557
N3041 G3 X34.283 Y17.85 I-0.317 J0.004
N3042 X34.162 Y17.878 I-0.132 J-0.289 F100.
N3043 G1 X33.222 F150.
N3044 X33.142 Y17.874
N3045 X32.993 Y17.856
N3046 X32.847 Y17.819
N3047 X32.707 Y17.765
N3048 X32.574 Y17.697
N3049 X32.446 Y17.618
N3050 X32.322 Y17.525
N3051 X32.192 Y17.411
N3052 X32.067 Y17.283
N3053 X31.946 Y17.136
N3054 X31.83 Y16.97
N3055 X31.722 Y16.786
N3056 X31.628 Y16.59
N3057 X31.548 Y16.384
N3058 X31.484 Y16.167
N3059 X31.438 Y15.95
N3060 X31.413 Y15.753
N3061 X31.403 Y15.547
N3062 X31.409 Y15.374
N3063 X31.429 Y15.193
N3064 X31.462 Y15.026
N3065 X31.474 Y14.985
N3066 X31.554 Y14.796
N3067 X31.681 Y14.634
N3068 X31.844 Y14.51
N3069 X32.034 Y14.432
N3070 X32.238 Y14.406
N3071 X33.183
N3072 G3 X33.304 Y14.434 I-0.011 J0.317 F100.
N3073 X33.49 Y14.719 I-0.132 J0.289 F150.
N3074 G1 X33.528 Y17.556
N3075 G3 X33.342 Y17.85 I-0.317 J0.004
N3076 X33.222 Y17.878 I-0.132 J-0.289 F100.
N3077 G1 X32.267 F150.
N3078 X32.187 Y17.874
N3079 X32.038 Y17.855
N3080 X31.893 Y17.816
N3081 X31.753 Y17.761
N3082 X31.62 Y17.693
N3083 X31.493 Y17.613
N3084 X31.369 Y17.52
N3085 X31.305 Y17.463
N3086 X31.242 Y17.403
N3087 X31.117 Y17.273
N3088 X30.997 Y17.127
N3089 X30.882 Y16.962
N3090 X30.775 Y16.778
N3091 X30.681 Y16.582
N3092 X30.601 Y16.375
N3093 X30.537 Y16.158
N3094 X30.493 Y15.944
N3095 X30.481 Y15.856
N3096 X30.475 Y15.749
N3097 X30.483 Y15.642
N3098 X30.506 Y15.537
N3099 G3 X30.566 Y15.429 I0.302 J0.098 F100.
N3100 X31.062 Y15.445 I0.241 J0.206 F150.
N3101 G1 X32.51 Y17.37
N3102 G3 X32.388 Y17.85 I-0.254 J0.191
N3103 X32.267 Y17.878 I-0.132 J-0.289 F100.
N3104 G1 X31.327 F150.
N3105 X31.188 Y17.871
N3106 X31.115 Y17.858
N3107 X30.915 Y17.793
N3108 X30.738 Y17.679
N3109 X30.597 Y17.523
N3110 X30.5 Y17.336
N3111 G3 X30.485 Y17.213 I0.302 J-0.098 F100.
N3112 X30.97 Y16.969 I0.317 J0.025 F150.
N3113 G1 X31.484 Y17.292
N3114 G3 X31.447 Y17.85 I-0.169 J0.269
N3115 X31.327 Y17.878 I-0.132 J-0.289 F100.
N3116 G1 X30.89 F150.
N3117 X30.853 Y17.875
N3118 X30.817 Y17.867
N3119 X30.78 Y17.855
N3120 X30.744 Y17.838
N3121 X30.7 Y17.81
N3122 X30.678 Y17.793
N3123 X30.656 Y17.774
N3124 X30.622 Y17.734
N3125 X30.598 Y17.695
N3126 X30.583 Y17.662
N3127 X30.572 Y17.628
N3128 X30.54 Y17.482
N3129 X30.5 Y17.336
N3130 X30.447 Y17.19
N3131 X30.386 Y17.045
N3132 X30.318 Y16.899
N3133 X30.236 Y16.753
N3134 X30.177 Y16.607
N3135 X30.161 Y16.561
N3136 X30.15 Y16.511
N3137 X30.147 Y16.462
N3138 X30.149 Y16.4
N3139 X30.161 Y16.338
N3140 X30.168 Y16.316
N3141 X30.224 Y16.17
N3142 X30.306 Y16.024
N3143 X30.376 Y15.878
N3144 X30.452 Y15.69
N3145 X30.492 Y15.587
N3146 X30.533 Y15.441
N3147 X30.565 Y15.295
N3148 X30.58 Y15.15
N3149 X30.588 Y15.07
N3150 X30.618 Y14.923
N3151 X30.661 Y14.779
N3152 X30.692 Y14.699
N3153 X30.793 Y14.523
N3154 X30.943 Y14.386
N3155 X31.126 Y14.3
N3156 X31.327 Y14.273
N3157 X31.527 Y14.307
N3158 X31.707 Y14.4
N3159 X31.726 Y14.406
N3160 X32.238
N3161 G3 X32.358 Y14.434 I-0.011 J0.317 F100.
N3162 X32.325 Y15.025 I-0.132 J0.289 F150.
N3163 G1 X30.996 Y15.456
N3164 G3 X30.603 Y15.271 I-0.098 J-0.302
N3165 X30.58 Y15.15 I0.295 J-0.118 F100.
N3166 G1 X30.587 Y15.004 F150.
N3167 X30.588 Y14.486
N3168 X30.595 Y14.346
N3169 X30.637 Y14.202
N3170 X30.712 Y14.072
N3171 X30.811 Y13.959
N3172 X30.988 Y13.868
N3173 X31.185 Y13.846
N3174 X31.378 Y13.896
N3175 X31.539 Y14.013
N3176 X31.647 Y14.18
N3177 X31.688 Y14.375
N3178 G3 X31.129 Y14.577 I-0.317 J-0.004
N3179 G2 X30.69 Y14.534 I-0.242 J0.206
N3180 G3 X30.588 Y14.486 I-0.039 J-0.05
N3181 G1 Y13.983
N3182 X30.594 Y13.862
N3183 X30.644 Y13.721
N3184 X30.729 Y13.597
N3185 X30.89 Y13.499
N3186 X31.073 Y13.457
N3187 X31.26 Y13.476
N3188 X31.432 Y13.554
N3189 X31.569 Y13.683
N3190 X31.657 Y13.849
N3191 X31.688 Y14.035
N3192 G3 X31.681 Y14.086 I-0.275 J-0.01 F100.
N3193 X31.66 Y14.156 I-0.54 J-0.122
N3194 X30.606 Y14.106 I-0.519 J-0.192 F150.
N3195 X30.588 Y13.983 I0.535 J-0.142 F100.
N3196 G1 Y13.575 F150.
N3197 X30.594 Y13.462
N3198 X30.644 Y13.321
N3199 X30.795 Y13.181
N3200 X30.985 Y13.102
N3201 X31.191 Y13.095
N3202 X31.386 Y13.161
N3203 X31.546 Y13.29
N3204 X31.651 Y13.467
N3205 X31.688 Y13.67
N3206 G3 X31.669 Y13.76 I-0.274 J-0.01 F100.
N3207 G1 X31.657 Y13.789
N3208 G3 X30.606 Y13.699 I-0.509 J-0.233 F150.
N3209 X30.588 Y13.575 I0.542 J-0.143 F100.
N3210 G1 Y13.21 F150.
N3211 X30.594 Y13.095
N3212 X30.644 Y12.953
N3213 X30.733 Y12.833
N3214 X30.896 Y12.739
N3215 X31.08 Y12.702
N3216 X31.266 Y12.725
N3217 X31.435 Y12.805
N3218 X31.571 Y12.935
N3219 X31.658 Y13.101
N3220 X31.688 Y13.287
N3221 Y13.67
N3222 G3 X31.656 Y13.789 I-0.271 J-0.009 F100.
N3223 X31.46 Y13.928 I-0.239 J-0.129 F150.
N3224 X30.602 Y13.334 I-0.119 J-0.744
N3225 X30.588 Y13.21 I0.738 J-0.15 F100.
N3226 G1 Y12.817 F150.
N3227 X30.593 Y12.705
N3228 X30.645 Y12.564
N3229 X30.736 Y12.444
N3230 X30.897 Y12.349
N3231 X31.08 Y12.311
N3232 X31.266 Y12.332
N3233 X31.435 Y12.412
N3234 X31.57 Y12.541
N3235 X31.658 Y12.707
N3236 X31.688 Y12.891
N3237 Y13.287
N3238 G3 X31.655 Y13.406 I-0.271 J-0.009 F100.
N3239 X31.454 Y13.546 I-0.239 J-0.129 F150.
N3240 X30.602 Y12.941 I-0.104 J-0.755
N3241 X30.588 Y12.817 I0.747 J-0.15 F100.
N3242 G1 Y12.445 F150.
N3243 X30.594 Y12.328
N3244 X30.641 Y12.186
N3245 X30.728 Y12.064
N3246 X30.889 Y11.965
N3247 X31.072 Y11.923
N3248 X31.26 Y11.942
N3249 X31.431 Y12.02
N3250 X31.569 Y12.149
N3251 X31.657 Y12.315
N3252 X31.688 Y12.501
N3253 Y12.891
N3254 G3 X31.656 Y13.011 I-0.271 J-0.009 F100.
N3255 X31.467 Y13.148 I-0.239 J-0.129 F150.
N3256 X30.603 Y12.569 I-0.138 J-0.729
N3257 X30.588 Y12.445 I0.727 J-0.15 F100.
N3258 G1 Y12.044 F150.
N3259 X30.594 Y11.93
N3260 X30.643 Y11.788
N3261 X30.733 Y11.668
N3262 X30.894 Y11.572
N3263 X31.077 Y11.532
N3264 X31.264 Y11.552
N3265 X31.434 Y11.631
N3266 X31.57 Y11.76
N3267 X31.658 Y11.926
N3268 X31.688 Y12.111
N3269 Y12.501
N3270 G3 X31.656 Y12.62 I-0.271 J-0.009 F100.
N3271 X31.461 Y12.759 I-0.239 J-0.129 F150.
N3272 X30.602 Y12.168 I-0.122 J-0.741
N3273 X30.588 Y12.044 I0.736 J-0.15 F100.
N3274 G1 Y11.651 F150.
N3275 X30.594 Y11.537
N3276 X30.644 Y11.396
N3277 X30.734 Y11.276
N3278 X30.895 Y11.18
N3279 X31.078 Y11.141
N3280 X31.264 Y11.161
N3281 X31.434 Y11.24
N3282 X31.57 Y11.37
N3283 X31.658 Y11.535
N3284 X31.688 Y11.72
N3285 Y12.111
N3286 G3 X31.656 Y12.23 I-0.271 J-0.009 F100.
N3287 X31.459 Y12.369 I-0.239 J-0.129 F150.
N3288 X30.602 Y11.774 I-0.118 J-0.745
N3289 X30.588 Y11.651 I0.739 J-0.15 F100.
N3290 G1 Y11.243 F150.
N3291 X30.593 Y11.134
N3292 X30.647 Y10.994
N3293 X30.8 Y10.857
N3294 X30.991 Y10.782
N3295 X31.196 Y10.778
N3296 X31.39 Y10.845
N3297 X31.548 Y10.975
N3298 X31.652 Y11.152
N3299 X31.688 Y11.354
N3300 Y11.72
N3301 G3 X31.655 Y11.839 I-0.271 J-0.009 F100.
N3302 X31.45 Y11.98 I-0.238 J-0.129 F150.
N3303 X30.602 Y11.367 I-0.093 J-0.763
N3304 X30.588 Y11.243 I0.754 J-0.151 F100.
N3305 G1 Y10.878 F150.
N3306 X30.593 Y10.766
N3307 X30.648 Y10.626
N3308 X30.739 Y10.507
N3309 X30.902 Y10.416
N3310 X31.085 Y10.381
N3311 X31.27 Y10.406
N3312 X31.438 Y10.487
N3313 X31.572 Y10.618
N3314 X31.658 Y10.783
N3315 X31.688 Y10.967
N3316 Y11.354
N3317 G3 X31.655 Y11.473 I-0.271 J-0.009 F100.
N3318 X31.451 Y11.613 I-0.238 J-0.129 F150.
N3319 X30.602 Y11.001 I-0.095 J-0.762
N3320 X30.588 Y10.878 I0.753 J-0.151 F100.
N3321 G1 Y10.514 F150.
N3322 X30.594 Y10.397
N3323 X30.641 Y10.255
N3324 X30.729 Y10.133
N3325 X30.89 Y10.035
N3326 X31.073 Y9.994
N3327 X31.261 Y10.013
N3328 X31.432 Y10.092
N3329 X31.569 Y10.221
N3330 X31.657 Y10.387
N3331 X31.688 Y10.573
N3332 Y10.967
N3333 G3 X31.656 Y11.087 I-0.271 J-0.009 F100.
N3334 X31.463 Y11.225 I-0.239 J-0.129 F150.
N3335 X30.603 Y10.638 I-0.127 J-0.737
N3336 X30.588 Y10.514 I0.733 J-0.15 F100.
N3337 G1 Y10.113 F150.
N3338 X30.594 Y9.999
N3339 X30.644 Y9.858
N3340 X30.734 Y9.738
N3341 X30.895 Y9.642
N3342 X31.078 Y9.603
N3343 X31.264 Y9.623
N3344 X31.434 Y9.702
N3345 X31.57 Y9.832
N3346 X31.658 Y9.997
N3347 X31.688 Y10.182
N3348 Y10.573
N3349 G3 X31.656 Y10.692 I-0.271 J-0.009 F100.
N3350 X31.459 Y10.831 I-0.239 J-0.129 F150.
N3351 X30.602 Y10.236 I-0.118 J-0.745
N3352 X30.588 Y10.113 I0.739 J-0.15 F100.
N3353 G1 Y9.712 F150.
N3354 X30.593 Y9.6
N3355 X30.646 Y9.46
N3356 X30.798 Y9.322
N3357 X30.989 Y9.246
N3358 X31.194 Y9.241
N3359 X31.388 Y9.307
N3360 X31.547 Y9.437
N3361 X31.652 Y9.614
N3362 X31.688 Y9.816
N3363 Y10.182
N3364 G3 X31.655 Y10.301 I-0.271 J-0.009 F100.
N3365 X31.453 Y10.441 I-0.239 J-0.129 F150.
N3366 X30.602 Y9.835 I-0.103 J-0.756
N3367 X30.588 Y9.712 I0.748 J-0.15 F100.
N3368 G1 Y9.348 F150.
N3369 X30.594 Y9.234
N3370 X30.646 Y9.094
N3371 X30.736 Y8.974
N3372 X30.899 Y8.881
N3373 X31.082 Y8.845
N3374 X31.268 Y8.869
N3375 X31.437 Y8.95
N3376 X31.571 Y9.08
N3377 X31.658 Y9.246
N3378 X31.688 Y9.431
N3379 Y9.816
N3380 G3 X31.655 Y9.935 I-0.271 J-0.009 F100.
N3381 X31.455 Y10.075 I-0.239 J-0.129 F150.
N3382 X30.602 Y9.472 I-0.107 J-0.753
N3383 X30.588 Y9.348 I0.746 J-0.15 F100.
N3384 G1 Y8.952 F150.
N3385 X30.593 Y8.842
N3386 X30.647 Y8.701
N3387 X30.799 Y8.564
N3388 X30.99 Y8.489
N3389 X31.195 Y8.484
N3390 X31.389 Y8.551
N3391 X31.548 Y8.681
N3392 X31.652 Y8.857
N3393 X31.688 Y9.059
N3394 Y9.431
N3395 G3 X31.655 Y9.55 I-0.271 J-0.009 F100.
N3396 X31.449 Y9.691 I-0.238 J-0.129 F150.
N3397 X30.602 Y9.076 I-0.091 J-0.766
N3398 X30.588 Y8.952 I0.756 J-0.151 F100.
N3399 G1 Y8.619 F150.
N3400 X30.594 Y8.498
N3401 X30.639 Y8.355
N3402 X30.725 Y8.232
N3403 X30.886 Y8.134
N3404 X31.071 Y8.093
N3405 X31.259 Y8.112
N3406 X31.431 Y8.191
N3407 X31.568 Y8.321
N3408 X31.657 Y8.488
N3409 X31.688 Y8.675
N3410 Y9.059
N3411 G3 X31.656 Y9.179 I-0.271 J-0.009 F100.
N3412 X31.47 Y9.316 I-0.239 J-0.129 F150.
N3413 X30.603 Y8.743 I-0.146 J-0.723
N3414 X30.588 Y8.619 I0.722 J-0.149 F100.
N3415 G1 Y8.218 F150.
N3416 X30.594 Y8.103
N3417 X30.642 Y7.961
N3418 X30.732 Y7.84
N3419 X30.892 Y7.743
N3420 X31.076 Y7.703
N3421 X31.263 Y7.723
N3422 X31.433 Y7.802
N3423 X31.569 Y7.931
N3424 X31.657 Y8.097
N3425 X31.688 Y8.282
N3426 Y8.675
N3427 G3 X31.656 Y8.794 I-0.271 J-0.009 F100.
N3428 X31.461 Y8.933 I-0.239 J-0.129 F150.
N3429 X30.602 Y8.341 I-0.122 J-0.742
N3430 X30.588 Y8.218 I0.737 J-0.15 F100.
N3431 G1 Y7.816 F150.
N3432 X30.593 Y7.704
N3433 X30.645 Y7.563
N3434 X30.797 Y7.425
N3435 X30.987 Y7.347
N3436 X31.193 Y7.341
N3437 X31.387 Y7.407
N3438 X31.547 Y7.536
N3439 X31.651 Y7.713
N3440 X31.688 Y7.916
N3441 Y8.282
N3442 G3 X31.656 Y8.401 I-0.271 J-0.009 F100.
N3443 X31.456 Y8.541 I-0.239 J-0.129 F150.
N3444 X30.602 Y7.94 I-0.11 J-0.751
N3445 X30.588 Y7.816 I0.744 J-0.15 F100.
N3446 G1 Y7.453 F150.
N3447 X30.594 Y7.338
N3448 X30.645 Y7.197
N3449 X30.734 Y7.076
N3450 X30.897 Y6.984
N3451 X31.081 Y6.947
N3452 X31.267 Y6.97
N3453 X31.436 Y7.051
N3454 X31.571 Y7.181
N3455 X31.658 Y7.347
N3456 X31.688 Y7.532
N3457 Y7.916
N3458 G3 X31.656 Y8.035 I-0.271 J-0.009 F100.
N3459 X31.458 Y8.174 I-0.239 J-0.129 F150.
N3460 X30.602 Y7.576 I-0.113 J-0.748
N3461 X30.588 Y7.453 I0.742 J-0.15 F100.
N3462 G1 Y7.057 F150.
N3463 X30.593 Y6.946
N3464 X30.646 Y6.805
N3465 X30.798 Y6.667
N3466 X30.989 Y6.591
N3467 X31.194 Y6.586
N3468 X31.388 Y6.652
N3469 X31.547 Y6.782
N3470 X31.652 Y6.959
N3471 X31.688 Y7.161
N3472 Y7.532
N3473 G3 X31.655 Y7.651 I-0.271 J-0.009 F100.
N3474 X31.451 Y7.791 I-0.238 J-0.129 F150.
N3475 X30.602 Y7.18 I-0.096 J-0.761
N3476 X30.588 Y7.057 I0.753 J-0.15 F100.
N3477 G1 Y6.694 F150.
N3478 X30.594 Y6.58
N3479 X30.646 Y6.439
N3480 X30.735 Y6.319
N3481 X30.898 Y6.227
N3482 X31.082 Y6.191
N3483 X31.268 Y6.214
N3484 X31.437 Y6.295
N3485 X31.571 Y6.425
N3486 X31.658 Y6.591
N3487 X31.688 Y6.776
N3488 Y7.161
N3489 G3 X31.655 Y7.28 I-0.271 J-0.009 F100.
N3490 X31.456 Y7.419 I-0.239 J-0.129 F150.
N3491 X30.602 Y6.818 I-0.109 J-0.752
N3492 X30.588 Y6.694 I0.745 J-0.15 F100.
N3493 G1 Y6.322 F150.
N3494 X30.594 Y6.206
N3495 X30.641 Y6.064
N3496 X30.729 Y5.942
N3497 X30.89 Y5.844
N3498 X31.074 Y5.803
N3499 X31.261 Y5.822
N3500 X31.432 Y5.901
N3501 X31.569 Y6.03
N3502 X31.657 Y6.196
N3503 X31.688 Y6.382
N3504 Y6.776
N3505 G3 X31.656 Y6.895 I-0.271 J-0.009 F100.
N3506 X31.463 Y7.034 I-0.239 J-0.129 F150.
N3507 X30.603 Y6.446 I-0.127 J-0.737
N3508 X30.588 Y6.322 I0.733 J-0.15 F100.
N3509 G1 Y5.921 F150.
N3510 X30.594 Y5.808
N3511 X30.644 Y5.667
N3512 X30.795 Y5.527
N3513 X30.985 Y5.448
N3514 X31.191 Y5.441
N3515 X31.386 Y5.507
N3516 X31.546 Y5.636
N3517 X31.651 Y5.813
N3518 X31.688 Y6.016
N3519 Y6.382
N3520 G3 X31.656 Y6.501 I-0.271 J-0.009 F100.
N3521 X31.459 Y6.64 I-0.239 J-0.129 F150.
N3522 X30.602 Y6.045 I-0.117 J-0.745
N3523 X30.588 Y5.921 I0.739 J-0.15 F100.
N3524 G1 Y5.557 F150.
N3525 X30.594 Y5.442
N3526 X30.644 Y5.3
N3527 X30.733 Y5.179
N3528 X30.895 Y5.086
N3529 X31.079 Y5.048
N3530 X31.266 Y5.071
N3531 X31.435 Y5.151
N3532 X31.571 Y5.281
N3533 X31.658 Y5.448
N3534 X31.688 Y5.633
N3535 Y6.016
N3536 G3 X31.656 Y6.135 I-0.271 J-0.009 F100.
N3537 X31.46 Y6.274 I-0.239 J-0.129 F150.
N3538 X30.602 Y5.681 I-0.121 J-0.743
N3539 X30.588 Y5.557 I0.737 J-0.15 F100.
N3540 G1 Y5.156 F150.
N3541 X30.593 Y5.046
N3542 X30.646 Y4.905
N3543 X30.799 Y4.768
N3544 X30.989 Y4.692
N3545 X31.194 Y4.687
N3546 X31.389 Y4.753
N3547 X31.548 Y4.883
N3548 X31.652 Y5.06
N3549 X31.688 Y5.262
N3550 Y5.633
N3551 G3 X31.655 Y5.752 I-0.271 J-0.009 F100.
N3552 X31.45 Y5.892 I-0.238 J-0.129 F150.
N3553 X30.602 Y5.28 I-0.094 J-0.763
N3554 X30.588 Y5.156 I0.754 J-0.151 F100.
N3555 G1 Y4.799 F150.
N3556 X30.594 Y4.684
N3557 X30.644 Y4.543
N3558 X30.734 Y4.422
N3559 X30.896 Y4.329
N3560 X31.08 Y4.292
N3561 X31.266 Y4.315
N3562 X31.436 Y4.396
N3563 X31.571 Y4.526
N3564 X31.658 Y4.692
N3565 X31.688 Y4.877
N3566 Y5.262
N3567 G3 X31.656 Y5.381 I-0.271 J-0.009 F100.
N3568 X31.458 Y5.52 I-0.239 J-0.129 F150.
N3569 X30.602 Y4.923 I-0.114 J-0.748
N3570 X30.588 Y4.799 I0.741 J-0.15 F100.
N3571 G1 Y4.391 F150.
N3572 X30.593 Y4.283
N3573 X30.648 Y4.143
N3574 X30.802 Y4.008
N3575 X30.993 Y3.934
N3576 X31.197 Y3.93
N3577 X31.391 Y3.998
N3578 X31.549 Y4.128
N3579 X31.652 Y4.305
N3580 X31.688 Y4.506
N3581 Y4.877
N3582 G3 X31.655 Y4.996 I-0.271 J-0.009 F100.
N3583 X31.445 Y5.137 I-0.238 J-0.129 F150.
N3584 X30.602 Y4.515 I-0.08 J-0.773
N3585 X30.588 Y4.391 I0.763 J-0.151 F100.
N3586 G1 Y4.026 F150.
N3587 X30.593 Y3.915
N3588 X30.648 Y3.776
N3589 X30.74 Y3.657
N3590 X30.903 Y3.567
N3591 X31.086 Y3.533
N3592 X31.271 Y3.558
N3593 X31.439 Y3.639
N3594 X31.572 Y3.769
N3595 X31.658 Y3.935
N3596 X31.688 Y4.119
N3597 Y4.506
N3598 G3 X31.655 Y4.625 I-0.271 J-0.009 F100.
N3599 X31.448 Y4.766 I-0.238 J-0.129 F150.
N3600 X30.602 Y4.15 I-0.089 J-0.767
N3601 X30.588 Y4.026 I0.757 J-0.151 F100.
N3602 G1 Y3.662 F150.
N3603 X30.594 Y3.546
N3604 X30.642 Y3.404
N3605 X30.73 Y3.283
N3606 X30.891 Y3.186
N3607 X31.075 Y3.145
N3608 X31.262 Y3.165
N3609 X31.432 Y3.243
N3610 X31.569 Y3.372
N3611 X31.657 Y3.538
N3612 X31.688 Y3.724
N3613 Y4.119
N3614 G3 X31.656 Y4.238 I-0.271 J-0.009 F100.
N3615 X31.461 Y4.377 I-0.239 J-0.129 F150.
N3616 X30.603 Y3.786 I-0.123 J-0.741
N3617 X30.588 Y3.662 I0.736 J-0.15 F100.
N3618 G1 Y3.261 F150.
N3619 X30.594 Y3.148
N3620 X30.644 Y3.007
N3621 X30.796 Y2.868
N3622 X30.986 Y2.79
N3623 X31.192 Y2.783
N3624 X31.387 Y2.849
N3625 X31.547 Y2.978
N3626 X31.651 Y3.155
N3627 X31.688 Y3.358
N3628 Y3.724
