(1001)
(T2  D=3.175 CR=1.587 - ZMIN=-7.998 - BALL END MILL)
(T7  D=3.175 CR=0. - ZMIN=-8.4 - FLAT END MILL)
(T8  D=2. CR=1. - ZMIN=-8.093 - BALL END MILL)
G0 G90 G94 G17
G21
G53 Z0.

(BORE1)
M5
M9
T7 M6
M3 S8000
G54
M8
G0 Z15
G0 X4.554 Y17.953
Z15.
Z1.682
G1 Z0. F100.
X4.395
G3 X4.314 Y17.872 I0. J-0.081
X4.639 Z-0.5 I0.162 J0. F150.
X4.314 Z-1. I-0.162 J0.
X4.639 Z-1.5 I0.162 J0.
X4.314 Z-2. I-0.162 J0.
X4.639 Z-2.5 I0.162 J0.
X4.314 Z-3. I-0.162 J0.
X4.639 Z-3.5 I0.162 J0.
X4.314 Z-4. I-0.162 J0.
X4.639 Z-4.5 I0.162 J0.
X4.314 Z-5. I-0.162 J0.
X4.639 Z-5.5 I0.162 J0.
X4.314 Z-6. I-0.162 J0.
X4.639 Z-6.5 I0.162 J0.
X4.314 Z-7. I-0.162 J0.
X4.639 Z-7.5 I0.162 J0.
X4.314 Z-8. I-0.162 J0.
X4.639 I0.162 J0.
X4.314 I-0.162 J0.
X4.395 Y17.79 I0.081 J0. F100.
G1 X4.554
G0 Z5.
Y30.21
Z1.682
G1 Z0. F100.
X4.395
G3 X4.314 Y30.128 I0. J-0.081
X4.639 Z-0.5 I0.162 J0. F150.
X4.314 Z-1. I-0.162 J0.
X4.639 Z-1.5 I0.162 J0.
X4.314 Z-2. I-0.162 J0.
X4.639 Z-2.5 I0.162 J0.
X4.314 Z-3. I-0.162 J0.
X4.639 Z-3.5 I0.162 J0.
X4.314 Z-4. I-0.162 J0.
X4.639 Z-4.5 I0.162 J0.
X4.314 Z-5. I-0.162 J0.
X4.639 Z-5.5 I0.162 J0.
X4.314 Z-6. I-0.162 J0.
X4.639 Z-6.5 I0.162 J0.
X4.314 Z-7. I-0.162 J0.
X4.639 Z-7.5 I0.162 J0.
X4.314 Z-8. I-0.162 J0.
X4.639 I0.162 J0.
X4.314 I-0.162 J0.
X4.395 Y30.047 I0.081 J0. F100.
G1 X4.554
G0 Z15.
G53 Z0.

(POCKET2)
M5
M9
M1
T8 M6
M3 S8000
G54
M8
G0 X22.213 Y31.869
Z11.
Z3.01
G1 Z2.3 F50.
X22.195 Y31.866 Z2.216 F100.
G3 X22.145 Y31.851 Z2.148 I0.046 J-0.246
X22.08 Y31.812 Z2.107 I0.095 J-0.231
G1 X22.047 Y31.779 Z2.1
G3 X22.433 Y31.461 Z2.073 I0.193 J-0.159
X22.047 Y31.779 Z2.045 I-0.193 J0.159
X22.433 Y31.461 Z2.018 I0.193 J-0.159
X22.047 Y31.779 Z1.99 I-0.193 J0.159
X22.433 Y31.461 Z1.963 I0.193 J-0.159
X22.047 Y31.779 Z1.935 I-0.193 J0.159
X22.433 Y31.461 Z1.908 I0.193 J-0.159
X22.047 Y31.779 Z1.881 I-0.193 J0.159
X22.433 Y31.461 Z1.853 I0.193 J-0.159
X22.047 Y31.779 Z1.826 I-0.193 J0.159
X22.433 Y31.461 Z1.798 I0.193 J-0.159
X22.047 Y31.779 Z1.771 I-0.193 J0.159
X22.433 Y31.461 Z1.743 I0.193 J-0.159
X22.047 Y31.779 Z1.716 I-0.193 J0.159
X22.433 Y31.461 Z1.689 I0.193 J-0.159
X22.047 Y31.779 Z1.661 I-0.193 J0.159
X22.433 Y31.461 Z1.634 I0.193 J-0.159
X22.047 Y31.779 Z1.606 I-0.193 J0.159
X22.433 Y31.461 Z1.579 I0.193 J-0.159
X22.047 Y31.779 Z1.551 I-0.193 J0.159
X22.433 Y31.461 Z1.524 I0.193 J-0.159
X22.047 Y31.779 Z1.497 I-0.193 J0.159
X22.433 Y31.461 Z1.469 I0.193 J-0.159
X22.047 Y31.779 Z1.442 I-0.193 J0.159
X22.433 Y31.461 Z1.414 I0.193 J-0.159
X22.047 Y31.779 Z1.387 I-0.193 J0.159
X22.433 Y31.461 Z1.359 I0.193 J-0.159
X22.047 Y31.779 Z1.332 I-0.193 J0.159
X22.433 Y31.461 Z1.305 I0.193 J-0.159
X22.047 Y31.779 Z1.277 I-0.193 J0.159
X22.433 Y31.461 Z1.25 I0.193 J-0.159
X22.047 Y31.779 Z1.222 I-0.193 J0.159
X22.433 Y31.461 Z1.195 I0.193 J-0.159
X22.047 Y31.779 Z1.167 I-0.193 J0.159
X22.433 Y31.461 Z1.14 I0.193 J-0.159
X22.047 Y31.779 Z1.113 I-0.193 J0.159
X22.433 Y31.461 Z1.085 I0.193 J-0.159
X22.047 Y31.779 Z1.058 I-0.193 J0.159
X22.433 Y31.461 Z1.03 I0.193 J-0.159
X22.047 Y31.779 Z1.003 I-0.193 J0.159
X22.433 Y31.461 Z0.976 I0.193 J-0.159
X22.047 Y31.779 Z0.948 I-0.193 J0.159
X22.433 Y31.461 Z0.921 I0.193 J-0.159
X22.047 Y31.779 Z0.893 I-0.193 J0.159
X22.433 Y31.461 Z0.866 I0.193 J-0.159
X22.047 Y31.779 Z0.838 I-0.193 J0.159
X22.433 Y31.461 Z0.811 I0.193 J-0.159
X22.047 Y31.779 Z0.784 I-0.193 J0.159
X22.433 Y31.461 Z0.756 I0.193 J-0.159
X22.047 Y31.779 Z0.729 I-0.193 J0.159
X22.433 Y31.461 Z0.701 I0.193 J-0.159
X22.047 Y31.779 Z0.674 I-0.193 J0.159
X22.433 Y31.461 Z0.646 I0.193 J-0.159
X22.047 Y31.779 Z0.619 I-0.193 J0.159
X22.433 Y31.461 Z0.592 I0.193 J-0.159
X22.047 Y31.779 Z0.564 I-0.193 J0.159
X22.433 Y31.461 Z0.537 I0.193 J-0.159
X22.047 Y31.779 Z0.509 I-0.193 J0.159
X22.433 Y31.461 Z0.482 I0.193 J-0.159
X22.047 Y31.779 Z0.454 I-0.193 J0.159
X22.433 Y31.461 Z0.427 I0.193 J-0.159
X22.047 Y31.779 Z0.4 I-0.193 J0.159
X22.433 Y31.461 Z0.372 I0.193 J-0.159
X22.047 Y31.779 Z0.345 I-0.193 J0.159
X22.433 Y31.461 Z0.317 I0.193 J-0.159
X22.047 Y31.779 Z0.29 I-0.193 J0.159
X22.433 Y31.461 Z0.262 I0.193 J-0.159
X22.047 Y31.779 Z0.235 I-0.193 J0.159
X22.433 Y31.461 Z0.208 I0.193 J-0.159
X22.047 Y31.779 Z0.18 I-0.193 J0.159
X22.433 Y31.461 Z0.153 I0.193 J-0.159
X22.047 Y31.779 Z0.125 I-0.193 J0.159
X22.433 Y31.461 Z0.098 I0.193 J-0.159
X22.047 Y31.779 Z0.07 I-0.193 J0.159
X22.433 Y31.461 Z0.043 I0.193 J-0.159
X22.047 Y31.779 Z0.016 I-0.193 J0.159
X22.433 Y31.461 Z-0.012 I0.193 J-0.159
X22.047 Y31.779 Z-0.039 I-0.193 J0.159
X22.433 Y31.461 Z-0.067 I0.193 J-0.159
X22.047 Y31.779 Z-0.094 I-0.193 J0.159
X22.433 Y31.461 Z-0.122 I0.193 J-0.159
X22.047 Y31.779 Z-0.149 I-0.193 J0.159
X22.433 Y31.461 Z-0.176 I0.193 J-0.159
X22.047 Y31.779 Z-0.204 I-0.193 J0.159
X22.433 Y31.461 Z-0.231 I0.193 J-0.159
X22.047 Y31.779 Z-0.259 I-0.193 J0.159
X22.433 Y31.461 Z-0.286 I0.193 J-0.159
X22.047 Y31.779 Z-0.314 I-0.193 J0.159
X22.433 Y31.461 Z-0.341 I0.193 J-0.159
X22.047 Y31.779 Z-0.368 I-0.193 J0.159
X22.433 Y31.461 Z-0.396 I0.193 J-0.159
X22.047 Y31.779 Z-0.423 I-0.193 J0.159
X22.433 Y31.461 Z-0.451 I0.193 J-0.159
X22.047 Y31.779 Z-0.478 I-0.193 J0.159
X22.433 Y31.461 Z-0.506 I0.193 J-0.159
X22.047 Y31.779 Z-0.533 I-0.193 J0.159
X22.433 Y31.461 Z-0.56 I0.193 J-0.159
X22.047 Y31.779 Z-0.588 I-0.193 J0.159
X22.433 Y31.461 Z-0.615 I0.193 J-0.159
X22.047 Y31.779 Z-0.643 I-0.193 J0.159
X22.433 Y31.461 Z-0.67 I0.193 J-0.159
X22.047 Y31.779 Z-0.698 I-0.193 J0.159
X22.433 Y31.461 Z-0.725 I0.193 J-0.159
X22.047 Y31.779 Z-0.752 I-0.193 J0.159
X22.433 Y31.461 Z-0.78 I0.193 J-0.159
X22.047 Y31.779 Z-0.807 I-0.193 J0.159
X22.433 Y31.461 Z-0.835 I0.193 J-0.159
X22.047 Y31.779 Z-0.862 I-0.193 J0.159
X22.433 Y31.461 Z-0.89 I0.193 J-0.159
X22.047 Y31.779 Z-0.917 I-0.193 J0.159
X22.433 Y31.461 Z-0.944 I0.193 J-0.159
X22.047 Y31.779 Z-0.972 I-0.193 J0.159
X22.433 Y31.461 Z-0.999 I0.193 J-0.159
X22.08 Y31.812 Z-1.025 I-0.193 J0.159
G2 X22.003 Y31.756 I-0.508 J0.611 F75.
G3 X21.92 Y31.701 I2.517 J-3.906
X21.933 Y31.391 I0.102 J-0.151
G2 X22.017 Y31.334 I-0.299 J-0.534
X22.096 Y31.269 I-2.189 J-2.719
G3 X22.502 Y31.266 I0.205 J0.24
G1 X22.584 Y31.335
G2 X22.665 Y31.391 I0.36 J-0.433
G3 X22.669 Y31.708 I-0.091 J0.16
G2 X22.592 Y31.76 I0.522 J0.864
X22.519 Y31.817 I0.998 J1.352
G3 X22.083 Y31.815 I-0.217 J-0.263
G1 X22.08 Y31.812
G2 X21.484 Y31.818 I-0.295 J0.355
G3 X20.925 Y32.026 I-0.559 J-0.647
G1 X17.893
X17.85 Y31.985
Y31.118
X17.893 Y31.074
X18.021
X21.146 Y31.073
X21.319 Y31.049
X21.493 Y30.992
X21.667 Y30.895
X21.813 Y30.77
X21.919 Y30.641
X22.016 Y30.464
X22.074 Y30.289
X22.099 Y30.114
X22.1 Y26.034
X22.133 Y26.
X22.466
X22.5 Y26.034
X22.502 Y30.114
X22.527 Y30.289
X22.584 Y30.464
X22.671 Y30.624
X22.797 Y30.779
X22.944 Y30.902
X23.1 Y30.989
X23.274 Y31.047
X23.404 Y31.069
X29.958 Y31.074
X30. Y31.118
Y31.985
X29.958 Y32.026
X23.404 Y32.031
X23.23 Y32.064
X23.057 Y32.132
X22.926 Y32.211
X22.818 Y32.3
X22.709 Y32.422
X22.621 Y32.56
X22.548 Y32.735
X22.509 Y32.909
X22.5 Y33.084
Y35.006
X22.466 Y35.05
X22.133
X22.1 Y35.006
X22.099 Y32.997
X22.08 Y32.84
X22.042 Y32.701
X21.955 Y32.516
X21.862 Y32.385
X21.721 Y32.246
X21.58 Y32.151
X21.406 Y32.075
X21.232 Y32.035
X20.972 Y32.026
X20.925
G3 X20.85 Y32.012 Z-1.01 I0. J-0.2
X20.795 Y31.978 Z-0.966 I0.075 J-0.186
G1 X20.765 Y31.947 Z-0.902
X20.757 Y31.934 Z-0.825
G0 Z3.01
X22.48 Y31.691
G1 Z1.409 F50.
X22.482 Y31.706 Z1.334 F100.
X22.485 Y31.747 Z1.27
G3 X22.477 Y31.809 Z1.226 I-0.25 J-0.002
X22.448 Y31.877 Z1.209 I-0.242 J-0.064
X22.023 Y31.613 Z1.182 I-0.212 J-0.132
X22.448 Y31.877 Z1.154 I0.212 J0.132
X22.023 Y31.613 Z1.127 I-0.212 J-0.132
X22.448 Y31.877 Z1.099 I0.212 J0.132
X22.023 Y31.613 Z1.072 I-0.212 J-0.132
X22.448 Y31.877 Z1.044 I0.212 J0.132
X22.023 Y31.613 Z1.017 I-0.212 J-0.132
X22.448 Y31.877 Z0.99 I0.212 J0.132
X22.023 Y31.613 Z0.962 I-0.212 J-0.132
X22.448 Y31.877 Z0.935 I0.212 J0.132
X22.023 Y31.613 Z0.907 I-0.212 J-0.132
X22.448 Y31.877 Z0.88 I0.212 J0.132
X22.023 Y31.613 Z0.852 I-0.212 J-0.132
X22.448 Y31.877 Z0.825 I0.212 J0.132
X22.023 Y31.613 Z0.798 I-0.212 J-0.132
X22.448 Y31.877 Z0.77 I0.212 J0.132
X22.023 Y31.613 Z0.743 I-0.212 J-0.132
X22.448 Y31.877 Z0.715 I0.212 J0.132
X22.023 Y31.613 Z0.688 I-0.212 J-0.132
X22.448 Y31.877 Z0.66 I0.212 J0.132
X22.023 Y31.613 Z0.633 I-0.212 J-0.132
X22.448 Y31.877 Z0.606 I0.212 J0.132
X22.023 Y31.613 Z0.578 I-0.212 J-0.132
X22.448 Y31.877 Z0.551 I0.212 J0.132
X22.023 Y31.613 Z0.523 I-0.212 J-0.132
X22.448 Y31.877 Z0.496 I0.212 J0.132
X22.023 Y31.613 Z0.468 I-0.212 J-0.132
X22.448 Y31.877 Z0.441 I0.212 J0.132
X22.023 Y31.613 Z0.414 I-0.212 J-0.132
X22.448 Y31.877 Z0.386 I0.212 J0.132
X22.023 Y31.613 Z0.359 I-0.212 J-0.132
X22.448 Y31.877 Z0.331 I0.212 J0.132
X22.023 Y31.613 Z0.304 I-0.212 J-0.132
X22.448 Y31.877 Z0.276 I0.212 J0.132
X22.023 Y31.613 Z0.249 I-0.212 J-0.132
X22.448 Y31.877 Z0.222 I0.212 J0.132
X22.023 Y31.613 Z0.194 I-0.212 J-0.132
X22.448 Y31.877 Z0.167 I0.212 J0.132
X22.023 Y31.613 Z0.139 I-0.212 J-0.132
X22.448 Y31.877 Z0.112 I0.212 J0.132
X22.023 Y31.613 Z0.084 I-0.212 J-0.132
X22.448 Y31.877 Z0.057 I0.212 J0.132
X22.023 Y31.613 Z0.03 I-0.212 J-0.132
X22.448 Y31.877 Z0.002 I0.212 J0.132
X22.023 Y31.613 Z-0.025 I-0.212 J-0.132
X22.448 Y31.877 Z-0.053 I0.212 J0.132
X22.023 Y31.613 Z-0.08 I-0.212 J-0.132
X22.448 Y31.877 Z-0.108 I0.212 J0.132
X22.023 Y31.613 Z-0.135 I-0.212 J-0.132
X22.448 Y31.877 Z-0.162 I0.212 J0.132
X22.023 Y31.613 Z-0.19 I-0.212 J-0.132
X22.448 Y31.877 Z-0.217 I0.212 J0.132
X22.023 Y31.613 Z-0.245 I-0.212 J-0.132
X22.448 Y31.877 Z-0.272 I0.212 J0.132
X22.023 Y31.613 Z-0.299 I-0.212 J-0.132
X22.448 Y31.877 Z-0.327 I0.212 J0.132
X22.023 Y31.613 Z-0.354 I-0.212 J-0.132
X22.448 Y31.877 Z-0.382 I0.212 J0.132
X22.023 Y31.613 Z-0.409 I-0.212 J-0.132
X22.448 Y31.877 Z-0.437 I0.212 J0.132
X22.023 Y31.613 Z-0.464 I-0.212 J-0.132
X22.448 Y31.877 Z-0.491 I0.212 J0.132
X22.023 Y31.613 Z-0.519 I-0.212 J-0.132
X22.448 Y31.877 Z-0.546 I0.212 J0.132
X22.023 Y31.613 Z-0.574 I-0.212 J-0.132
X22.448 Y31.877 Z-0.601 I0.212 J0.132
X22.023 Y31.613 Z-0.629 I-0.212 J-0.132
X22.448 Y31.877 Z-0.656 I0.212 J0.132
X22.023 Y31.613 Z-0.683 I-0.212 J-0.132
X22.448 Y31.877 Z-0.711 I0.212 J0.132
X22.023 Y31.613 Z-0.738 I-0.212 J-0.132
X22.448 Y31.877 Z-0.766 I0.212 J0.132
X22.023 Y31.613 Z-0.793 I-0.212 J-0.132
X22.448 Y31.877 Z-0.821 I0.212 J0.132
X22.023 Y31.613 Z-0.848 I-0.212 J-0.132
X22.448 Y31.877 Z-0.875 I0.212 J0.132
X22.023 Y31.613 Z-0.903 I-0.212 J-0.132
X22.448 Y31.877 Z-0.93 I0.212 J0.132
X22.023 Y31.613 Z-0.958 I-0.212 J-0.132
X22.448 Y31.877 Z-0.985 I0.212 J0.132
X22.023 Y31.613 Z-1.013 I-0.212 J-0.132
X22.448 Y31.877 Z-1.04 I0.212 J0.132
X22.023 Y31.613 Z-1.067 I-0.212 J-0.132
X22.448 Y31.877 Z-1.095 I0.212 J0.132
X22.023 Y31.613 Z-1.122 I-0.212 J-0.132
X22.448 Y31.877 Z-1.15 I0.212 J0.132
X22.023 Y31.613 Z-1.177 I-0.212 J-0.132
X22.448 Y31.877 Z-1.205 I0.212 J0.132
X22.023 Y31.613 Z-1.232 I-0.212 J-0.132
X22.448 Y31.877 Z-1.259 I0.212 J0.132
X22.023 Y31.613 Z-1.287 I-0.212 J-0.132
X22.448 Y31.877 Z-1.314 I0.212 J0.132
X22.023 Y31.613 Z-1.342 I-0.212 J-0.132
X22.448 Y31.877 Z-1.369 I0.212 J0.132
X22.023 Y31.613 Z-1.397 I-0.212 J-0.132
X22.448 Y31.877 Z-1.424 I0.212 J0.132
X22.023 Y31.613 Z-1.451 I-0.212 J-0.132
X22.448 Y31.877 Z-1.479 I0.212 J0.132
X22.023 Y31.613 Z-1.506 I-0.212 J-0.132
X22.448 Y31.877 Z-1.534 I0.212 J0.132
X22.023 Y31.613 Z-1.561 I-0.212 J-0.132
X22.448 Y31.877 Z-1.589 I0.212 J0.132
X22.023 Y31.613 Z-1.616 I-0.212 J-0.132
X22.448 Y31.877 Z-1.643 I0.212 J0.132
X22.023 Y31.613 Z-1.671 I-0.212 J-0.132
X22.448 Y31.877 Z-1.698 I0.212 J0.132
X22.023 Y31.613 Z-1.726 I-0.212 J-0.132
X22.448 Y31.877 Z-1.753 I0.212 J0.132
X22.023 Y31.613 Z-1.781 I-0.212 J-0.132
X22.448 Y31.877 Z-1.808 I0.212 J0.132
X22.023 Y31.613 Z-1.835 I-0.212 J-0.132
X22.448 Y31.877 Z-1.863 I0.212 J0.132
X22.023 Y31.613 Z-1.89 I-0.212 J-0.132
X22.448 Y31.877 Z-1.918 I0.212 J0.132
X22.023 Y31.613 Z-1.945 I-0.212 J-0.132
X22.448 Y31.877 Z-1.973 I0.212 J0.132
X22.023 Y31.613 Z-2. I-0.212 J-0.132
X22.448 Y31.877 Z-2.027 I0.212 J0.132
X21.985 Y31.743 Z-2.05 I-0.212 J-0.132
G1 X21.988 Y31.306 F75.
X22.014 Y31.182
X22.075 Y30.769
X22.098 Y30.551
X22.1 Y26.034
X22.133 Y26.
X22.466
X22.5 Y26.034
X22.502 Y30.551
X22.553 Y30.988
X22.615 Y31.337
Y31.774
X22.539 Y32.211
X22.502 Y32.56
X22.5 Y35.006
X22.466 Y35.05
X22.133
X22.1 Y35.006
X22.099 Y32.56
X22.04 Y32.064
X21.985 Y31.774
Y31.743
G3 X22. Y31.669 Z-2.035 I0.2 J0.001
X22.034 Y31.614 Z-1.991 I0.185 J0.076
G1 X22.066 Y31.584 Z-1.927
X22.078 Y31.576 Z-1.85
G0 Z3.01
X22.33 Y35.05
G1 Z2.3 F50.
G18 G3 X22.137 Z2.1 I-0.2 K0. F100.
G1 X22.133
X22.1 Y35.006 Z2.098
Y28.09 Z1.856
X22.133 Y28.05 Z1.855
X22.466 Z1.843
X22.5 Y28.09 Z1.841
Y35.006 Z1.6
X22.466 Y35.05 Z1.598
X22.133 Z1.586
X22.1 Y35.006 Z1.584
Y28.09 Z1.343
X22.133 Y28.05 Z1.341
X22.466 Z1.329
X22.5 Y28.09 Z1.327
Y35.006 Z1.086
X22.466 Y35.05 Z1.084
X22.133 Z1.072
X22.1 Y35.006 Z1.07
Y28.09 Z0.829
X22.133 Y28.05 Z0.827
X22.466 Z0.815
X22.5 Y28.09 Z0.814
Y35.006 Z0.572
X22.466 Y35.05 Z0.57
X22.133 Z0.559
X22.1 Y35.006 Z0.557
Y28.09 Z0.315
X22.133 Y28.05 Z0.313
X22.466 Z0.302
X22.5 Y28.09 Z0.3
Y35.006 Z0.058
X22.466 Y35.05 Z0.056
X22.133 Z0.045
X22.1 Y35.006 Z0.043
Y28.09 Z-0.199
X22.133 Y28.05 Z-0.201
X22.466 Z-0.212
X22.5 Y28.09 Z-0.214
Y35.006 Z-0.455
X22.466 Y35.05 Z-0.457
X22.133 Z-0.469
X22.1 Y35.006 Z-0.471
Y28.09 Z-0.712
X22.133 Y28.05 Z-0.714
X22.466 Z-0.726
X22.5 Y28.09 Z-0.728
Y35.006 Z-0.969
X22.466 Y35.05 Z-0.971
X22.133 Z-0.983
X22.1 Y35.006 Z-0.985
Y28.09 Z-1.226
X22.133 Y28.05 Z-1.228
X22.466 Z-1.24
X22.5 Y28.09 Z-1.242
Y35.006 Z-1.483
X22.466 Y35.05 Z-1.485
X22.133 Z-1.497
X22.1 Y35.006 Z-1.499
Y28.09 Z-1.74
X22.133 Y28.05 Z-1.742
X22.466 Z-1.753
X22.5 Y28.09 Z-1.755
Y35.006 Z-1.997
X22.466 Y35.05 Z-1.999
X22.133 Z-2.01
X22.1 Y35.006 Z-2.012
Y28.09 Z-2.254
X22.133 Y28.05 Z-2.256
X22.466 Z-2.267
X22.5 Y28.09 Z-2.269
Y35.006 Z-2.511
X22.466 Y35.05 Z-2.513
X22.133 Z-2.524
X22.1 Y35.006 Z-2.526
Y28.09 Z-2.768
X22.133 Y28.05 Z-2.769
X22.466 Z-2.781
X22.5 Y28.09 Z-2.783
Y35.006 Z-3.024
X22.466 Y35.05 Z-3.026
X22.133 Z-3.038
X22.1 Y35.006 Z-3.04
Y28.09 Z-3.281
X22.133 Y28.05 Z-3.283
X22.466 Z-3.295
X22.5 Y28.09 Z-3.297
Y35.006 Z-3.538
X22.466 Y35.05 Z-3.54
X22.133 Z-3.552
X22.1 Y35.006 Z-3.554
Y28.09 Z-3.795
X22.133 Y28.05 Z-3.797
X22.466 Z-3.809
X22.5 Y28.09 Z-3.81
Y34.95 Z-4.05
Y35.006 F75.
X22.466 Y35.05
X22.133
X22.1 Y35.006
Y28.09
X22.133 Y28.05
X22.466
X22.5 Y28.09
Y34.95
Z-3.85
G0 Z3.01
X22.1 Y33.68
G1 Z2.3 F50.
G19 G2 Y33.487 Z2.1 J-0.2 K0. F100.
G1 Y28.09 Z1.912
X22.133 Y28.05 Z1.91
X22.466 Z1.898
X22.5 Y28.09 Z1.896
Y35.006 Z1.655
X22.466 Y35.05 Z1.653
X22.133 Z1.641
X22.1 Y35.006 Z1.639
Y28.09 Z1.398
X22.133 Y28.05 Z1.396
X22.466 Z1.384
X22.5 Y28.09 Z1.383
Y35.006 Z1.141
X22.466 Y35.05 Z1.139
X22.133 Z1.127
X22.1 Y35.006 Z1.125
Y28.09 Z0.884
X22.133 Y28.05 Z0.882
X22.466 Z0.871
X22.5 Y28.09 Z0.869
Y35.006 Z0.627
X22.466 Y35.05 Z0.625
X22.133 Z0.614
X22.1 Y35.006 Z0.612
Y28.09 Z0.37
X22.133 Y28.05 Z0.368
X22.466 Z0.357
X22.5 Y28.09 Z0.355
Y35.006 Z0.113
X22.466 Y35.05 Z0.111
X22.133 Z0.1
X22.1 Y35.006 Z0.098
Y28.09 Z-0.144
X22.133 Y28.05 Z-0.145
X22.466 Z-0.157
X22.5 Y28.09 Z-0.159
Y35.006 Z-0.4
X22.466 Y35.05 Z-0.402
X22.133 Z-0.414
X22.1 Y35.006 Z-0.416
Y28.09 Z-0.657
X22.133 Y28.05 Z-0.659
X22.466 Z-0.671
X22.5 Y28.09 Z-0.673
Y35.006 Z-0.914
X22.466 Y35.05 Z-0.916
X22.133 Z-0.928
X22.1 Y35.006 Z-0.93
Y28.09 Z-1.171
X22.133 Y28.05 Z-1.173
X22.466 Z-1.185
X22.5 Y28.09 Z-1.186
Y35.006 Z-1.428
X22.466 Y35.05 Z-1.43
X22.133 Z-1.441
X22.1 Y35.006 Z-1.443
Y28.09 Z-1.685
X22.133 Y28.05 Z-1.687
X22.466 Z-1.698
X22.5 Y28.09 Z-1.7
Y35.006 Z-1.942
X22.466 Y35.05 Z-1.944
X22.133 Z-1.955
X22.1 Y35.006 Z-1.957
Y28.09 Z-2.199
X22.133 Y28.05 Z-2.201
X22.466 Z-2.212
X22.5 Y28.09 Z-2.214
Y35.006 Z-2.455
X22.466 Y35.05 Z-2.457
X22.133 Z-2.469
X22.1 Y35.006 Z-2.471
Y28.09 Z-2.712
X22.133 Y28.05 Z-2.714
X22.466 Z-2.726
X22.5 Y28.09 Z-2.728
Y35.006 Z-2.969
X22.466 Y35.05 Z-2.971
X22.133 Z-2.983
X22.1 Y35.006 Z-2.985
Y28.09 Z-3.226
X22.133 Y28.05 Z-3.228
X22.466 Z-3.24
X22.5 Y28.09 Z-3.242
Y35.006 Z-3.483
X22.466 Y35.05 Z-3.485
X22.133 Z-3.497
X22.1 Y35.006 Z-3.499
Y28.09 Z-3.74
X22.133 Y28.05 Z-3.742
X22.466 Z-3.753
X22.5 Y28.09 Z-3.755
Y35.006 Z-3.997
X22.466 Y35.05 Z-3.999
X22.133 Z-4.01
X22.1 Y35.006 Z-4.012
Y28.09 Z-4.254
X22.133 Y28.05 Z-4.256
X22.466 Z-4.267
X22.5 Y28.09 Z-4.269
Y35.006 Z-4.511
X22.466 Y35.05 Z-4.513
X22.133 Z-4.524
X22.1 Y35.006 Z-4.526
Y28.09 Z-4.768
X22.133 Y28.05 Z-4.769
X22.466 Z-4.781
X22.5 Y28.09 Z-4.783
Y35.006 Z-5.024
X22.466 Y35.05 Z-5.026
X22.133 Z-5.038
X22.1 Y35.006 Z-5.04
Y28.09 Z-5.281
X22.133 Y28.05 Z-5.283
X22.466 Z-5.295
X22.5 Y28.09 Z-5.297
Y35.006 Z-5.538
X22.466 Y35.05 Z-5.54
X22.133 Z-5.552
X22.1 Y35.006 Z-5.554
Y28.09 Z-5.795
X22.133 Y28.05 Z-5.797
X22.466 Z-5.809
X22.5 Y28.09 Z-5.81
Y34.95 Z-6.05
Y35.006 F75.
X22.466 Y35.05
X22.133
X22.1 Y35.006
Y28.09
X22.133 Y28.05
X22.466
X22.5 Y28.09
Y34.95
Z-5.85
G0 Z3.01
X22.1 Y30.669
G1 Z2.3 F50.
G2 Y30.476 Z2.1 J-0.2 K0. F100.
G1 Y28.09 Z2.017
X22.133 Y28.05 Z2.015
X22.466 Z2.003
X22.5 Y28.09 Z2.001
Y35.006 Z1.76
X22.466 Y35.05 Z1.758
X22.133 Z1.746
X22.1 Y35.006 Z1.744
Y28.09 Z1.503
X22.133 Y28.05 Z1.501
X22.466 Z1.489
X22.5 Y28.09 Z1.488
Y35.006 Z1.246
X22.466 Y35.05 Z1.244
X22.133 Z1.233
X22.1 Y35.006 Z1.231
Y28.09 Z0.989
X22.133 Y28.05 Z0.987
X22.466 Z0.976
X22.5 Y28.09 Z0.974
Y35.006 Z0.732
X22.466 Y35.05 Z0.73
X22.133 Z0.719
X22.1 Y35.006 Z0.717
Y28.09 Z0.475
X22.133 Y28.05 Z0.474
X22.466 Z0.462
X22.5 Y28.09 Z0.46
Y35.006 Z0.219
X22.466 Y35.05 Z0.217
X22.133 Z0.205
X22.1 Y35.006 Z0.203
Y28.09 Z-0.038
X22.133 Y28.05 Z-0.04
X22.466 Z-0.052
X22.5 Y28.09 Z-0.054
Y35.006 Z-0.295
X22.466 Y35.05 Z-0.297
X22.133 Z-0.309
X22.1 Y35.006 Z-0.311
Y28.09 Z-0.552
X22.133 Y28.05 Z-0.554
X22.466 Z-0.566
X22.5 Y28.09 Z-0.567
Y35.006 Z-0.809
X22.466 Y35.05 Z-0.811
X22.133 Z-0.823
X22.1 Y35.006 Z-0.825
Y28.09 Z-1.066
X22.133 Y28.05 Z-1.068
X22.466 Z-1.079
X22.5 Y28.09 Z-1.081
Y35.006 Z-1.323
X22.466 Y35.05 Z-1.325
X22.133 Z-1.336
X22.1 Y35.006 Z-1.338
Y28.09 Z-1.58
X22.133 Y28.05 Z-1.582
X22.466 Z-1.593
X22.5 Y28.09 Z-1.595
Y35.006 Z-1.837
X22.466 Y35.05 Z-1.839
X22.133 Z-1.85
X22.1 Y35.006 Z-1.852
Y28.09 Z-2.094
X22.133 Y28.05 Z-2.095
X22.466 Z-2.107
X22.5 Y28.09 Z-2.109
Y35.006 Z-2.35
X22.466 Y35.05 Z-2.352
X22.133 Z-2.364
X22.1 Y35.006 Z-2.366
Y28.09 Z-2.607
X22.133 Y28.05 Z-2.609
X22.466 Z-2.621
X22.5 Y28.09 Z-2.623
Y35.006 Z-2.864
X22.466 Y35.05 Z-2.866
X22.133 Z-2.878
X22.1 Y35.006 Z-2.88
Y28.09 Z-3.121
X22.133 Y28.05 Z-3.123
X22.466 Z-3.135
X22.5 Y28.09 Z-3.136
Y35.006 Z-3.378
X22.466 Y35.05 Z-3.38
X22.133 Z-3.391
X22.1 Y35.006 Z-3.393
Y28.09 Z-3.635
X22.133 Y28.05 Z-3.637
X22.466 Z-3.648
X22.5 Y28.09 Z-3.65
Y35.006 Z-3.892
X22.466 Y35.05 Z-3.894
X22.133 Z-3.905
X22.1 Y35.006 Z-3.907
Y28.09 Z-4.149
X22.133 Y28.05 Z-4.151
X22.466 Z-4.162
X22.5 Y28.09 Z-4.164
Y35.006 Z-4.405
X22.466 Y35.05 Z-4.407
X22.133 Z-4.419
X22.1 Y35.006 Z-4.421
Y28.09 Z-4.662
X22.133 Y28.05 Z-4.664
X22.466 Z-4.676
X22.5 Y28.09 Z-4.678
Y35.006 Z-4.919
X22.466 Y35.05 Z-4.921
X22.133 Z-4.933
X22.1 Y35.006 Z-4.935
Y28.09 Z-5.176
X22.133 Y28.05 Z-5.178
X22.466 Z-5.19
X22.5 Y28.09 Z-5.192
Y35.006 Z-5.433
X22.466 Y35.05 Z-5.435
X22.133 Z-5.447
X22.1 Y35.006 Z-5.449
Y28.09 Z-5.69
X22.133 Y28.05 Z-5.692
X22.466 Z-5.703
X22.5 Y28.09 Z-5.705
Y35.006 Z-5.947
X22.466 Y35.05 Z-5.949
X22.133 Z-5.96
X22.1 Y35.006 Z-5.962
Y28.09 Z-6.204
X22.133 Y28.05 Z-6.206
X22.466 Z-6.217
X22.5 Y28.09 Z-6.219
Y35.006 Z-6.461
X22.466 Y35.05 Z-6.463
X22.133 Z-6.474
X22.1 Y35.006 Z-6.476
Y28.09 Z-6.718
X22.133 Y28.05 Z-6.719
X22.466 Z-6.731
X22.5 Y28.09 Z-6.733
Y35.006 Z-6.974
X22.466 Y35.05 Z-6.976
X22.133 Z-6.988
X22.1 Y35.006 Z-6.99
Y28.09 Z-7.231
X22.133 Y28.05 Z-7.233
X22.466 Z-7.245
X22.5 Y28.09 Z-7.247
Y35.006 Z-7.488
X22.466 Y35.05 Z-7.49
X22.133 Z-7.502
X22.1 Y35.006 Z-7.504
Y28.09 Z-7.745
X22.133 Y28.05 Z-7.747
X22.466 Z-7.759
X22.5 Y28.09 Z-7.76
Y34.95 Z-8.
Y35.006 F75.
X22.466 Y35.05
X22.133
X22.1 Y35.006
Y28.09
X22.133 Y28.05
X22.466
X22.5 Y28.09
Y34.95
Z-7.8
G0 Z3.01
X22.384 Y16.131
G1 Z2.3 F50.
X22.402 Y16.133 Z2.216 F100.
G17 G3 X22.452 Y16.148 Z2.148 I-0.046 J0.246
X22.516 Y16.187 Z2.107 I-0.095 J0.231
G1 X22.55 Y16.22 Z2.1
G3 X22.164 Y16.538 Z2.073 I-0.193 J0.159
X22.55 Y16.22 Z2.045 I0.193 J-0.159
X22.164 Y16.538 Z2.018 I-0.193 J0.159
X22.55 Y16.22 Z1.99 I0.193 J-0.159
X22.164 Y16.538 Z1.963 I-0.193 J0.159
X22.55 Y16.22 Z1.935 I0.193 J-0.159
X22.164 Y16.538 Z1.908 I-0.193 J0.159
X22.55 Y16.22 Z1.881 I0.193 J-0.159
X22.164 Y16.538 Z1.853 I-0.193 J0.159
X22.55 Y16.22 Z1.826 I0.193 J-0.159
X22.164 Y16.538 Z1.798 I-0.193 J0.159
X22.55 Y16.22 Z1.771 I0.193 J-0.159
X22.164 Y16.538 Z1.743 I-0.193 J0.159
X22.55 Y16.22 Z1.716 I0.193 J-0.159
X22.164 Y16.538 Z1.689 I-0.193 J0.159
X22.55 Y16.22 Z1.661 I0.193 J-0.159
X22.164 Y16.538 Z1.634 I-0.193 J0.159
X22.55 Y16.22 Z1.606 I0.193 J-0.159
X22.164 Y16.538 Z1.579 I-0.193 J0.159
X22.55 Y16.22 Z1.551 I0.193 J-0.159
X22.164 Y16.538 Z1.524 I-0.193 J0.159
X22.55 Y16.22 Z1.497 I0.193 J-0.159
X22.164 Y16.538 Z1.469 I-0.193 J0.159
X22.55 Y16.22 Z1.442 I0.193 J-0.159
X22.164 Y16.538 Z1.414 I-0.193 J0.159
X22.55 Y16.22 Z1.387 I0.193 J-0.159
X22.164 Y16.538 Z1.359 I-0.193 J0.159
X22.55 Y16.22 Z1.332 I0.193 J-0.159
X22.164 Y16.538 Z1.305 I-0.193 J0.159
X22.55 Y16.22 Z1.277 I0.193 J-0.159
X22.164 Y16.538 Z1.25 I-0.193 J0.159
X22.55 Y16.22 Z1.222 I0.193 J-0.159
X22.164 Y16.538 Z1.195 I-0.193 J0.159
X22.55 Y16.22 Z1.167 I0.193 J-0.159
X22.164 Y16.538 Z1.14 I-0.193 J0.159
X22.55 Y16.22 Z1.113 I0.193 J-0.159
X22.164 Y16.538 Z1.085 I-0.193 J0.159
X22.55 Y16.22 Z1.058 I0.193 J-0.159
X22.164 Y16.538 Z1.03 I-0.193 J0.159
X22.55 Y16.22 Z1.003 I0.193 J-0.159
X22.164 Y16.538 Z0.976 I-0.193 J0.159
X22.55 Y16.22 Z0.948 I0.193 J-0.159
X22.164 Y16.538 Z0.921 I-0.193 J0.159
X22.55 Y16.22 Z0.893 I0.193 J-0.159
X22.164 Y16.538 Z0.866 I-0.193 J0.159
X22.55 Y16.22 Z0.838 I0.193 J-0.159
X22.164 Y16.538 Z0.811 I-0.193 J0.159
X22.55 Y16.22 Z0.784 I0.193 J-0.159
X22.164 Y16.538 Z0.756 I-0.193 J0.159
X22.55 Y16.22 Z0.729 I0.193 J-0.159
X22.164 Y16.538 Z0.701 I-0.193 J0.159
X22.55 Y16.22 Z0.674 I0.193 J-0.159
X22.164 Y16.538 Z0.646 I-0.193 J0.159
X22.55 Y16.22 Z0.619 I0.193 J-0.159
X22.164 Y16.538 Z0.592 I-0.193 J0.159
X22.55 Y16.22 Z0.564 I0.193 J-0.159
X22.164 Y16.538 Z0.537 I-0.193 J0.159
X22.55 Y16.22 Z0.509 I0.193 J-0.159
X22.164 Y16.538 Z0.482 I-0.193 J0.159
X22.55 Y16.22 Z0.454 I0.193 J-0.159
X22.164 Y16.538 Z0.427 I-0.193 J0.159
X22.55 Y16.22 Z0.4 I0.193 J-0.159
X22.164 Y16.538 Z0.372 I-0.193 J0.159
X22.55 Y16.22 Z0.345 I0.193 J-0.159
X22.164 Y16.538 Z0.317 I-0.193 J0.159
X22.55 Y16.22 Z0.29 I0.193 J-0.159
X22.164 Y16.538 Z0.262 I-0.193 J0.159
X22.55 Y16.22 Z0.235 I0.193 J-0.159
X22.164 Y16.538 Z0.208 I-0.193 J0.159
X22.55 Y16.22 Z0.18 I0.193 J-0.159
X22.164 Y16.538 Z0.153 I-0.193 J0.159
X22.55 Y16.22 Z0.125 I0.193 J-0.159
X22.164 Y16.538 Z0.098 I-0.193 J0.159
X22.55 Y16.22 Z0.07 I0.193 J-0.159
X22.164 Y16.538 Z0.043 I-0.193 J0.159
X22.55 Y16.22 Z0.016 I0.193 J-0.159
X22.164 Y16.538 Z-0.012 I-0.193 J0.159
X22.55 Y16.22 Z-0.039 I0.193 J-0.159
X22.164 Y16.538 Z-0.067 I-0.193 J0.159
X22.55 Y16.22 Z-0.094 I0.193 J-0.159
X22.164 Y16.538 Z-0.122 I-0.193 J0.159
X22.55 Y16.22 Z-0.149 I0.193 J-0.159
X22.164 Y16.538 Z-0.176 I-0.193 J0.159
X22.55 Y16.22 Z-0.204 I0.193 J-0.159
X22.164 Y16.538 Z-0.231 I-0.193 J0.159
X22.55 Y16.22 Z-0.259 I0.193 J-0.159
X22.164 Y16.538 Z-0.286 I-0.193 J0.159
X22.55 Y16.22 Z-0.314 I0.193 J-0.159
X22.164 Y16.538 Z-0.341 I-0.193 J0.159
X22.55 Y16.22 Z-0.368 I0.193 J-0.159
X22.164 Y16.538 Z-0.396 I-0.193 J0.159
X22.55 Y16.22 Z-0.423 I0.193 J-0.159
X22.164 Y16.538 Z-0.451 I-0.193 J0.159
X22.55 Y16.22 Z-0.478 I0.193 J-0.159
X22.164 Y16.538 Z-0.506 I-0.193 J0.159
X22.55 Y16.22 Z-0.533 I0.193 J-0.159
X22.164 Y16.538 Z-0.56 I-0.193 J0.159
X22.55 Y16.22 Z-0.588 I0.193 J-0.159
X22.164 Y16.538 Z-0.615 I-0.193 J0.159
X22.55 Y16.22 Z-0.643 I0.193 J-0.159
X22.164 Y16.538 Z-0.67 I-0.193 J0.159
X22.55 Y16.22 Z-0.698 I0.193 J-0.159
X22.164 Y16.538 Z-0.725 I-0.193 J0.159
X22.55 Y16.22 Z-0.752 I0.193 J-0.159
X22.164 Y16.538 Z-0.78 I-0.193 J0.159
X22.55 Y16.22 Z-0.807 I0.193 J-0.159
X22.164 Y16.538 Z-0.835 I-0.193 J0.159
X22.55 Y16.22 Z-0.862 I0.193 J-0.159
X22.164 Y16.538 Z-0.89 I-0.193 J0.159
X22.55 Y16.22 Z-0.917 I0.193 J-0.159
X22.164 Y16.538 Z-0.944 I-0.193 J0.159
X22.55 Y16.22 Z-0.972 I0.193 J-0.159
X22.164 Y16.538 Z-0.999 I-0.193 J0.159
X22.516 Y16.187 Z-1.025 I0.193 J-0.159
G2 X22.59 Y16.242 I0.615 J-0.739 F75.
G1 X22.674 Y16.299
G3 X22.669 Y16.609 I-0.104 J0.153
G1 X22.585 Y16.663
G2 X22.509 Y16.72 I0.304 J0.476
G3 X22.093 Y16.726 I-0.212 J-0.234
G2 X22.017 Y16.663 I-2.091 J2.448
X21.935 Y16.608 I-0.375 J0.467
G3 Y16.292 I0.089 J-0.158
G2 X22.016 Y16.238 I-0.29 J-0.518
X22.091 Y16.175 I-1.732 J-2.16
G3 X22.503 I0.206 J0.239
G1 X22.516 Y16.187
G2 X23.115 Y16.182 I0.296 J-0.356
G3 X23.676 Y15.974 I0.561 J0.653
G1 X28.964
X29. Y16.015
Y16.882
X28.964 Y16.926
X23.404 Y16.931
X23.23 Y16.964
X23.057 Y17.032
X22.888 Y17.139
X22.765 Y17.254
X22.671 Y17.376
X22.584 Y17.536
X22.527 Y17.711
X22.502 Y17.886
X22.5 Y21.966
X22.466 Y22.
X22.133
X22.1 Y21.966
X22.099 Y17.886
X22.074 Y17.711
X22.014 Y17.532
X21.919 Y17.359
X21.813 Y17.23
X21.667 Y17.105
X21.493 Y17.008
X21.319 Y16.951
X21.146 Y16.927
X17.893 Y16.926
X17.85 Y16.882
Y16.015
X17.893 Y15.974
X18.021
X21.146 Y15.973
X21.319 Y15.949
X21.493 Y15.892
X21.667 Y15.795
X21.818 Y15.664
X21.928 Y15.527
X22.014 Y15.368
X22.063 Y15.229
X22.091 Y15.091
X22.1 Y14.916
Y12.994
X22.133 Y12.95
X22.466
X22.5 Y12.994
X22.501 Y15.003
X22.525 Y15.178
X22.58 Y15.353
X22.661 Y15.509
X22.759 Y15.639
X22.872 Y15.748
X22.992 Y15.832
X23.144 Y15.907
X23.317 Y15.957
X23.491 Y15.974
X23.676
G3 X23.751 Y15.988 Z-1.01 I0. J0.2
X23.806 Y16.022 Z-0.966 I-0.075 J0.186
G1 X23.836 Y16.053 Z-0.902
X23.844 Y16.066 Z-0.825
G0 Z3.01
X22.479 Y16.571
G1 Z1.409 F50.
X22.482 Y16.585 Z1.334 F100.
X22.485 Y16.626 Z1.27
G3 X22.477 Y16.688 Z1.226 I-0.25 J-0.001
X22.448 Y16.756 Z1.209 I-0.242 J-0.063
X22.022 Y16.495 Z1.182 I-0.213 J-0.131
X22.448 Y16.756 Z1.154 I0.213 J0.131
X22.022 Y16.495 Z1.127 I-0.213 J-0.131
X22.448 Y16.756 Z1.099 I0.213 J0.131
X22.022 Y16.495 Z1.072 I-0.213 J-0.131
X22.448 Y16.756 Z1.044 I0.213 J0.131
X22.022 Y16.495 Z1.017 I-0.213 J-0.131
X22.448 Y16.756 Z0.99 I0.213 J0.131
X22.022 Y16.495 Z0.962 I-0.213 J-0.131
X22.448 Y16.756 Z0.935 I0.213 J0.131
X22.022 Y16.495 Z0.907 I-0.213 J-0.131
X22.448 Y16.756 Z0.88 I0.213 J0.131
X22.022 Y16.495 Z0.852 I-0.213 J-0.131
X22.448 Y16.756 Z0.825 I0.213 J0.131
X22.022 Y16.495 Z0.798 I-0.213 J-0.131
X22.448 Y16.756 Z0.77 I0.213 J0.131
X22.022 Y16.495 Z0.743 I-0.213 J-0.131
X22.448 Y16.756 Z0.715 I0.213 J0.131
X22.022 Y16.495 Z0.688 I-0.213 J-0.131
X22.448 Y16.756 Z0.66 I0.213 J0.131
X22.022 Y16.495 Z0.633 I-0.213 J-0.131
X22.448 Y16.756 Z0.606 I0.213 J0.131
X22.022 Y16.495 Z0.578 I-0.213 J-0.131
X22.448 Y16.756 Z0.551 I0.213 J0.131
X22.022 Y16.495 Z0.523 I-0.213 J-0.131
X22.448 Y16.756 Z0.496 I0.213 J0.131
X22.022 Y16.495 Z0.468 I-0.213 J-0.131
X22.448 Y16.756 Z0.441 I0.213 J0.131
X22.022 Y16.495 Z0.414 I-0.213 J-0.131
X22.448 Y16.756 Z0.386 I0.213 J0.131
X22.022 Y16.495 Z0.359 I-0.213 J-0.131
X22.448 Y16.756 Z0.331 I0.213 J0.131
X22.022 Y16.495 Z0.304 I-0.213 J-0.131
X22.448 Y16.756 Z0.276 I0.213 J0.131
X22.022 Y16.495 Z0.249 I-0.213 J-0.131
X22.448 Y16.756 Z0.222 I0.213 J0.131
X22.022 Y16.495 Z0.194 I-0.213 J-0.131
X22.448 Y16.756 Z0.167 I0.213 J0.131
X22.022 Y16.495 Z0.139 I-0.213 J-0.131
X22.448 Y16.756 Z0.112 I0.213 J0.131
X22.022 Y16.495 Z0.084 I-0.213 J-0.131
X22.448 Y16.756 Z0.057 I0.213 J0.131
X22.022 Y16.495 Z0.03 I-0.213 J-0.131
X22.448 Y16.756 Z0.002 I0.213 J0.131
X22.022 Y16.495 Z-0.025 I-0.213 J-0.131
X22.448 Y16.756 Z-0.053 I0.213 J0.131
X22.022 Y16.495 Z-0.08 I-0.213 J-0.131
X22.448 Y16.756 Z-0.108 I0.213 J0.131
X22.022 Y16.495 Z-0.135 I-0.213 J-0.131
X22.448 Y16.756 Z-0.162 I0.213 J0.131
X22.022 Y16.495 Z-0.19 I-0.213 J-0.131
X22.448 Y16.756 Z-0.217 I0.213 J0.131
X22.022 Y16.495 Z-0.245 I-0.213 J-0.131
X22.448 Y16.756 Z-0.272 I0.213 J0.131
X22.022 Y16.495 Z-0.299 I-0.213 J-0.131
X22.448 Y16.756 Z-0.327 I0.213 J0.131
X22.022 Y16.495 Z-0.354 I-0.213 J-0.131
X22.448 Y16.756 Z-0.382 I0.213 J0.131
X22.022 Y16.495 Z-0.409 I-0.213 J-0.131
X22.448 Y16.756 Z-0.437 I0.213 J0.131
X22.022 Y16.495 Z-0.464 I-0.213 J-0.131
X22.448 Y16.756 Z-0.491 I0.213 J0.131
X22.022 Y16.495 Z-0.519 I-0.213 J-0.131
X22.448 Y16.756 Z-0.546 I0.213 J0.131
X22.022 Y16.495 Z-0.574 I-0.213 J-0.131
X22.448 Y16.756 Z-0.601 I0.213 J0.131
X22.022 Y16.495 Z-0.629 I-0.213 J-0.131
X22.448 Y16.756 Z-0.656 I0.213 J0.131
X22.022 Y16.495 Z-0.683 I-0.213 J-0.131
X22.448 Y16.756 Z-0.711 I0.213 J0.131
X22.022 Y16.495 Z-0.738 I-0.213 J-0.131
X22.448 Y16.756 Z-0.766 I0.213 J0.131
X22.022 Y16.495 Z-0.793 I-0.213 J-0.131
X22.448 Y16.756 Z-0.821 I0.213 J0.131
X22.022 Y16.495 Z-0.848 I-0.213 J-0.131
X22.448 Y16.756 Z-0.875 I0.213 J0.131
X22.022 Y16.495 Z-0.903 I-0.213 J-0.131
X22.448 Y16.756 Z-0.93 I0.213 J0.131
X22.022 Y16.495 Z-0.958 I-0.213 J-0.131
X22.448 Y16.756 Z-0.985 I0.213 J0.131
X22.022 Y16.495 Z-1.013 I-0.213 J-0.131
X22.448 Y16.756 Z-1.04 I0.213 J0.131
X22.022 Y16.495 Z-1.067 I-0.213 J-0.131
X22.448 Y16.756 Z-1.095 I0.213 J0.131
X22.022 Y16.495 Z-1.122 I-0.213 J-0.131
X22.448 Y16.756 Z-1.15 I0.213 J0.131
X22.022 Y16.495 Z-1.177 I-0.213 J-0.131
X22.448 Y16.756 Z-1.205 I0.213 J0.131
X22.022 Y16.495 Z-1.232 I-0.213 J-0.131
X22.448 Y16.756 Z-1.259 I0.213 J0.131
X22.022 Y16.495 Z-1.287 I-0.213 J-0.131
X22.448 Y16.756 Z-1.314 I0.213 J0.131
X22.022 Y16.495 Z-1.342 I-0.213 J-0.131
X22.448 Y16.756 Z-1.369 I0.213 J0.131
X22.022 Y16.495 Z-1.397 I-0.213 J-0.131
X22.448 Y16.756 Z-1.424 I0.213 J0.131
X22.022 Y16.495 Z-1.451 I-0.213 J-0.131
X22.448 Y16.756 Z-1.479 I0.213 J0.131
X22.022 Y16.495 Z-1.506 I-0.213 J-0.131
X22.448 Y16.756 Z-1.534 I0.213 J0.131
X22.022 Y16.495 Z-1.561 I-0.213 J-0.131
X22.448 Y16.756 Z-1.589 I0.213 J0.131
X22.022 Y16.495 Z-1.616 I-0.213 J-0.131
X22.448 Y16.756 Z-1.643 I0.213 J0.131
X22.022 Y16.495 Z-1.671 I-0.213 J-0.131
X22.448 Y16.756 Z-1.698 I0.213 J0.131
X22.022 Y16.495 Z-1.726 I-0.213 J-0.131
X22.448 Y16.756 Z-1.753 I0.213 J0.131
X22.022 Y16.495 Z-1.781 I-0.213 J-0.131
X22.448 Y16.756 Z-1.808 I0.213 J0.131
X22.022 Y16.495 Z-1.835 I-0.213 J-0.131
X22.448 Y16.756 Z-1.863 I0.213 J0.131
X22.022 Y16.495 Z-1.89 I-0.213 J-0.131
X22.448 Y16.756 Z-1.918 I0.213 J0.131
X22.022 Y16.495 Z-1.945 I-0.213 J-0.131
X22.448 Y16.756 Z-1.973 I0.213 J0.131
X22.022 Y16.495 Z-2. I-0.213 J-0.131
X22.448 Y16.756 Z-2.027 I0.213 J0.131
X21.985 Y16.626 Z-2.05 I-0.213 J-0.131
G1 Y16.226 F75.
X22.014 Y16.082
X22.082 Y15.615
X22.099 Y15.44
X22.1 Y12.994
X22.133 Y12.95
X22.466
X22.5 Y12.994
X22.502 Y15.44
X22.565 Y15.964
X22.615 Y16.226
Y16.663
X22.553 Y17.012
X22.502 Y17.449
X22.5 Y21.966
X22.466 Y22.
X22.133
X22.1 Y21.966
X22.098 Y17.449
X22.048 Y17.012
X21.985 Y16.653
Y16.626
G3 X22. Y16.551 Z-2.035 I0.2 J0.
X22.033 Y16.496 Z-1.991 I0.186 J0.075
G1 X22.065 Y16.466 Z-1.927
X22.077 Y16.457 Z-1.85
G0 Z3.01
X22.331 Y19.95
G1 Z2.3 F50.
G18 G3 X22.138 Z2.1 I-0.2 K0. F100.
G1 X22.133
X22.1 Y19.91 Z2.098
Y12.994 Z1.857
X22.133 Y12.95 Z1.855
X22.466 Z1.843
X22.5 Y12.994 Z1.841
Y19.91 Z1.599
X22.466 Y19.95 Z1.598
X22.133 Z1.586
X22.1 Y19.91 Z1.584
Y12.994 Z1.343
X22.133 Y12.95 Z1.341
X22.466 Z1.329
X22.5 Y12.994 Z1.327
Y19.91 Z1.086
X22.466 Y19.95 Z1.084
X22.133 Z1.072
X22.1 Y19.91 Z1.07
Y12.994 Z0.829
X22.133 Y12.95 Z0.827
X22.466 Z0.815
X22.5 Y12.994 Z0.813
Y19.91 Z0.572
X22.466 Y19.95 Z0.57
X22.133 Z0.558
X22.1 Y19.91 Z0.557
Y12.994 Z0.315
X22.133 Y12.95 Z0.313
X22.466 Z0.302
X22.5 Y12.994 Z0.3
Y19.91 Z0.058
X22.466 Y19.95 Z0.056
X22.133 Z0.045
X22.1 Y19.91 Z0.043
Y12.994 Z-0.199
X22.133 Y12.95 Z-0.201
X22.466 Z-0.212
X22.5 Y12.994 Z-0.214
Y19.91 Z-0.456
X22.466 Y19.95 Z-0.457
X22.133 Z-0.469
X22.1 Y19.91 Z-0.471
Y12.994 Z-0.712
X22.133 Y12.95 Z-0.714
X22.466 Z-0.726
X22.5 Y12.994 Z-0.728
Y19.91 Z-0.969
X22.466 Y19.95 Z-0.971
X22.133 Z-0.983
X22.1 Y19.91 Z-0.985
Y12.994 Z-1.226
X22.133 Y12.95 Z-1.228
X22.466 Z-1.24
X22.5 Y12.994 Z-1.242
Y19.91 Z-1.483
X22.466 Y19.95 Z-1.485
X22.133 Z-1.497
X22.1 Y19.91 Z-1.498
Y12.994 Z-1.74
X22.133 Y12.95 Z-1.742
X22.466 Z-1.754
X22.5 Y12.994 Z-1.755
Y19.91 Z-1.997
X22.466 Y19.95 Z-1.999
X22.133 Z-2.01
X22.1 Y19.91 Z-2.012
Y12.994 Z-2.254
X22.133 Y12.95 Z-2.256
X22.466 Z-2.267
X22.5 Y12.994 Z-2.269
Y19.91 Z-2.511
X22.466 Y19.95 Z-2.513
X22.133 Z-2.524
X22.1 Y19.91 Z-2.526
Y12.994 Z-2.768
X22.133 Y12.95 Z-2.769
X22.466 Z-2.781
X22.5 Y12.994 Z-2.783
Y19.91 Z-3.025
X22.466 Y19.95 Z-3.026
X22.133 Z-3.038
X22.1 Y19.91 Z-3.04
Y12.994 Z-3.281
X22.133 Y12.95 Z-3.283
X22.466 Z-3.295
X22.5 Y12.994 Z-3.297
Y19.91 Z-3.538
X22.466 Y19.95 Z-3.54
X22.133 Z-3.552
X22.1 Y19.91 Z-3.554
Y12.994 Z-3.795
X22.133 Y12.95 Z-3.797
X22.466 Z-3.809
X22.5 Y12.994 Z-3.811
Y19.85 Z-4.05
Y19.91 F75.
X22.466 Y19.95
X22.133
X22.1 Y19.91
Y12.994
X22.133 Y12.95
X22.466
X22.5 Y12.994
Y19.85
Z-3.85
G0 Z3.01
X22.1 Y18.582
G1 Z2.3 F50.
G19 G2 Y18.389 Z2.1 J-0.2 K0. F100.
G1 Y12.994 Z1.912
X22.133 Y12.95 Z1.91
X22.466 Z1.898
X22.5 Y12.994 Z1.896
Y19.91 Z1.655
X22.466 Y19.95 Z1.653
X22.133 Z1.641
X22.1 Y19.91 Z1.639
Y12.994 Z1.398
X22.133 Y12.95 Z1.396
X22.466 Z1.384
X22.5 Y12.994 Z1.382
Y19.91 Z1.141
X22.466 Y19.95 Z1.139
X22.133 Z1.127
X22.1 Y19.91 Z1.126
Y12.994 Z0.884
X22.133 Y12.95 Z0.882
X22.466 Z0.871
X22.5 Y12.994 Z0.869
Y19.91 Z0.627
X22.466 Y19.95 Z0.625
X22.133 Z0.614
X22.1 Y19.91 Z0.612
Y12.994 Z0.37
X22.133 Y12.95 Z0.368
X22.466 Z0.357
X22.5 Y12.994 Z0.355
Y19.91 Z0.113
X22.466 Y19.95 Z0.111
X22.133 Z0.1
X22.1 Y19.91 Z0.098
Y12.994 Z-0.143
X22.133 Y12.95 Z-0.145
X22.466 Z-0.157
X22.5 Y12.994 Z-0.159
Y19.91 Z-0.401
X22.466 Y19.95 Z-0.402
X22.133 Z-0.414
X22.1 Y19.91 Z-0.416
Y12.994 Z-0.657
X22.133 Y12.95 Z-0.659
X22.466 Z-0.671
X22.5 Y12.994 Z-0.673
Y19.91 Z-0.914
X22.466 Y19.95 Z-0.916
X22.133 Z-0.928
X22.1 Y19.91 Z-0.93
Y12.994 Z-1.171
X22.133 Y12.95 Z-1.173
X22.466 Z-1.185
X22.5 Y12.994 Z-1.187
Y19.91 Z-1.428
X22.466 Y19.95 Z-1.43
X22.133 Z-1.442
X22.1 Y19.91 Z-1.443
Y12.994 Z-1.685
X22.133 Y12.95 Z-1.687
X22.466 Z-1.698
X22.5 Y12.994 Z-1.7
Y19.91 Z-1.942
X22.466 Y19.95 Z-1.944
X22.133 Z-1.955
X22.1 Y19.91 Z-1.957
Y12.994 Z-2.199
X22.133 Y12.95 Z-2.201
X22.466 Z-2.212
X22.5 Y12.994 Z-2.214
Y19.91 Z-2.456
X22.466 Y19.95 Z-2.457
X22.133 Z-2.469
X22.1 Y19.91 Z-2.471
Y12.994 Z-2.712
X22.133 Y12.95 Z-2.714
X22.466 Z-2.726
X22.5 Y12.994 Z-2.728
Y19.91 Z-2.969
X22.466 Y19.95 Z-2.971
X22.133 Z-2.983
X22.1 Y19.91 Z-2.985
Y12.994 Z-3.226
X22.133 Y12.95 Z-3.228
X22.466 Z-3.24
X22.5 Y12.994 Z-3.242
Y19.91 Z-3.483
X22.466 Y19.95 Z-3.485
X22.133 Z-3.497
X22.1 Y19.91 Z-3.498
Y12.994 Z-3.74
X22.133 Y12.95 Z-3.742
X22.466 Z-3.754
X22.5 Y12.994 Z-3.755
Y19.91 Z-3.997
X22.466 Y19.95 Z-3.999
X22.133 Z-4.01
X22.1 Y19.91 Z-4.012
Y12.994 Z-4.254
X22.133 Y12.95 Z-4.256
X22.466 Z-4.267
X22.5 Y12.994 Z-4.269
Y19.91 Z-4.511
X22.466 Y19.95 Z-4.513
X22.133 Z-4.524
X22.1 Y19.91 Z-4.526
Y12.994 Z-4.768
X22.133 Y12.95 Z-4.769
X22.466 Z-4.781
X22.5 Y12.994 Z-4.783
Y19.91 Z-5.025
X22.466 Y19.95 Z-5.026
X22.133 Z-5.038
X22.1 Y19.91 Z-5.04
Y12.994 Z-5.281
X22.133 Y12.95 Z-5.283
X22.466 Z-5.295
X22.5 Y12.994 Z-5.297
Y19.91 Z-5.538
X22.466 Y19.95 Z-5.54
X22.133 Z-5.552
X22.1 Y19.91 Z-5.554
Y12.994 Z-5.795
X22.133 Y12.95 Z-5.797
X22.466 Z-5.809
X22.5 Y12.994 Z-5.811
Y19.85 Z-6.05
Y19.91 F75.
X22.466 Y19.95
X22.133
X22.1 Y19.91
Y12.994
X22.133 Y12.95
X22.466
X22.5 Y12.994
Y19.85
Z-5.85
G0 Z3.01
X22.1 Y15.571
G1 Z2.3 F50.
G2 Y15.378 Z2.1 J-0.2 K0. F100.
G1 Y12.994 Z2.017
X22.133 Y12.95 Z2.015
X22.466 Z2.003
X22.5 Y12.994 Z2.001
Y19.91 Z1.76
X22.466 Y19.95 Z1.758
X22.133 Z1.746
X22.1 Y19.91 Z1.744
Y12.994 Z1.503
X22.133 Y12.95 Z1.501
X22.466 Z1.489
X22.5 Y12.994 Z1.487
Y19.91 Z1.246
X22.466 Y19.95 Z1.244
X22.133 Z1.232
X22.1 Y19.91 Z1.231
Y12.994 Z0.989
X22.133 Y12.95 Z0.987
X22.466 Z0.976
X22.5 Y12.994 Z0.974
Y19.91 Z0.732
X22.466 Y19.95 Z0.73
X22.133 Z0.719
X22.1 Y19.91 Z0.717
Y12.994 Z0.475
X22.133 Y12.95 Z0.473
X22.466 Z0.462
X22.5 Y12.994 Z0.46
Y19.91 Z0.218
X22.466 Y19.95 Z0.217
X22.133 Z0.205
X22.1 Y19.91 Z0.203
Y12.994 Z-0.038
X22.133 Y12.95 Z-0.04
X22.466 Z-0.052
X22.5 Y12.994 Z-0.054
Y19.91 Z-0.295
X22.466 Y19.95 Z-0.297
X22.133 Z-0.309
X22.1 Y19.91 Z-0.311
Y12.994 Z-0.552
X22.133 Y12.95 Z-0.554
X22.466 Z-0.566
X22.5 Y12.994 Z-0.568
Y19.91 Z-0.809
X22.466 Y19.95 Z-0.811
X22.133 Z-0.823
X22.1 Y19.91 Z-0.824
Y12.994 Z-1.066
X22.133 Y12.95 Z-1.068
X22.466 Z-1.079
X22.5 Y12.994 Z-1.081
Y19.91 Z-1.323
X22.466 Y19.95 Z-1.325
X22.133 Z-1.336
X22.1 Y19.91 Z-1.338
Y12.994 Z-1.58
X22.133 Y12.95 Z-1.582
X22.466 Z-1.593
X22.5 Y12.994 Z-1.595
Y19.91 Z-1.837
X22.466 Y19.95 Z-1.839
X22.133 Z-1.85
X22.1 Y19.91 Z-1.852
Y12.994 Z-2.093
X22.133 Y12.95 Z-2.095
X22.466 Z-2.107
X22.5 Y12.994 Z-2.109
Y19.91 Z-2.351
X22.466 Y19.95 Z-2.352
X22.133 Z-2.364
X22.1 Y19.91 Z-2.366
Y12.994 Z-2.607
X22.133 Y12.95 Z-2.609
X22.466 Z-2.621
X22.5 Y12.994 Z-2.623
Y19.91 Z-2.864
X22.466 Y19.95 Z-2.866
X22.133 Z-2.878
X22.1 Y19.91 Z-2.88
Y12.994 Z-3.121
X22.133 Y12.95 Z-3.123
X22.466 Z-3.135
X22.5 Y12.994 Z-3.137
Y19.91 Z-3.378
X22.466 Y19.95 Z-3.38
X22.133 Z-3.392
X22.1 Y19.91 Z-3.393
Y12.994 Z-3.635
X22.133 Y12.95 Z-3.637
X22.466 Z-3.648
X22.5 Y12.994 Z-3.65
Y19.91 Z-3.892
X22.466 Y19.95 Z-3.894
X22.133 Z-3.905
X22.1 Y19.91 Z-3.907
Y12.994 Z-4.149
X22.133 Y12.95 Z-4.151
X22.466 Z-4.162
X22.5 Y12.994 Z-4.164
Y19.91 Z-4.406
X22.466 Y19.95 Z-4.407
X22.133 Z-4.419
X22.1 Y19.91 Z-4.421
Y12.994 Z-4.662
X22.133 Y12.95 Z-4.664
X22.466 Z-4.676
X22.5 Y12.994 Z-4.678
Y19.91 Z-4.919
X22.466 Y19.95 Z-4.921
X22.133 Z-4.933
X22.1 Y19.91 Z-4.935
Y12.994 Z-5.176
X22.133 Y12.95 Z-5.178
X22.466 Z-5.19
X22.5 Y12.994 Z-5.192
Y19.91 Z-5.433
X22.466 Y19.95 Z-5.435
X22.133 Z-5.447
X22.1 Y19.91 Z-5.448
Y12.994 Z-5.69
X22.133 Y12.95 Z-5.692
X22.466 Z-5.704
X22.5 Y12.994 Z-5.705
Y19.91 Z-5.947
X22.466 Y19.95 Z-5.949
X22.133 Z-5.96
X22.1 Y19.91 Z-5.962
Y12.994 Z-6.204
X22.133 Y12.95 Z-6.206
X22.466 Z-6.217
X22.5 Y12.994 Z-6.219
Y19.91 Z-6.461
X22.466 Y19.95 Z-6.463
X22.133 Z-6.474
X22.1 Y19.91 Z-6.476
Y12.994 Z-6.718
X22.133 Y12.95 Z-6.719
X22.466 Z-6.731
X22.5 Y12.994 Z-6.733
Y19.91 Z-6.975
X22.466 Y19.95 Z-6.976
X22.133 Z-6.988
X22.1 Y19.91 Z-6.99
Y12.994 Z-7.231
X22.133 Y12.95 Z-7.233
X22.466 Z-7.245
X22.5 Y12.994 Z-7.247
Y19.91 Z-7.488
X22.466 Y19.95 Z-7.49
X22.133 Z-7.502
X22.1 Y19.91 Z-7.504
Y12.994 Z-7.745
X22.133 Y12.95 Z-7.747
X22.466 Z-7.759
X22.5 Y12.994 Z-7.761
Y19.85 Z-8.
Y19.91 F75.
X22.466 Y19.95
X22.133
X22.1 Y19.91
Y12.994
X22.133 Y12.95
X22.466
X22.5 Y12.994
Y19.85
Z-7.8
G0 Z11.
G17
G53 Z0.

(ADAPTIVE3)
M5
M9
M1
T2 M6
M3 S8000
G54
M8
G0 X76.595 Y-1.578
Z15.
Z5.
Z2.819
G1 Z2.502 F100.
Z-2.
X76.661 Y-1.558 F150.
X76.806 Y-1.511
X76.952 Y-1.447
X77.098 Y-1.38
X77.389 Y-1.196
X77.41 Y-1.181
X77.302 Y-1.077
X77.146 Y-0.981
X77.047 Y-0.93
X76.819 Y-0.824
X76.518 Y-0.713
X76.105 Y-0.598
X75.493 Y-0.478
X74.855 Y-0.406
X74.214 Y-0.364
X73.572 Y-0.34
X72.93 Y-0.325
X72.548 Y-0.32
X72.41 Y-0.331
X72.276 Y-0.365
X72.15 Y-0.422
X72.142 Y-0.426
X71.996 Y-0.488
X71.85 Y-0.533
X71.704 Y-0.564
X71.559 Y-0.582
X71.121 Y-0.587
X49.256 Y-0.588
X48.819 Y-0.575
X48.673 Y-0.549
X48.35 Y-0.494
X48.157 Y-0.505
X47.981 Y-0.583
X47.844 Y-0.719
X47.764 Y-0.894
X47.752 Y-1.086
X47.808 Y-1.27
X47.926 Y-1.423
X48.09 Y-1.524
G3 X48.212 Y-1.551 I0.282 J0.96 F100.
X48.689 Y-1.512 I0.16 J0.987 F150.
X48.787 Y-0.599 I-0.16 J0.479
X48.673 Y-0.549 I-0.258 J-0.434 F100.
G1 X48.527 Y-0.511 F150.
X48.382 Y-0.461
X48.236 Y-0.387
X48.196 Y-0.362
X48.126 Y-0.322
X47.981 Y-0.283
X47.797 Y-0.317
X47.633 Y-0.408
X47.507 Y-0.548
X47.434 Y-0.721
X47.421 Y-0.908
X47.469 Y-1.089
X47.574 Y-1.245
X47.723 Y-1.358
G3 X47.808 Y-1.384 I0.119 J0.247 F100.
G1 X47.844 Y-1.387
G3 X48.29 Y-0.443 I0.035 J0.561 F150.
X48.196 Y-0.362 I-0.411 J-0.383 F100.
G1 X48.104 Y-0.303 F150.
X47.944 Y-0.185
X47.88 Y-0.137
X47.743 Y-0.075
X47.594 Y-0.061
X47.416 Y-0.119
X47.266 Y-0.23
X47.159 Y-0.383
X47.106 Y-0.563
X47.113 Y-0.749
X47.178 Y-0.924
X47.296 Y-1.069
G3 X47.406 Y-1.125 I0.173 J0.207 F100.
G1 X47.42 Y-1.128 F150.
G3 X48.017 Y-0.286 I0.101 J0.561
X47.944 Y-0.185 I-0.495 J-0.281 F100.
G1 X47.918 Y-0.157 F150.
X47.784 Y-0.012
X47.766 Y0.013
X47.696 Y0.098
X47.572 Y0.182
X47.428 Y0.223
X47.237 Y0.192
X47.066 Y0.103
X46.934 Y-0.037
X46.853 Y-0.213
X46.833 Y-0.404
X46.875 Y-0.593
X46.975 Y-0.757
G3 X47.061 Y-0.82 I0.201 J0.185 F100.
G1 X47.077 Y-0.827
G3 X47.824 Y-0.097 I0.221 J0.52 F150.
X47.766 Y0.013 I-0.525 J-0.209 F100.
G1 X47.676 Y0.134 F150.
X47.653 Y0.17
X47.586 Y0.28
X47.53 Y0.372
X47.416 Y0.47
X47.278 Y0.528
X47.087 Y0.523
X46.907 Y0.458
X46.758 Y0.338
X46.654 Y0.177
X46.607 Y-0.008
X46.622 Y-0.199
X46.697 Y-0.375
G3 X46.788 Y-0.459 I0.223 J0.152 F100.
G1 X46.815 Y-0.472 F150.
G3 X47.619 Y0.16 I0.226 J0.539
X47.586 Y0.28 I-0.577 J-0.093 F100.
G1 X47.507 Y0.464 F150.
X47.481 Y0.55
X47.446 Y0.649
X47.354 Y0.768
X47.23 Y0.851
X47.043 Y0.883
X46.856 Y0.854
X46.687 Y0.768
X46.554 Y0.634
X46.469 Y0.464
X46.443 Y0.277
X46.476 Y0.091
G3 X46.544 Y-0.01 I0.255 J0.099 F100.
X47.499 Y0.426 I0.388 J0.416 F150.
X47.481 Y0.55 I-0.568 J-0.021 F100.
G1 X47.475 Y0.571 F150.
X47.442 Y0.717
X47.425 Y0.833
X47.403 Y0.943
X47.334 Y1.076
X47.226 Y1.18
X47.05 Y1.243
X46.863 Y1.249
X46.684 Y1.196
X46.53 Y1.09
X46.417 Y0.942
X46.355 Y0.765
X46.351 Y0.578
X46.38 Y0.426
X46.413 Y0.28
X46.461 Y0.134
X46.476 Y0.091
G3 X46.546 Y-0.011 I0.243 J0.094 F100.
X46.773 Y-0.07 I0.172 J0.196 F150.
X47.43 Y0.709 I-0.173 J0.812
X47.425 Y0.833 I-0.829 J0.033 F100.
G1 X47.421 Y0.863 F150.
X47.415 Y1.009
X47.413 Y1.155
X47.407 Y1.263
X47.353 Y1.403
X47.26 Y1.521
X47.095 Y1.608
X46.912 Y1.639
X46.728 Y1.612
X46.561 Y1.528
X46.429 Y1.396
X46.345 Y1.23
X46.318 Y1.046
X46.321 Y0.863
X46.332 Y0.717
X46.351 Y0.578
G3 X46.4 Y0.465 I0.259 J0.045 F100.
X46.62 Y0.361 I0.21 J0.158 F150.
X47.399 Y1.031 I-0.03 J0.823
X47.413 Y1.155 I-0.809 J0.153 F100.
G1 Y1.526 F150.
X47.407 Y1.638
X47.355 Y1.779
X47.264 Y1.898
X47.102 Y1.992
X46.919 Y2.029
X46.734 Y2.006
X46.565 Y1.926
X46.431 Y1.797
X46.344 Y1.631
X46.315 Y1.446
X46.318 Y1.046
G3 X46.351 Y0.927 I0.27 J0.012 F100.
X46.556 Y0.79 I0.236 J0.131 F150.
X47.398 Y1.403 I0.089 J0.764
X47.413 Y1.526 I-0.754 J0.151 F100.
G1 Y1.928 F150.
X47.407 Y2.037
X47.353 Y2.176
X47.2 Y2.312
X47.009 Y2.387
X46.804 Y2.391
X46.61 Y2.323
X46.452 Y2.192
X46.349 Y2.015
X46.314 Y1.813
X46.315 Y1.446
G3 X46.348 Y1.327 I0.27 J0.011 F100.
X46.555 Y1.188 I0.237 J0.13 F150.
X47.398 Y1.804 I0.087 J0.766
X47.413 Y1.928 I-0.756 J0.151 F100.
G1 Y2.255 F150.
X47.407 Y2.376
X47.363 Y2.519
X47.277 Y2.642
X47.115 Y2.741
X46.93 Y2.783
X46.742 Y2.763
X46.57 Y2.684
X46.432 Y2.554
X46.344 Y2.387
X46.313 Y2.2
X46.314 Y1.813
G3 X46.347 Y1.694 I0.271 J0.011 F100.
X46.531 Y1.558 I0.238 J0.13 F150.
X47.398 Y2.132 I0.145 J0.723
X47.413 Y2.255 I-0.722 J0.149 F100.
G1 Y2.656 F150.
X47.407 Y2.772
X47.359 Y2.914
X47.269 Y3.034
X47.109 Y3.131
X46.925 Y3.172
X46.738 Y3.152
X46.568 Y3.073
X46.431 Y2.944
X46.343 Y2.778
X46.313 Y2.593
Y2.2
G3 X46.345 Y2.081 I0.271 J0.009 F100.
X46.539 Y1.942 I0.239 J0.129 F150.
X47.398 Y2.533 I0.123 J0.74
X47.413 Y2.656 I-0.735 J0.15 F100.
G1 Y3.05 F150.
X47.407 Y3.164
X47.358 Y3.306
X47.268 Y3.426
X47.107 Y3.523
X46.924 Y3.563
X46.737 Y3.542
X46.567 Y3.463
X46.431 Y3.334
X46.343 Y3.169
X46.313 Y2.984
Y2.593
G3 X46.345 Y2.474 I0.271 J0.009 F100.
X46.54 Y2.335 I0.239 J0.129 F150.
X47.398 Y2.926 I0.123 J0.741
X47.413 Y3.05 I-0.736 J0.15 F100.
G1 Y3.458 F150.
X47.407 Y3.568
X47.354 Y3.708
X47.201 Y3.845
X47.011 Y3.92
X46.806 Y3.925
X46.612 Y3.858
X46.453 Y3.728
X46.349 Y3.552
X46.313 Y3.35
Y2.984
G3 X46.345 Y2.864 I0.271 J0.009 F100.
X46.549 Y2.724 I0.239 J0.129 F150.
X47.398 Y3.334 I0.098 J0.76
X47.413 Y3.458 I-0.751 J0.15 F100.
G1 Y3.823 F150.
X47.407 Y3.935
X47.354 Y4.075
X47.263 Y4.195
X47.1 Y4.286
X46.916 Y4.321
X46.731 Y4.297
X46.563 Y4.216
X46.429 Y4.086
X46.343 Y3.92
X46.313 Y3.735
Y3.35
G3 X46.345 Y3.23 I0.271 J0.009 F100.
X46.549 Y3.09 I0.239 J0.129 F150.
X47.398 Y3.699 I0.099 J0.759
X47.413 Y3.823 I-0.75 J0.15 F100.
G1 Y4.216 F150.
X47.407 Y4.326
X47.354 Y4.466
X47.201 Y4.603
X47.01 Y4.678
X46.805 Y4.683
X46.611 Y4.616
X46.453 Y4.486
X46.349 Y4.309
X46.313 Y4.107
Y3.735
G3 X46.345 Y3.616 I0.271 J0.009 F100.
X46.553 Y3.476 I0.238 J0.129 F150.
X47.398 Y4.092 I0.088 J0.767
X47.413 Y4.216 I-0.758 J0.151 F100.
G1 Y4.552 F150.
X47.407 Y4.671
X47.361 Y4.814
X47.275 Y4.937
X47.113 Y5.034
X46.928 Y5.075
X46.741 Y5.054
X46.569 Y4.975
X46.432 Y4.845
X46.343 Y4.678
X46.313 Y4.492
Y4.107
G3 X46.345 Y3.988 I0.271 J0.009 F100.
X46.533 Y3.85 I0.239 J0.129 F150.
X47.398 Y4.428 I0.14 J0.727
X47.413 Y4.552 I-0.725 J0.149 F100.
G1 Y4.945 F150.
X47.407 Y5.061
X47.359 Y5.203
X47.271 Y5.324
X47.11 Y5.422
X46.927 Y5.464
X46.74 Y5.444
X46.569 Y5.365
X46.432 Y5.236
X46.343 Y5.07
X46.313 Y4.885
Y4.492
G3 X46.345 Y4.373 I0.271 J0.009 F100.
X46.538 Y4.234 I0.239 J0.129 F150.
X47.398 Y4.821 I0.128 J0.737
X47.413 Y4.945 I-0.733 J0.15 F100.
G1 Y5.353 F150.
X47.407 Y5.464
X47.355 Y5.605
X47.203 Y5.743
X47.013 Y5.82
X46.807 Y5.825
X46.613 Y5.759
X46.453 Y5.63
X46.349 Y5.453
X46.313 Y5.251
Y4.885
G3 X46.345 Y4.765 I0.271 J0.009 F100.
X46.546 Y4.626 I0.239 J0.129 F150.
X47.398 Y5.229 I0.106 J0.754
X47.413 Y5.353 I-0.746 J0.15 F100.
G1 Y5.718 F150.
X47.407 Y5.832
X47.355 Y5.972
X47.265 Y6.092
X47.102 Y6.185
X46.918 Y6.221
X46.733 Y6.197
X46.564 Y6.116
X46.429 Y5.986
X46.343 Y5.82
X46.313 Y5.635
Y5.251
G3 X46.345 Y5.131 I0.271 J0.009 F100.
X46.545 Y4.992 I0.239 J0.129 F150.
X47.398 Y5.594 I0.108 J0.753
X47.413 Y5.718 I-0.745 J0.15 F100.
G1 Y6.111 F150.
X47.407 Y6.222
X47.355 Y6.363
X47.202 Y6.5
X47.012 Y6.576
X46.807 Y6.582
X46.612 Y6.515
X46.453 Y6.386
X46.349 Y6.209
X46.313 Y6.007
Y5.635
G3 X46.345 Y5.516 I0.271 J0.009 F100.
X46.55 Y5.376 I0.238 J0.129 F150.
X47.398 Y5.987 I0.095 J0.762
X47.413 Y6.111 I-0.753 J0.151 F100.
G1 Y6.447 F150.
X47.407 Y6.567
X47.362 Y6.711
X47.276 Y6.834
X47.114 Y6.932
X46.93 Y6.973
X46.742 Y6.953
X46.57 Y6.874
X46.432 Y6.744
X46.344 Y6.577
X46.313 Y6.39
Y6.007
G3 X46.345 Y5.888 I0.271 J0.009 F100.
X46.53 Y5.75 I0.239 J0.129 F150.
X47.398 Y6.323 I0.146 J0.722
X47.413 Y6.447 I-0.722 J0.149 F100.
G1 Y6.84 F150.
X47.41 Y6.954
X47.363 Y7.097
X47.276 Y7.219
X47.115 Y7.319
X46.931 Y7.361
X46.743 Y7.343
X46.571 Y7.265
X46.433 Y7.135
X46.344 Y6.968
X46.313 Y6.782
Y6.39
G3 X46.345 Y6.271 I0.269 J0.009 F100.
X46.54 Y6.134 I0.236 J0.129 F150.
X47.396 Y6.717 I0.116 J0.749
X47.413 Y6.84 I-0.739 J0.166 F100.
G1 X47.416 Y6.986 F150.
X47.426 Y7.132
X47.433 Y7.176
X47.443 Y7.288
X47.412 Y7.434
X47.339 Y7.566
X47.177 Y7.686
X46.985 Y7.745
X46.784 Y7.737
X46.597 Y7.662
X46.445 Y7.529
X46.347 Y7.354
X46.313 Y7.155
Y6.782
G3 X46.346 Y6.663 I0.261 J0.009 F100.
X46.534 Y6.533 I0.228 J0.128 F150.
X47.401 Y7.055 I0.12 J0.781
X47.433 Y7.176 I-0.747 J0.259 F100.
G1 X47.447 Y7.277 F150.
X47.487 Y7.423
X47.507 Y7.487
X47.538 Y7.584
X47.531 Y7.734
X47.479 Y7.874
X47.338 Y8.019
X47.16 Y8.113
X46.96 Y8.146
X46.761 Y8.116
X46.58 Y8.026
X46.437 Y7.883
X46.345 Y7.704
X46.313 Y7.504
Y7.155
G3 X46.347 Y7.037 I0.25 J0.009 F100.
X46.546 Y6.914 I0.216 J0.127 F150.
X47.448 Y7.377 I0.068 J0.979
X47.507 Y7.487 I-0.835 J0.516 F100.
G1 X47.541 Y7.569 F150.
X47.61 Y7.715
X47.633 Y7.754
X47.682 Y7.843
X47.704 Y7.992
X47.68 Y8.14
X47.62 Y8.277
X47.534 Y8.4
X47.362 Y8.521
X47.163 Y8.587
X46.954 Y8.594
X46.751 Y8.54
X46.572 Y8.43
X46.432 Y8.273
X46.343 Y8.083
X46.313 Y7.875
Y7.504
G3 X46.341 Y7.384 I0.317 J0.011 F100.
X46.785 Y7.238 I0.289 J0.132 F150.
G1 X47.523 Y7.651
X47.547 Y7.665
G3 X47.633 Y7.754 I-0.179 J0.262 F100.
G1 X47.698 Y7.86 F150.
X47.799 Y7.985
X47.817 Y8.006
X47.886 Y8.087
X47.941 Y8.227
X47.951 Y8.377
X47.928 Y8.525
X47.875 Y8.665
X47.798 Y8.794
X47.7 Y8.908
X47.587 Y9.006
X47.46 Y9.085
X47.436 Y9.096
X47.219 Y9.159
X46.994
X46.777 Y9.096
X46.587 Y8.974
X46.439 Y8.803
X46.345 Y8.597
X46.313 Y8.374
Y7.875
G3 X46.341 Y7.755 I0.317 J0.011 F100.
X46.737 Y7.588 I0.289 J0.132 F150.
G1 X47.7 Y7.933
X47.713 Y7.938
G3 X47.817 Y8.006 I-0.12 J0.294 F100.
G1 X47.944 Y8.142 F150.
X47.955 Y8.152
X48.063 Y8.233
X48.154 Y8.308
X48.234 Y8.435
X48.279 Y8.578
X48.295 Y8.727
X48.285 Y8.877
X48.251 Y9.023
X48.197 Y9.163
X48.122 Y9.293
X48.033 Y9.414
X47.928 Y9.521
X47.811 Y9.615
X47.684 Y9.695
X47.548 Y9.759
X47.407 Y9.808
X47.26 Y9.84
X47.111 Y9.856
X46.905 Y9.83
X46.712 Y9.751
X46.547 Y9.625
X46.42 Y9.461
X46.34 Y9.269
X46.313 Y9.062
Y8.374
G3 X46.341 Y8.253 I0.317 J0.011 F100.
X46.658 Y8.069 I0.289 J0.132 F150.
G1 X47.909 Y8.177
X47.949 Y8.183
G3 X48.063 Y8.233 I-0.068 J0.31 F100.
G1 X48.09 Y8.253 F150.
X48.153 Y8.298
X48.236 Y8.347
X48.352 Y8.406
X48.472 Y8.475
X48.58 Y8.58
X48.66 Y8.706
X48.715 Y8.846
X48.747 Y8.992
X48.757 Y9.142
X48.747 Y9.292
X48.719 Y9.439
X48.675 Y9.582
X48.615 Y9.72
X48.542 Y9.851
X48.457 Y9.974
X48.361 Y10.089
X48.254 Y10.195
X48.139 Y10.291
X48.016 Y10.377
X47.886 Y10.451
X47.749 Y10.514
X47.608 Y10.564
X47.462 Y10.6
X47.314 Y10.623
X47.165 Y10.633
X47.011 Y10.627
X46.79 Y10.567
X46.595 Y10.446
X46.443 Y10.274
X46.346 Y10.066
X46.313 Y9.839
Y9.062
G3 X46.341 Y8.942 I0.317 J0.011 F100.
X46.556 Y8.765 I0.289 J0.132 F150.
G1 X48.144 Y8.385
G3 X48.232 Y8.377 I0.074 J0.309
X48.352 Y8.406 I-0.014 J0.317 F100.
G1 X48.382 Y8.421 F150.
X48.441 Y8.444
X48.527 Y8.474
X48.673 Y8.51
X48.717 Y8.517
X48.841 Y8.545
X48.97 Y8.621
X49.08 Y8.723
X49.171 Y8.843
X49.242 Y8.975
X49.295 Y9.115
X49.33 Y9.261
X49.349 Y9.41
X49.353 Y9.56
X49.342 Y9.709
X49.317 Y9.857
X49.28 Y10.002
X49.23 Y10.147
X49.168 Y10.288
X49.091 Y10.431
X48.999 Y10.574
X48.894 Y10.71
X48.779 Y10.838
X48.65 Y10.96
X48.507 Y11.074
X48.353 Y11.178
X48.191 Y11.269
X48.032 Y11.343
X47.881 Y11.399
X47.71 Y11.447
X47.554 Y11.478
X47.405 Y11.495
X47.242 Y11.5
X47.092 Y11.492
X46.943 Y11.472
X46.933 Y11.47
X46.733 Y11.396
X46.559 Y11.271
X46.426 Y11.104
X46.342 Y10.907
X46.313 Y10.696
Y9.839
G3 X46.341 Y9.719 I0.317 J0.011 F100.
X46.489 Y9.566 I0.289 J0.132 F150.
G1 X48.533 Y8.548
G3 X48.594 Y8.525 I0.142 J0.284
X48.717 Y8.517 I0.081 J0.307 F100.
G1 X48.819 Y8.535 F150.
X49.11 Y8.545
X49.259 Y8.557
X49.402 Y8.603
X49.532 Y8.678
X49.648 Y8.773
X49.75 Y8.883
X49.836 Y9.006
X49.908 Y9.137
X49.966 Y9.275
X50.011 Y9.419
X50.042 Y9.566
X50.061 Y9.717
X50.068 Y9.874
X50.062 Y10.039
X50.041 Y10.213
X50.005 Y10.393
X49.953 Y10.576
X49.885 Y10.759
X49.799 Y10.943
X49.694 Y11.127
X49.57 Y11.309
X49.429 Y11.484
X49.273 Y11.648
X49.101 Y11.802
X48.917 Y11.942
X48.722 Y12.067
X48.518 Y12.176
X48.305 Y12.268
X48.087 Y12.343
X47.887 Y12.394
X47.692 Y12.427
X47.498 Y12.444
X47.332 Y12.446
X47.153 Y12.433
X46.989 Y12.407
X46.923 Y12.392
X46.726 Y12.316
X46.555 Y12.19
X46.424 Y12.024
X46.341 Y11.829
X46.313 Y11.62
Y10.696
G3 X46.341 Y10.575 I0.317 J0.011 F100.
X46.441 Y10.452 I0.289 J0.132 F150.
G1 X48.922 Y8.607
G3 X48.989 Y8.569 I0.189 J0.255
X49.11 Y8.545 I0.123 J0.293 F100.
G1 X49.256 Y8.549 F150.
X49.694
X49.774 Y8.553
X49.922 Y8.578
X50.062 Y8.631
X50.193 Y8.705
X50.312 Y8.796
X50.419 Y8.901
X50.515 Y9.016
X50.598 Y9.141
X50.67 Y9.272
X50.733 Y9.414
X50.786 Y9.565
X50.829 Y9.73
X50.861 Y9.91
X50.879 Y10.102
X50.882 Y10.299
X50.868 Y10.509
X50.835 Y10.731
X50.783 Y10.959
X50.71 Y11.188
X50.616 Y11.418
X50.5 Y11.65
X50.359 Y11.879
X50.197 Y12.104
X50.012 Y12.319
X49.807 Y12.522
X49.583 Y12.712
X49.345 Y12.882
X49.096 Y13.032
X48.838 Y13.16
X48.577 Y13.264
X48.312 Y13.346
X48.047 Y13.405
X47.815 Y13.437
X47.577 Y13.451
X47.378 Y13.447
X47.186 Y13.427
X47.001 Y13.393
X46.84 Y13.35
X46.626 Y13.234
X46.458 Y13.059
X46.35 Y12.842
X46.313 Y12.602
Y11.62
G3 X46.341 Y11.499 I0.317 J0.011 F100.
X46.418 Y11.395 I0.289 J0.132 F150.
G1 X49.492 Y8.63
G3 X49.573 Y8.578 I0.212 J0.236
X49.694 Y8.549 I0.132 J0.289 F100.
G1 X50.357 F150.
X50.437 Y8.553
X50.586 Y8.572
X50.729 Y8.616
X50.865 Y8.681
X50.991 Y8.762
X51.107 Y8.856
X51.214 Y8.961
X51.311 Y9.076
X51.401 Y9.205
X51.485 Y9.345
X51.561 Y9.501
X51.631 Y9.679
X51.688 Y9.87
X51.733 Y10.073
X51.763 Y10.297
X51.775 Y10.537
X51.768 Y10.785
X51.74 Y11.042
X51.689 Y11.313
X51.612 Y11.594
X51.507 Y11.881
X51.377 Y12.166
X51.22 Y12.446
X51.036 Y12.722
X50.823 Y12.99
X50.584 Y13.246
X50.321 Y13.486
X50.038 Y13.706
X49.737 Y13.902
X49.421 Y14.074
X49.101 Y14.217
X48.776 Y14.331
X48.458 Y14.415
X48.148 Y14.47
X47.85 Y14.499
X47.611 Y14.503
X47.368 Y14.488
X47.159 Y14.458
X46.983 Y14.417
X46.868 Y14.381
X46.686 Y14.298
X46.531 Y14.171
X46.412 Y14.009
X46.338 Y13.823
X46.313 Y13.624
Y12.602
G3 X46.341 Y12.482 I0.317 J0.011 F100.
X46.405 Y12.389 I0.289 J0.132 F150.
G1 X50.143 Y8.642
G3 X50.236 Y8.578 I0.225 J0.224
X50.357 Y8.549 I0.132 J0.289 F100.
G1 X51.151 F150.
X51.231 Y8.553
X51.38 Y8.576
X51.523 Y8.622
X51.658 Y8.685
X51.787 Y8.763
X51.906 Y8.854
X52.017 Y8.955
X52.124 Y9.07
X52.227 Y9.2
X52.329 Y9.354
X52.423 Y9.522
X52.508 Y9.709
X52.584 Y9.921
X52.647 Y10.15
X52.692 Y10.392
X52.721 Y10.66
X52.728 Y10.951
X52.712 Y11.25
X52.67 Y11.56
X52.599 Y11.884
X52.496 Y12.22
X52.361 Y12.562
X52.192 Y12.906
X51.991 Y13.243
X51.759 Y13.57
X51.496 Y13.884
X51.2 Y14.184
X50.876 Y14.464
X50.528 Y14.719
X50.159 Y14.946
X49.777 Y15.141
X49.387 Y15.302
X49.001 Y15.426
X48.631 Y15.513
X48.275 Y15.566
X47.936 Y15.59
X47.649 Y15.587
X47.38 Y15.562
X47.168 Y15.526
X46.954 Y15.471
X46.78 Y15.411
X46.604 Y15.334
X46.45 Y15.251
X46.353 Y15.188
X46.218 Y15.06
X46.141 Y14.891
X46.131 Y14.705
X46.191 Y14.529
X46.312 Y14.388
X46.313 Y14.275
Y13.624
G3 X46.341 Y13.504 I0.317 J0.011 F100.
X46.4 Y13.417 I0.289 J0.132 F150.
G1 X50.932 Y8.648
G3 X51.031 Y8.578 I0.23 J0.219
X51.151 Y8.549 I0.132 J0.289 F100.
G1 X51.96 F150.
X52.04 Y8.553
X52.189 Y8.572
X52.334 Y8.612
X52.472 Y8.67
X52.604 Y8.742
X52.728 Y8.826
X52.848 Y8.925
X52.963 Y9.036
X53.083 Y9.171
X53.197 Y9.323
X53.306 Y9.495
X53.412 Y9.698
X53.505 Y9.914
X53.586 Y10.156
X53.653 Y10.428
X53.701 Y10.72
X53.726 Y11.026
X53.727 Y11.359
X53.698 Y11.718
X53.638 Y12.095
X53.545 Y12.476
X53.416 Y12.863
X53.249 Y13.26
X53.041 Y13.659
X52.793 Y14.054
X52.505 Y14.439
X52.18 Y14.809
X51.82 Y15.157
X51.429 Y15.479
X51.011 Y15.77
X50.575 Y16.024
X50.127 Y16.239
X49.675 Y16.413
X49.225 Y16.546
X48.79 Y16.637
X48.376 Y16.69
X48. Y16.707
X47.65 Y16.695
X47.318 Y16.657
X47.011 Y16.596
X46.77 Y16.528
X46.54 Y16.442
X46.36 Y16.359
X46.214 Y16.275
X46.065 Y16.174
X45.939 Y16.073
X45.83 Y15.97
X45.731 Y15.858
X45.641 Y15.738
X45.562 Y15.611
X45.533 Y15.553
X45.461 Y15.335
X45.454 Y15.106
X45.513 Y14.884
X45.633 Y14.689
X45.804 Y14.536
X46.012 Y14.438
X46.238 Y14.404
X46.28 Y14.408 F100.
G2 X46.363 Y14.41 I0.051 J-0.313
X46.547 Y14.327 I-0.032 J-0.316 F150.
G1 X52.059 Y9.207
G2 X51.943 Y8.673 I-0.216 J-0.233
G3 X51.905 Y8.639 I0.02 J-0.06
X51.96 Y8.549 I0.057 J-0.027 F100.
G1 X52.835 F150.
X52.915 Y8.553
X53.064 Y8.57
X53.209 Y8.607
X53.349 Y8.662
X53.483 Y8.73
X53.609 Y8.81
X53.739 Y8.909
X53.863 Y9.02
X53.994 Y9.158
X54.12 Y9.314
X54.244 Y9.494
X54.364 Y9.706
X54.471 Y9.932
X54.568 Y10.191
X54.652 Y10.486
X54.714 Y10.797
X54.754 Y11.136
X54.768 Y11.509
X54.751 Y11.909
X54.699 Y12.327
X54.612 Y12.75
X54.482 Y13.193
X54.308 Y13.651
X54.086 Y14.115
X53.818 Y14.577
X53.504 Y15.031
X53.145 Y15.469
X52.746 Y15.885
X52.309 Y16.271
X51.84 Y16.622
X51.347 Y16.934
X50.836 Y17.202
X50.402 Y17.387
X50.301 Y17.422
X50.197 Y17.444
X50.091 Y17.451
X49.256
X48.819 Y17.465
X48.709 Y17.482
X48.673 Y17.489
X48.527 Y17.527
X48.483 Y17.543
X48.406 Y17.565
X48.144 Y17.622
X47.871 Y17.658
X47.588 Y17.672
X47.295 Y17.664
X47.007 Y17.632
X46.731 Y17.579
X46.465 Y17.505
X46.214 Y17.414
X45.981 Y17.306
X45.763 Y17.184
X45.56 Y17.047
X45.387 Y16.91
X45.233 Y16.766
X45.094 Y16.612
X44.988 Y16.475
X44.887 Y16.321
X44.804 Y16.167
X44.742 Y16.027
X44.688 Y15.872
X44.647 Y15.716
X44.621 Y15.568
X44.607 Y15.419
X44.606 Y15.264
X44.616 Y15.114
X44.623 Y15.073
X44.689 Y14.86
X44.812 Y14.674
X44.982 Y14.529
X45.185 Y14.437
X45.406 Y14.406
X45.51
G3 X45.631 Y14.434 I-0.011 J0.317 F100.
X45.709 Y14.485 I-0.132 J0.289 F150.
G1 X48.578 Y17.008
G3 X48.588 Y17.476 I-0.21 J0.238
X48.483 Y17.543 I-0.219 J-0.229 F100.
G1 X48.382 Y17.578 F150.
X48.236 Y17.65
X48.09 Y17.743
X48.044 Y17.774
X47.994 Y17.812
X47.944 Y17.843
X47.908 Y17.859
X47.871 Y17.87
X47.835 Y17.876
X47.799 Y17.878
X45.904
X45.823 Y17.874
X45.674 Y17.857
X45.526 Y17.827
X45.369 Y17.783
X45.206 Y17.722
X45.042 Y17.645
X44.88 Y17.553
X44.719 Y17.443
X44.564 Y17.318
X44.415 Y17.177
X44.275 Y17.02
X44.147 Y16.852
X44.032 Y16.673
X43.931 Y16.483
X43.845 Y16.285
X43.78 Y16.095
X43.734 Y15.913
X43.7 Y15.718
X43.686 Y15.551
X43.684 Y15.384
X43.697 Y15.211
X43.72 Y15.063
X43.731 Y15.016
X43.807 Y14.819
X43.932 Y14.648
X44.098 Y14.517
X44.293 Y14.434
X44.503 Y14.406
X45.406
G3 X45.527 Y14.434 I-0.011 J0.317 F100.
X45.708 Y14.668 I-0.132 J0.289 F150.
G1 X46.205 Y17.506
G3 X46.024 Y17.85 I-0.313 J0.055
X45.904 Y17.878 I-0.132 J-0.289 F100.
G1 X44.737 F150.
X44.657 Y17.874
X44.508 Y17.862
X44.361 Y17.832
X44.218 Y17.787
X44.08 Y17.728
X43.945 Y17.657
X43.805 Y17.568
X43.669 Y17.465
X43.532 Y17.342
X43.397 Y17.201
X43.27 Y17.044
X43.153 Y16.873
X43.047 Y16.689
X42.955 Y16.493
X42.877 Y16.285
X42.815 Y16.072
X42.777 Y15.881
X42.752 Y15.675
X42.745 Y15.495
X42.752 Y15.327
X42.774 Y15.148
X42.805 Y14.996
X42.81 Y14.978
X42.892 Y14.791
X43.018 Y14.631
X43.181 Y14.509
X43.37 Y14.432
X43.573 Y14.406
X44.503
G3 X44.624 Y14.434 I-0.011 J0.317 F100.
X44.808 Y14.697 I-0.132 J0.289 F150.
G1 X45.043 Y17.535
G3 X44.858 Y17.85 I-0.316 J0.026
X44.737 Y17.878 I-0.132 J-0.289 F100.
G1 X43.637 F150.
X43.557 Y17.874
X43.408 Y17.852
X43.264 Y17.812
X43.124 Y17.756
X42.991 Y17.688
X42.864 Y17.609
X42.73 Y17.51
X42.599 Y17.395
X42.471 Y17.263
X42.347 Y17.113
X42.228 Y16.943
X42.12 Y16.76
X42.026 Y16.564
X41.946 Y16.358
X41.882 Y16.142
X41.836 Y15.928
X41.811 Y15.736
X41.802 Y15.534
X41.807 Y15.364
X41.827 Y15.185
X41.859 Y15.02
X41.869 Y14.986
X41.95 Y14.797
X42.076 Y14.635
X42.24 Y14.51
X42.43 Y14.432
X42.633 Y14.406
X43.573
G3 X43.693 Y14.434 I-0.011 J0.317 F100.
X43.879 Y14.716 I-0.132 J0.289 F150.
G1 X43.943 Y17.554
G3 X43.757 Y17.85 I-0.317 J0.007
X43.637 Y17.878 I-0.132 J-0.289 F100.
G1 X42.697 F150.
X42.617 Y17.874
X42.468 Y17.856
X42.322 Y17.82
X42.182 Y17.767
X42.047 Y17.7
X41.919 Y17.622
X41.792 Y17.529
X41.661 Y17.416
X41.536 Y17.289
X41.412 Y17.141
X41.294 Y16.976
X41.185 Y16.793
X41.09 Y16.599
X41.009 Y16.393
X40.943 Y16.178
X40.895 Y15.961
X40.868 Y15.766
X40.857 Y15.559
X40.861 Y15.386
X40.88 Y15.207
X40.912 Y15.038
X40.925 Y14.991
X41.005 Y14.8
X41.131 Y14.637
X41.295 Y14.512
X41.486 Y14.433
X41.691 Y14.406
X42.633
G3 X42.754 Y14.434 I-0.011 J0.317 F100.
X42.94 Y14.716 I-0.132 J0.289 F150.
G1 X43.003 Y17.554
G3 X42.817 Y17.85 I-0.317 J0.007
X42.697 Y17.878 I-0.132 J-0.289 F100.
G1 X41.742 F150.
X41.662 Y17.874
X41.513 Y17.857
X41.367 Y17.82
X41.227 Y17.767
X41.093 Y17.7
X40.965 Y17.621
X40.841 Y17.53
X40.711 Y17.417
X40.584 Y17.288
X40.463 Y17.143
X40.347 Y16.978
X40.238 Y16.795
X40.143 Y16.6
X40.061 Y16.393
X39.996 Y16.177
X39.949 Y15.962
X39.923 Y15.764
X39.912 Y15.558
X39.917 Y15.385
X39.936 Y15.204
X39.968 Y15.036
X39.981 Y14.989
X40.061 Y14.799
X40.187 Y14.636
X40.351 Y14.511
X40.542 Y14.433
X40.746 Y14.406
X41.691
G3 X41.811 Y14.434 I-0.011 J0.317 F100.
X41.997 Y14.717 I-0.132 J0.289 F150.
G1 X42.048 Y17.555
G3 X41.863 Y17.85 I-0.317 J0.006
X41.742 Y17.878 I-0.132 J-0.289 F100.
G1 X40.802 F150.
X40.722 Y17.874
X40.572 Y17.858
X40.427 Y17.822
X40.286 Y17.77
X40.152 Y17.704
X40.024 Y17.626
X39.899 Y17.535
X39.769 Y17.423
X39.644 Y17.296
X39.522 Y17.151
X39.406 Y16.987
X39.297 Y16.805
X39.201 Y16.61
X39.119 Y16.405
X39.053 Y16.189
X39.005 Y15.972
X38.978 Y15.774
X38.967 Y15.566
X38.971 Y15.392
X38.99 Y15.212
X39.022 Y15.042
X39.035 Y14.992
X39.115 Y14.801
X39.241 Y14.637
X39.405 Y14.512
X39.596 Y14.433
X39.801 Y14.406
X40.746
G3 X40.867 Y14.434 I-0.011 J0.317 F100.
X41.053 Y14.717 I-0.132 J0.289 F150.
G1 X41.108 Y17.555
G3 X40.922 Y17.85 I-0.317 J0.006
X40.802 Y17.878 I-0.132 J-0.289 F100.
G1 X39.847 F150.
X39.767 Y17.874
X39.618 Y17.857
X39.472 Y17.82
X39.332 Y17.767
X39.198 Y17.7
X39.07 Y17.621
X38.947 Y17.53
X38.818 Y17.418
X38.691 Y17.289
X38.57 Y17.144
X38.455 Y16.98
X38.346 Y16.796
X38.251 Y16.601
X38.17 Y16.394
X38.105 Y16.177
X38.058 Y15.962
X38.032 Y15.764
X38.021 Y15.557
X38.026 Y15.384
X38.046 Y15.202
X38.078 Y15.035
X38.091 Y14.988
X38.171 Y14.798
X38.297 Y14.636
X38.461 Y14.511
X38.652 Y14.433
X38.856 Y14.406
X39.801
G3 X39.922 Y14.434 I-0.011 J0.317 F100.
X40.108 Y14.718 I-0.132 J0.289 F150.
G1 X40.153 Y17.556
G3 X39.968 Y17.85 I-0.317 J0.005
X39.847 Y17.878 I-0.132 J-0.289 F100.
G1 X38.907 F150.
X38.827 Y17.874
X38.677 Y17.858
X38.532 Y17.822
X38.391 Y17.769
X38.257 Y17.703
X38.129 Y17.624
X38.005 Y17.533
X37.875 Y17.421
X37.75 Y17.294
X37.629 Y17.149
X37.512 Y16.985
X37.404 Y16.802
X37.308 Y16.607
X37.227 Y16.401
X37.161 Y16.185
X37.114 Y15.968
X37.087 Y15.771
X37.076 Y15.563
X37.081 Y15.389
X37.1 Y15.208
X37.132 Y15.039
X37.145 Y14.99
X37.225 Y14.8
X37.351 Y14.637
X37.515 Y14.511
X37.706 Y14.433
X37.911 Y14.406
X38.856
G3 X38.977 Y14.434 I-0.011 J0.317 F100.
X39.162 Y14.718 I-0.132 J0.289 F150.
G1 X39.213 Y17.555
G3 X39.027 Y17.85 I-0.317 J0.006
X38.907 Y17.878 I-0.132 J-0.289 F100.
G1 X37.952 F150.
X37.872 Y17.874
X37.723 Y17.856
X37.578 Y17.819
X37.437 Y17.766
X37.303 Y17.698
X37.176 Y17.619
X37.053 Y17.528
X36.923 Y17.415
X36.797 Y17.285
X36.677 Y17.14
X36.561 Y16.976
X36.453 Y16.792
X36.358 Y16.596
X36.277 Y16.389
X36.213 Y16.172
X36.167 Y15.957
X36.141 Y15.759
X36.13 Y15.552
X36.136 Y15.379
X36.156 Y15.198
X36.188 Y15.031
X36.201 Y14.987
X36.281 Y14.797
X36.407 Y14.635
X36.571 Y14.511
X36.761 Y14.433
X36.965 Y14.406
X37.911
G3 X38.031 Y14.434 I-0.011 J0.317 F100.
X38.217 Y14.719 I-0.132 J0.289 F150.
G1 X38.258 Y17.556
G3 X38.073 Y17.85 I-0.317 J0.005
X37.952 Y17.878 I-0.132 J-0.289 F100.
G1 X37.012 F150.
X36.932 Y17.874
X36.783 Y17.857
X36.637 Y17.821
X36.497 Y17.768
X36.362 Y17.701
X36.235 Y17.622
X36.111 Y17.531
X35.981 Y17.418
X35.856 Y17.29
X35.735 Y17.145
X35.618 Y16.98
X35.51 Y16.797
X35.415 Y16.602
X35.334 Y16.396
X35.269 Y16.179
X35.222 Y15.962
X35.196 Y15.765
X35.185 Y15.558
X35.19 Y15.384
X35.21 Y15.203
X35.242 Y15.035
X35.255 Y14.988
X35.335 Y14.799
X35.461 Y14.636
X35.625 Y14.511
X35.816 Y14.433
X36.02 Y14.406
X36.965
G3 X37.086 Y14.434 I-0.011 J0.317 F100.
X37.272 Y14.718 I-0.132 J0.289 F150.
G1 X37.318 Y17.556
G3 X37.132 Y17.85 I-0.317 J0.005
X37.012 Y17.878 I-0.132 J-0.289 F100.
G1 X36.057 F150.
X35.977 Y17.874
X35.828 Y17.856
X35.683 Y17.818
X35.543 Y17.764
X35.409 Y17.697
X35.282 Y17.617
X35.158 Y17.525
X35.029 Y17.412
X34.903 Y17.282
X34.782 Y17.136
X34.667 Y16.971
X34.559 Y16.787
X34.465 Y16.59
X34.384 Y16.383
X34.32 Y16.166
X34.275 Y15.951
X34.249 Y15.753
X34.24 Y15.547
X34.245 Y15.375
X34.266 Y15.193
X34.299 Y15.026
X34.31 Y14.985
X34.391 Y14.796
X34.517 Y14.634
X34.681 Y14.51
X34.871 Y14.432
X35.074 Y14.406
X36.02
G3 X36.141 Y14.434 I-0.011 J0.317 F100.
X36.326 Y14.719 I-0.132 J0.289 F150.
G1 X36.363 Y17.557
G3 X36.178 Y17.85 I-0.317 J0.004
X36.057 Y17.878 I-0.132 J-0.289 F100.
G1 X35.117 F150.
X35.037 Y17.874
X34.888 Y17.857
X34.742 Y17.82
X34.602 Y17.766
X34.468 Y17.699
X34.34 Y17.62
X34.216 Y17.528
X34.086 Y17.415
X33.962 Y17.287
X33.84 Y17.14
X33.724 Y16.975
X33.616 Y16.791
X33.522 Y16.596
X33.441 Y16.39
X33.377 Y16.173
X33.33 Y15.956
X33.304 Y15.759
X33.294 Y15.552
X33.3 Y15.379
X33.32 Y15.198
X33.352 Y15.03
X33.364 Y14.987
X33.445 Y14.797
X33.571 Y14.635
X33.735 Y14.511
X33.925 Y14.433
X34.129 Y14.406
X35.074
G3 X35.195 Y14.434 I-0.011 J0.317 F100.
X35.381 Y14.718 I-0.132 J0.289 F150.
G1 X35.423 Y17.556
G3 X35.237 Y17.85 I-0.317 J0.005
X35.117 Y17.878 I-0.132 J-0.289 F100.
G1 X34.162 F150.
X34.082 Y17.874
X33.933 Y17.855
X33.788 Y17.817
X33.648 Y17.763
X33.514 Y17.695
X33.387 Y17.615
X33.264 Y17.523
X33.134 Y17.409
X33.008 Y17.278
X32.888 Y17.132
X32.773 Y16.966
X32.665 Y16.781
X32.571 Y16.585
X32.492 Y16.377
X32.428 Y16.16
X32.383 Y15.945
X32.358 Y15.747
X32.349 Y15.542
X32.355 Y15.37
X32.376 Y15.188
X32.409 Y15.022
X32.42 Y14.983
X32.501 Y14.795
X32.627 Y14.634
X32.79 Y14.51
X32.98 Y14.432
X33.183 Y14.406
X34.129
G3 X34.25 Y14.434 I-0.011 J0.317 F100.
X34.435 Y14.719 I-0.132 J0.289 F150.
G1 X34.468 Y17.557
G3 X34.283 Y17.85 I-0.317 J0.004
X34.162 Y17.878 I-0.132 J-0.289 F100.
G1 X33.222 F150.
X33.142 Y17.874
X32.993 Y17.856
X32.847 Y17.819
X32.707 Y17.765
X32.574 Y17.697
X32.446 Y17.618
X32.322 Y17.525
X32.192 Y17.411
X32.067 Y17.283
X31.946 Y17.136
X31.83 Y16.97
X31.722 Y16.786
X31.628 Y16.59
X31.548 Y16.384
X31.484 Y16.167
X31.438 Y15.95
X31.413 Y15.753
X31.403 Y15.547
X31.409 Y15.374
X31.429 Y15.193
X31.462 Y15.026
X31.474 Y14.985
X31.554 Y14.796
X31.681 Y14.634
X31.844 Y14.51
X32.034 Y14.432
X32.238 Y14.406
X33.183
G3 X33.304 Y14.434 I-0.011 J0.317 F100.
X33.49 Y14.719 I-0.132 J0.289 F150.
G1 X33.528 Y17.556
G3 X33.342 Y17.85 I-0.317 J0.004
X33.222 Y17.878 I-0.132 J-0.289 F100.
G1 X32.267 F150.
X32.187 Y17.874
X32.038 Y17.855
X31.893 Y17.816
X31.753 Y17.761
X31.62 Y17.693
X31.493 Y17.613
X31.369 Y17.52
X31.305 Y17.463
X31.242 Y17.403
X31.117 Y17.273
X30.997 Y17.127
X30.882 Y16.962
X30.775 Y16.778
X30.681 Y16.582
X30.601 Y16.375
X30.537 Y16.158
X30.493 Y15.944
X30.481 Y15.856
X30.475 Y15.749
X30.483 Y15.642
X30.506 Y15.537
G3 X30.566 Y15.429 I0.302 J0.098 F100.
X31.062 Y15.445 I0.241 J0.206 F150.
G1 X32.51 Y17.37
G3 X32.388 Y17.85 I-0.254 J0.191
X32.267 Y17.878 I-0.132 J-0.289 F100.
G1 X31.327 F150.
X31.188 Y17.871
X31.115 Y17.858
X30.915 Y17.793
X30.738 Y17.679
X30.597 Y17.523
X30.5 Y17.336
G3 X30.485 Y17.213 I0.302 J-0.098 F100.
X30.97 Y16.969 I0.317 J0.025 F150.
G1 X31.484 Y17.292
G3 X31.447 Y17.85 I-0.169 J0.269
X31.327 Y17.878 I-0.132 J-0.289 F100.
G1 X30.89 F150.
X30.853 Y17.875
X30.817 Y17.867
X30.78 Y17.855
X30.744 Y17.838
X30.7 Y17.81
X30.678 Y17.793
X30.656 Y17.774
X30.622 Y17.734
X30.598 Y17.695
X30.583 Y17.662
X30.572 Y17.628
X30.54 Y17.482
X30.5 Y17.336
X30.447 Y17.19
X30.386 Y17.045
X30.318 Y16.899
X30.236 Y16.753
X30.177 Y16.607
X30.161 Y16.561
X30.15 Y16.511
X30.147 Y16.462
X30.149 Y16.4
X30.161 Y16.338
X30.168 Y16.316
X30.224 Y16.17
X30.306 Y16.024
X30.376 Y15.878
X30.452 Y15.69
X30.492 Y15.587
X30.533 Y15.441
X30.565 Y15.295
X30.58 Y15.15
X30.588 Y15.07
X30.618 Y14.923
X30.661 Y14.779
X30.692 Y14.699
X30.793 Y14.523
X30.943 Y14.386
X31.126 Y14.3
X31.327 Y14.273
X31.527 Y14.307
X31.707 Y14.4
X31.726 Y14.406
X32.238
G3 X32.358 Y14.434 I-0.011 J0.317 F100.
X32.325 Y15.025 I-0.132 J0.289 F150.
G1 X30.996 Y15.456
G3 X30.603 Y15.271 I-0.098 J-0.302
X30.58 Y15.15 I0.295 J-0.118 F100.
G1 X30.587 Y15.004 F150.
X30.588 Y14.486
X30.595 Y14.346
X30.637 Y14.202
X30.712 Y14.072
X30.811 Y13.959
X30.988 Y13.868
X31.185 Y13.846
X31.378 Y13.896
X31.539 Y14.013
X31.647 Y14.18
X31.688 Y14.375
G3 X31.129 Y14.577 I-0.317 J-0.004
G2 X30.69 Y14.534 I-0.242 J0.206
G3 X30.588 Y14.486 I-0.039 J-0.05
G1 Y13.983
X30.594 Y13.862
X30.644 Y13.721
X30.729 Y13.597
X30.89 Y13.499
X31.073 Y13.457
X31.26 Y13.476
X31.432 Y13.554
X31.569 Y13.683
X31.657 Y13.849
X31.688 Y14.035
G3 X31.681 Y14.086 I-0.275 J-0.01 F100.
X31.66 Y14.156 I-0.54 J-0.122
X30.606 Y14.106 I-0.519 J-0.192 F150.
X30.588 Y13.983 I0.535 J-0.142 F100.
G1 Y13.575 F150.
X30.594 Y13.462
X30.644 Y13.321
X30.795 Y13.181
X30.985 Y13.102
X31.191 Y13.095
X31.386 Y13.161
X31.546 Y13.29
X31.651 Y13.467
X31.688 Y13.67
G3 X31.669 Y13.76 I-0.274 J-0.01 F100.
G1 X31.657 Y13.789
G3 X30.606 Y13.699 I-0.509 J-0.233 F150.
X30.588 Y13.575 I0.542 J-0.143 F100.
G1 Y13.21 F150.
X30.594 Y13.095
X30.644 Y12.953
X30.733 Y12.833
X30.896 Y12.739
X31.08 Y12.702
X31.266 Y12.725
X31.435 Y12.805
X31.571 Y12.935
X31.658 Y13.101
X31.688 Y13.287
Y13.67
G3 X31.656 Y13.789 I-0.271 J-0.009 F100.
X31.46 Y13.928 I-0.239 J-0.129 F150.
X30.602 Y13.334 I-0.119 J-0.744
X30.588 Y13.21 I0.738 J-0.15 F100.
G1 Y12.817 F150.
X30.593 Y12.705
X30.645 Y12.564
X30.736 Y12.444
X30.897 Y12.349
X31.08 Y12.311
X31.266 Y12.332
X31.435 Y12.412
X31.57 Y12.541
X31.658 Y12.707
X31.688 Y12.891
Y13.287
G3 X31.655 Y13.406 I-0.271 J-0.009 F100.
X31.454 Y13.546 I-0.239 J-0.129 F150.
X30.602 Y12.941 I-0.104 J-0.755
X30.588 Y12.817 I0.747 J-0.15 F100.
G1 Y12.445 F150.
X30.594 Y12.328
X30.641 Y12.186
X30.728 Y12.064
X30.889 Y11.965
X31.072 Y11.923
X31.26 Y11.942
X31.431 Y12.02
X31.569 Y12.149
X31.657 Y12.315
X31.688 Y12.501
Y12.891
G3 X31.656 Y13.011 I-0.271 J-0.009 F100.
X31.467 Y13.148 I-0.239 J-0.129 F150.
X30.603 Y12.569 I-0.138 J-0.729
X30.588 Y12.445 I0.727 J-0.15 F100.
G1 Y12.044 F150.
X30.594 Y11.93
X30.643 Y11.788
X30.733 Y11.668
X30.894 Y11.572
X31.077 Y11.532
X31.264 Y11.552
X31.434 Y11.631
X31.57 Y11.76
X31.658 Y11.926
X31.688 Y12.111
Y12.501
G3 X31.656 Y12.62 I-0.271 J-0.009 F100.
X31.461 Y12.759 I-0.239 J-0.129 F150.
X30.602 Y12.168 I-0.122 J-0.741
X30.588 Y12.044 I0.736 J-0.15 F100.
G1 Y11.651 F150.
X30.594 Y11.537
X30.644 Y11.396
X30.734 Y11.276
X30.895 Y11.18
X31.078 Y11.141
X31.264 Y11.161
X31.434 Y11.24
X31.57 Y11.37
X31.658 Y11.535
X31.688 Y11.72
Y12.111
G3 X31.656 Y12.23 I-0.271 J-0.009 F100.
X31.459 Y12.369 I-0.239 J-0.129 F150.
X30.602 Y11.774 I-0.118 J-0.745
X30.588 Y11.651 I0.739 J-0.15 F100.
G1 Y11.243 F150.
X30.593 Y11.134
X30.647 Y10.994
X30.8 Y10.857
X30.991 Y10.782
X31.196 Y10.778
X31.39 Y10.845
X31.548 Y10.975
X31.652 Y11.152
X31.688 Y11.354
Y11.72
G3 X31.655 Y11.839 I-0.271 J-0.009 F100.
X31.45 Y11.98 I-0.238 J-0.129 F150.
X30.602 Y11.367 I-0.093 J-0.763
X30.588 Y11.243 I0.754 J-0.151 F100.
G1 Y10.878 F150.
X30.593 Y10.766
X30.648 Y10.626
X30.739 Y10.507
X30.902 Y10.416
X31.085 Y10.381
X31.27 Y10.406
X31.438 Y10.487
X31.572 Y10.618
X31.658 Y10.783
X31.688 Y10.967
Y11.354
G3 X31.655 Y11.473 I-0.271 J-0.009 F100.
X31.451 Y11.613 I-0.238 J-0.129 F150.
X30.602 Y11.001 I-0.095 J-0.762
X30.588 Y10.878 I0.753 J-0.151 F100.
G1 Y10.514 F150.
X30.594 Y10.397
X30.641 Y10.255
X30.729 Y10.133
X30.89 Y10.035
X31.073 Y9.994
X31.261 Y10.013
X31.432 Y10.092
X31.569 Y10.221
X31.657 Y10.387
X31.688 Y10.573
Y10.967
G3 X31.656 Y11.087 I-0.271 J-0.009 F100.
X31.463 Y11.225 I-0.239 J-0.129 F150.
X30.603 Y10.638 I-0.127 J-0.737
X30.588 Y10.514 I0.733 J-0.15 F100.
G1 Y10.113 F150.
X30.594 Y9.999
X30.644 Y9.858
X30.734 Y9.738
X30.895 Y9.642
X31.078 Y9.603
X31.264 Y9.623
X31.434 Y9.702
X31.57 Y9.832
X31.658 Y9.997
X31.688 Y10.182
Y10.573
G3 X31.656 Y10.692 I-0.271 J-0.009 F100.
X31.459 Y10.831 I-0.239 J-0.129 F150.
X30.602 Y10.236 I-0.118 J-0.745
X30.588 Y10.113 I0.739 J-0.15 F100.
G1 Y9.712 F150.
X30.593 Y9.6
X30.646 Y9.46
X30.798 Y9.322
X30.989 Y9.246
X31.194 Y9.241
X31.388 Y9.307
X31.547 Y9.437
X31.652 Y9.614
X31.688 Y9.816
Y10.182
G3 X31.655 Y10.301 I-0.271 J-0.009 F100.
X31.453 Y10.441 I-0.239 J-0.129 F150.
X30.602 Y9.835 I-0.103 J-0.756
X30.588 Y9.712 I0.748 J-0.15 F100.
G1 Y9.348 F150.
X30.594 Y9.234
X30.646 Y9.094
X30.736 Y8.974
X30.899 Y8.881
X31.082 Y8.845
X31.268 Y8.869
X31.437 Y8.95
X31.571 Y9.08
X31.658 Y9.246
X31.688 Y9.431
Y9.816
G3 X31.655 Y9.935 I-0.271 J-0.009 F100.
X31.455 Y10.075 I-0.239 J-0.129 F150.
X30.602 Y9.472 I-0.107 J-0.753
X30.588 Y9.348 I0.746 J-0.15 F100.
G1 Y8.952 F150.
X30.593 Y8.842
X30.647 Y8.701
X30.799 Y8.564
X30.99 Y8.489
X31.195 Y8.484
X31.389 Y8.551
X31.548 Y8.681
X31.652 Y8.857
X31.688 Y9.059
Y9.431
G3 X31.655 Y9.55 I-0.271 J-0.009 F100.
X31.449 Y9.691 I-0.238 J-0.129 F150.
X30.602 Y9.076 I-0.091 J-0.766
X30.588 Y8.952 I0.756 J-0.151 F100.
G1 Y8.619 F150.
X30.594 Y8.498
X30.639 Y8.355
X30.725 Y8.232
X30.886 Y8.134
X31.071 Y8.093
X31.259 Y8.112
X31.431 Y8.191
X31.568 Y8.321
X31.657 Y8.488
X31.688 Y8.675
Y9.059
G3 X31.656 Y9.179 I-0.271 J-0.009 F100.
X31.47 Y9.316 I-0.239 J-0.129 F150.
X30.603 Y8.743 I-0.146 J-0.723
X30.588 Y8.619 I0.722 J-0.149 F100.
G1 Y8.218 F150.
X30.594 Y8.103
X30.642 Y7.961
X30.732 Y7.84
X30.892 Y7.743
X31.076 Y7.703
X31.263 Y7.723
X31.433 Y7.802
X31.569 Y7.931
X31.657 Y8.097
X31.688 Y8.282
Y8.675
G3 X31.656 Y8.794 I-0.271 J-0.009 F100.
X31.461 Y8.933 I-0.239 J-0.129 F150.
X30.602 Y8.341 I-0.122 J-0.742
X30.588 Y8.218 I0.737 J-0.15 F100.
G1 Y7.816 F150.
X30.593 Y7.704
X30.645 Y7.563
X30.797 Y7.425
X30.987 Y7.347
X31.193 Y7.341
X31.387 Y7.407
X31.547 Y7.536
X31.651 Y7.713
X31.688 Y7.916
Y8.282
G3 X31.656 Y8.401 I-0.271 J-0.009 F100.
X31.456 Y8.541 I-0.239 J-0.129 F150.
X30.602 Y7.94 I-0.11 J-0.751
X30.588 Y7.816 I0.744 J-0.15 F100.
G1 Y7.453 F150.
X30.594 Y7.338
X30.645 Y7.197
X30.734 Y7.076
X30.897 Y6.984
X31.081 Y6.947
X31.267 Y6.97
X31.436 Y7.051
X31.571 Y7.181
X31.658 Y7.347
X31.688 Y7.532
Y7.916
G3 X31.656 Y8.035 I-0.271 J-0.009 F100.
X31.458 Y8.174 I-0.239 J-0.129 F150.
X30.602 Y7.576 I-0.113 J-0.748
X30.588 Y7.453 I0.742 J-0.15 F100.
G1 Y7.057 F150.
X30.593 Y6.946
X30.646 Y6.805
X30.798 Y6.667
X30.989 Y6.591
X31.194 Y6.586
X31.388 Y6.652
X31.547 Y6.782
X31.652 Y6.959
X31.688 Y7.161
Y7.532
G3 X31.655 Y7.651 I-0.271 J-0.009 F100.
X31.451 Y7.791 I-0.238 J-0.129 F150.
X30.602 Y7.18 I-0.096 J-0.761
X30.588 Y7.057 I0.753 J-0.15 F100.
G1 Y6.694 F150.
X30.594 Y6.58
X30.646 Y6.439
X30.735 Y6.319
X30.898 Y6.227
X31.082 Y6.191
X31.268 Y6.214
X31.437 Y6.295
X31.571 Y6.425
X31.658 Y6.591
X31.688 Y6.776
Y7.161
G3 X31.655 Y7.28 I-0.271 J-0.009 F100.
X31.456 Y7.419 I-0.239 J-0.129 F150.
X30.602 Y6.818 I-0.109 J-0.752
X30.588 Y6.694 I0.745 J-0.15 F100.
G1 Y6.322 F150.
X30.594 Y6.206
X30.641 Y6.064
X30.729 Y5.942
X30.89 Y5.844
X31.074 Y5.803
X31.261 Y5.822
X31.432 Y5.901
X31.569 Y6.03
X31.657 Y6.196
X31.688 Y6.382
Y6.776
G3 X31.656 Y6.895 I-0.271 J-0.009 F100.
X31.463 Y7.034 I-0.239 J-0.129 F150.
X30.603 Y6.446 I-0.127 J-0.737
X30.588 Y6.322 I0.733 J-0.15 F100.
G1 Y5.921 F150.
X30.594 Y5.808
X30.644 Y5.667
X30.795 Y5.527
X30.985 Y5.448
X31.191 Y5.441
X31.386 Y5.507
X31.546 Y5.636
X31.651 Y5.813
X31.688 Y6.016
Y6.382
G3 X31.656 Y6.501 I-0.271 J-0.009 F100.
X31.459 Y6.64 I-0.239 J-0.129 F150.
X30.602 Y6.045 I-0.117 J-0.745
X30.588 Y5.921 I0.739 J-0.15 F100.
G1 Y5.557 F150.
X30.594 Y5.442
X30.644 Y5.3
X30.733 Y5.179
X30.895 Y5.086
X31.079 Y5.048
X31.266 Y5.071
X31.435 Y5.151
X31.571 Y5.281
X31.658 Y5.448
X31.688 Y5.633
Y6.016
G3 X31.656 Y6.135 I-0.271 J-0.009 F100.
X31.46 Y6.274 I-0.239 J-0.129 F150.
X30.602 Y5.681 I-0.121 J-0.743
X30.588 Y5.557 I0.737 J-0.15 F100.
G1 Y5.156 F150.
X30.593 Y5.046
X30.646 Y4.905
X30.799 Y4.768
X30.989 Y4.692
X31.194 Y4.687
X31.389 Y4.753
X31.548 Y4.883
X31.652 Y5.06
X31.688 Y5.262
Y5.633
G3 X31.655 Y5.752 I-0.271 J-0.009 F100.
X31.45 Y5.892 I-0.238 J-0.129 F150.
X30.602 Y5.28 I-0.094 J-0.763
X30.588 Y5.156 I0.754 J-0.151 F100.
G1 Y4.799 F150.
X30.594 Y4.684
X30.644 Y4.543
X30.734 Y4.422
X30.896 Y4.329
X31.08 Y4.292
X31.266 Y4.315
X31.436 Y4.396
X31.571 Y4.526
X31.658 Y4.692
X31.688 Y4.877
Y5.262
G3 X31.656 Y5.381 I-0.271 J-0.009 F100.
X31.458 Y5.52 I-0.239 J-0.129 F150.
X30.602 Y4.923 I-0.114 J-0.748
X30.588 Y4.799 I0.741 J-0.15 F100.
G1 Y4.391 F150.
X30.593 Y4.283
X30.648 Y4.143
X30.802 Y4.008
X30.993 Y3.934
X31.197 Y3.93
X31.391 Y3.998
X31.549 Y4.128
X31.652 Y4.305
X31.688 Y4.506
Y4.877
G3 X31.655 Y4.996 I-0.271 J-0.009 F100.
X31.445 Y5.137 I-0.238 J-0.129 F150.
X30.602 Y4.515 I-0.08 J-0.773
X30.588 Y4.391 I0.763 J-0.151 F100.
G1 Y4.026 F150.
X30.593 Y3.915
X30.648 Y3.776
X30.74 Y3.657
X30.903 Y3.567
X31.086 Y3.533
X31.271 Y3.558
X31.439 Y3.639
X31.572 Y3.769
X31.658 Y3.935
X31.688 Y4.119
Y4.506
G3 X31.655 Y4.625 I-0.271 J-0.009 F100.
X31.448 Y4.766 I-0.238 J-0.129 F150.
X30.602 Y4.15 I-0.089 J-0.767
X30.588 Y4.026 I0.757 J-0.151 F100.
G1 Y3.662 F150.
X30.594 Y3.546
X30.642 Y3.404
X30.73 Y3.283
X30.891 Y3.186
X31.075 Y3.145
X31.262 Y3.165
X31.432 Y3.243
X31.569 Y3.372
X31.657 Y3.538
X31.688 Y3.724
Y4.119
G3 X31.656 Y4.238 I-0.271 J-0.009 F100.
X31.461 Y4.377 I-0.239 J-0.129 F150.
X30.603 Y3.786 I-0.123 J-0.741
X30.588 Y3.662 I0.736 J-0.15 F100.
G1 Y3.261 F150.
X30.594 Y3.148
X30.644 Y3.007
X30.796 Y2.868
X30.986 Y2.79
X31.192 Y2.783
X31.387 Y2.849
X31.547 Y2.978
X31.651 Y3.155
X31.688 Y3.358
Y3.724
G3 X31.656 Y3.843 I-0.271 J-0.009 F100.
X31.458 Y3.983 I-0.239 J-0.129 F150.
X30.602 Y3.385 I-0.114 J-0.748
X30.588 Y3.261 I0.741 J-0.15 F100.
G1 Y2.904 F150.
X30.594 Y2.787
X30.643 Y2.645
X30.731 Y2.524
X30.893 Y2.429
X31.077 Y2.39
X31.264 Y2.412
X31.434 Y2.493
X31.57 Y2.623
X31.658 Y2.789
X31.688 Y2.975
Y3.358
G3 X31.656 Y3.477 I-0.271 J-0.009 F100.
X31.463 Y3.615 I-0.239 J-0.129 F150.
X30.603 Y3.028 I-0.127 J-0.738
X30.588 Y2.904 I0.733 J-0.15 F100.
G1 Y2.496 F150.
X30.593 Y2.386
X30.647 Y2.246
X30.799 Y2.109
X30.99 Y2.034
X31.195 Y2.029
X31.389 Y2.096
X31.548 Y2.225
X31.652 Y2.402
X31.688 Y2.604
Y2.975
G3 X31.655 Y3.094 I-0.271 J-0.009 F100.
X31.449 Y3.234 I-0.238 J-0.129 F150.
X30.602 Y2.62 I-0.091 J-0.765
X30.588 Y2.496 I0.756 J-0.151 F100.
G1 Y2.131 F150.
X30.593 Y2.018
X30.647 Y1.878
X30.738 Y1.759
X30.901 Y1.668
X31.084 Y1.632
X31.27 Y1.657
X31.438 Y1.738
X31.572 Y1.868
X31.658 Y2.034
X31.688 Y2.218
Y2.604
G3 X31.655 Y2.723 I-0.271 J-0.009 F100.
X31.452 Y2.864 I-0.239 J-0.129 F150.
X30.602 Y2.255 I-0.099 J-0.759
X30.588 Y2.131 I0.751 J-0.15 F100.
G1 Y1.738 F150.
X30.593 Y1.628
X30.647 Y1.488
X30.799 Y1.351
X30.99 Y1.276
X31.194 Y1.271
X31.388 Y1.337
X31.546 Y1.467
X31.65 Y1.643
X31.687 Y1.844
X31.688 Y2.218
G3 X31.655 Y2.338 I-0.271 J-0.009 F100.
X31.448 Y2.478 I-0.238 J-0.129 F150.
X30.602 Y1.861 I-0.088 J-0.768
X30.588 Y1.738 I0.758 J-0.151 F100.
G1 Y1.3 F150.
X30.593 Y1.206
X30.635 Y1.062
X30.714 Y0.935
X30.822 Y0.83
X30.955 Y0.762
X31.168 Y0.754
X31.371 Y0.821
X31.537 Y0.954
X31.646 Y1.137
X31.685 Y1.347
X31.687 Y1.844
G3 X31.655 Y1.963 I-0.27 J-0.008 F100.
X31.415 Y2.106 I-0.238 J-0.128 F150.
X30.601 Y1.424 I0.007 J-0.834
X30.588 Y1.3 I0.82 J-0.153 F100.
G1 Y1.155 F150.
X30.586 Y1.009
X30.58 Y0.863
X30.559 Y0.717
X30.524 Y0.571
X30.477 Y0.426
X30.452 Y0.364
X30.412 Y0.28
X30.324 Y0.134
X30.306 Y0.107
X30.217 Y-0.012
X30.083 Y-0.157
X30.015 Y-0.215
X29.869 Y-0.327
X29.723 Y-0.408
X29.644 Y-0.449
X29.578 Y-0.474
X29.432 Y-0.525
X29.286 Y-0.559
X29.213 Y-0.573
X29.14 Y-0.576
X28.849 Y-0.586
X28.703 Y-0.588
X18.208
X18.062 Y-0.586
X17.77 Y-0.579
X17.625 Y-0.569
X17.479 Y-0.542
X17.163 Y-0.483
X17.078 Y-0.473
X16.894 Y-0.484
X16.725 Y-0.557
X16.593 Y-0.684
X16.512 Y-0.85
X16.493 Y-1.033
X16.538 Y-1.211
X16.642 Y-1.363
X16.792 Y-1.47
G3 X16.912 Y-1.501 I0.313 J0.95 F100.
X17.522 Y-1.429 I0.193 J0.981 F150.
X17.59 Y-0.597 I-0.199 J0.435
X17.479 Y-0.542 I-0.267 J-0.397 F100.
G1 X17.333 Y-0.497 F150.
X17.212 Y-0.449
X17.187 Y-0.437
X17.042 Y-0.363
X16.993 Y-0.33
X16.925 Y-0.288
X16.783 Y-0.239
X16.599 Y-0.26
X16.432 Y-0.338
X16.299 Y-0.466
X16.214 Y-0.63
X16.185 Y-0.813
X16.217 Y-0.995
X16.305 Y-1.157
X16.44 Y-1.283
G3 X16.503 Y-1.311 I0.143 J0.234 F100.
X16.557 Y-1.325 I0.163 J0.531
X17.085 Y-0.414 I0.11 J0.545 F150.
X16.993 Y-0.33 I-0.419 J-0.366 F100.
G1 X16.896 Y-0.264 F150.
X16.832 Y-0.216
X16.768 Y-0.157
X16.75 Y-0.138
X16.678 Y-0.067
X16.54 Y-0.006
X16.392 Y0.012
X16.209 Y-0.046
X16.054 Y-0.159
X15.943 Y-0.316
X15.889 Y-0.5
X15.896 Y-0.692
X15.965 Y-0.871
X16.087 Y-1.019
G3 X16.198 Y-1.073 I0.171 J0.211 F100.
G1 X16.207 Y-1.075 F150.
G3 X16.82 Y-0.241 I0.108 J0.563
X16.75 Y-0.138 I-0.505 J-0.271 F100.
G1 X16.604 Y0.02 F150.
X16.561 Y0.083
X16.496 Y0.168
X16.374 Y0.255
X16.23 Y0.298
X16.037 Y0.27
X15.863 Y0.181
X15.727 Y0.041
X15.644 Y-0.136
X15.622 Y-0.33
X15.665 Y-0.521
X15.767 Y-0.688
G3 X15.866 Y-0.755 I0.2 J0.186 F100.
G1 X15.87 Y-0.757
G3 X16.616 Y-0.029 I0.208 J0.533 F150.
X16.561 Y0.083 I-0.538 J-0.195 F100.
G1 X16.526 Y0.134 F150.
X16.459 Y0.238
X16.405 Y0.355
X16.357 Y0.446
X16.247 Y0.549
X16.111 Y0.612
X15.922 Y0.615
X15.741 Y0.559
X15.587 Y0.449
X15.475 Y0.297
X15.417 Y0.117
Y-0.073
X15.477 Y-0.252
G3 X15.56 Y-0.343 I0.238 J0.135 F100.
G1 X15.566 Y-0.347 F150.
G3 X16.44 Y0.235 I0.311 J0.48
X16.405 Y0.355 I-0.563 J-0.103 F100.
G1 X16.372 Y0.426 F150.
X16.313 Y0.613
X16.307 Y0.645
X16.284 Y0.735
X16.194 Y0.855
X16.072 Y0.942
X15.881 Y0.98
X15.689 Y0.955
X15.514 Y0.87
X15.375 Y0.733
X15.288 Y0.56
X15.26 Y0.367
X15.295 Y0.176
G3 X15.366 Y0.074 I0.252 J0.101 F100.
G1 X15.403 Y0.047 F150.
G3 X16.314 Y0.52 I0.317 J0.503
X16.307 Y0.645 I-0.594 J0.029 F100.
G1 X16.292 Y0.717 F150.
X16.271 Y0.863
X16.269 Y0.907
X16.259 Y1.011
X16.201 Y1.149
X16.098 Y1.261
X15.926 Y1.336
X15.74 Y1.354
X15.556 Y1.313
X15.395 Y1.218
X15.271 Y1.077
X15.197 Y0.904
X15.181 Y0.717
X15.2 Y0.571
X15.228 Y0.426
X15.264 Y0.28
X15.295 Y0.176
G3 X15.368 Y0.076 I0.235 J0.094 F100.
X15.596 Y0.025 I0.163 J0.194 F150.
X16.261 Y0.783 I-0.233 J0.876
X16.269 Y0.907 I-0.899 J0.118 F100.
G1 X16.265 Y1.009 F150.
X16.263 Y1.155
Y1.235
X16.257 Y1.349
X16.207 Y1.49
X16.118 Y1.611
X15.955 Y1.704
X15.771 Y1.74
X15.586 Y1.717
X15.417 Y1.636
X15.282 Y1.506
X15.196 Y1.34
X15.167 Y1.155
X15.168 Y1.009
X15.171 Y0.863
X15.181 Y0.717
G3 X15.229 Y0.603 I0.265 J0.045 F100.
X15.42 Y0.495 I0.217 J0.159 F150.
X16.248 Y1.111 I0.073 J0.767
X16.263 Y1.235 I-0.755 J0.151 F100.
G1 Y1.636 F150.
X16.257 Y1.746
X16.204 Y1.886
X16.051 Y2.022
X15.86 Y2.097
X15.655 Y2.101
X15.461 Y2.034
X15.303 Y1.903
X15.2 Y1.726
X15.165 Y1.524
X15.167 Y1.155
G3 X15.2 Y1.036 I0.27 J0.012 F100.
X15.406 Y0.898 I0.236 J0.131 F150.
X16.248 Y1.512 I0.088 J0.765
X16.263 Y1.636 I-0.755 J0.151 F100.
G1 Y2. F150.
X16.257 Y2.112
X16.204 Y2.252
X16.113 Y2.372
X15.95 Y2.463
X15.766 Y2.498
X15.58 Y2.473
X15.412 Y2.391
X15.278 Y2.26
X15.192 Y2.094
X15.163 Y1.91
X15.165 Y1.524
G3 X15.198 Y1.405 I0.27 J0.011 F100.
X15.401 Y1.267 I0.237 J0.13 F150.
X16.248 Y1.876 I0.096 J0.76
X16.263 Y2. I-0.751 J0.15 F100.
G1 Y2.365 F150.
X16.257 Y2.482
X16.209 Y2.624
X16.122 Y2.746
X15.961 Y2.844
X15.777 Y2.885
X15.59 Y2.865
X15.419 Y2.787
X15.282 Y2.658
X15.193 Y2.492
X15.163 Y2.306
Y1.91
G3 X15.196 Y1.79 I0.271 J0.01 F100.
X15.389 Y1.653 I0.238 J0.13 F150.
X16.248 Y2.241 I0.126 J0.738
X16.263 Y2.365 I-0.734 J0.15 F100.
G1 Y2.758 F150.
X16.257 Y2.874
X16.209 Y3.016
X16.12 Y3.136
X15.959 Y3.234
X15.776 Y3.275
X15.589 Y3.255
X15.418 Y3.176
X15.281 Y3.047
X15.193 Y2.881
X15.163 Y2.696
Y2.306
G3 X15.195 Y2.187 I0.271 J0.009 F100.
X15.387 Y2.048 I0.239 J0.129 F150.
X16.248 Y2.634 I0.129 J0.736
X16.263 Y2.758 I-0.732 J0.15 F100.
G1 Y3.166 F150.
X16.257 Y3.277
X16.205 Y3.418
X16.052 Y3.555
X15.862 Y3.632
X15.657 Y3.637
X15.462 Y3.571
X15.303 Y3.441
X15.199 Y3.264
X15.163 Y3.062
Y2.696
G3 X15.195 Y2.577 I0.271 J0.009 F100.
X15.397 Y2.437 I0.239 J0.129 F150.
X16.248 Y3.042 I0.104 J0.756
X16.263 Y3.166 I-0.748 J0.15 F100.
G1 Y3.531 F150.
X16.257 Y3.645
X16.204 Y3.785
X16.114 Y3.905
X15.997 Y3.998
X15.864 Y4.067
X15.719 Y4.108
X15.57 Y4.124
X15.405 Y4.085
X15.261 Y3.993
X15.156 Y3.859
X15.101 Y3.698
X15.103 Y3.528
X15.161 Y3.368
G3 X15.232 Y3.266 I0.852 J0.524 F100.
X15.356 Y3.137 I0.78 J0.626 F150.
X16.244 Y3.408 I0.36 J0.413
X16.263 Y3.531 I-0.529 J0.142 F100.
G1 Y3.968 F150.
X16.257 Y4.095
X16.206 Y4.236
X16.123 Y4.361
X16.016 Y4.466
X15.891 Y4.549
X15.752 Y4.606
X15.606 Y4.64
X15.456 Y4.648
X15.307 Y4.632
X15.162 Y4.594
X15.025 Y4.533
X14.898 Y4.453
X14.784 Y4.355
X14.743 Y4.308
X14.642 Y4.135
X14.611 Y3.938
X14.655 Y3.742
X14.767 Y3.577
X14.933 Y3.464
X15.128 Y3.42
G3 X15.249 Y3.431 I0.041 J0.216 F100.
G1 X15.251 Y3.432
X16.123 Y3.771 F150.
G3 X16.224 Y3.852 I-0.08 J0.205
X16.263 Y3.968 I-0.181 J0.125 F100.
G1 Y4.442 F150.
X16.256 Y4.58
X16.211 Y4.722
X16.205 Y4.732
X16.076 Y4.888
X15.903 Y4.994
X15.706 Y5.039
X15.505 Y5.02
X15.32 Y4.937
X15.172 Y4.799
X15.147 Y4.771
X15.022 Y4.653
X15.001 Y4.638
X14.814 Y4.508
X14.709 Y4.453
X14.564 Y4.387
X14.449 Y4.335
X14.337 Y4.236
X14.251 Y4.113
X14.212 Y3.93
X14.235 Y3.744
X14.317 Y3.576
X14.449 Y3.443
X14.616 Y3.36
X14.802 Y3.335
X14.986 Y3.372
G3 X15.088 Y3.442 I-0.123 J0.293 F100.
X15.146 Y3.807 I-0.226 J0.223 F150.
G1 X14.937 Y4.225
G3 X14.687 Y4.398 I-0.284 J-0.142
X14.564 Y4.387 I-0.034 J-0.316 F100.
G1 X14.418 Y4.339 F150.
X14.272 Y4.308
X14.228 Y4.303
X14.13 Y4.288
X14.002 Y4.21
X13.9 Y4.099
X13.84 Y3.92
Y3.731
X13.9 Y3.551
X14.014 Y3.4
X14.17 Y3.293
X14.352 Y3.241
X14.541 Y3.25
G3 X14.651 Y3.306 I-0.064 J0.263 F100.
G1 X14.661 Y3.315 F150.
G3 X14.352 Y4.299 I-0.391 J0.418
X14.228 Y4.303 I-0.083 J-0.566 F100.
G1 X14.126 Y4.292 F150.
X13.936 Y4.286
X13.823 Y4.277
X13.683 Y4.224
X13.566 Y4.13
X13.48 Y3.963
X13.451 Y3.778
X13.481 Y3.593
X13.568 Y3.426
X13.703 Y3.295
X13.871 Y3.213
X14.058 Y3.188
X14.272 Y3.195
X14.485 Y3.238
X14.541 Y3.25
G3 X14.65 Y3.306 I-0.063 J0.255 F100.
X14.74 Y3.517 I-0.172 J0.198 F150.
X14.061 Y4.276 I-0.808 J-0.039
X13.936 Y4.286 I-0.128 J-0.798 F100.
G1 X13.835 Y4.283 F150.
X13.689 Y4.281
X13.573
X13.459 Y4.275
X13.318 Y4.225
X13.197 Y4.135
X13.102 Y3.974
X13.063 Y3.79
X13.085 Y3.604
X13.165 Y3.434
X13.294 Y3.298
X13.46 Y3.211
X13.645 Y3.181
X13.835 Y3.183
X14.058 Y3.188
G3 X14.176 Y3.224 I-0.016 J0.269 F100.
X14.309 Y3.427 I-0.135 J0.233 F150.
X13.696 Y4.266 I-0.763 J0.086
X13.573 Y4.281 I-0.151 J-0.753 F100.
G1 X13.171 F150.
X13.061 Y4.275
X12.92 Y4.222
X12.783 Y4.07
X12.707 Y3.879
X12.702 Y3.674
X12.768 Y3.48
X12.898 Y3.321
X13.075 Y3.217
X13.277 Y3.181
X13.645
G3 X13.764 Y3.213 I-0.009 J0.271 F100.
X13.905 Y3.417 I-0.129 J0.239 F150.
X13.295 Y4.266 I-0.76 J0.098
X13.171 Y4.281 I-0.15 J-0.751 F100.
G1 X12.814 F150.
X12.699 Y4.275
X12.558 Y4.224
X12.437 Y4.135
X12.344 Y3.972
X12.307 Y3.788
X12.33 Y3.602
X12.411 Y3.433
X12.541 Y3.298
X12.707 Y3.211
X12.892 Y3.181
X13.277
G3 X13.396 Y3.213 I-0.009 J0.271 F100.
X13.535 Y3.411 I-0.129 J0.239 F150.
X12.938 Y4.266 I-0.747 J0.115
X12.814 Y4.281 I-0.15 J-0.741 F100.
G1 X12.407 F150.
X12.298 Y4.275
X12.158 Y4.22
X12.023 Y4.067
X11.949 Y3.876
X11.945 Y3.671
X12.013 Y3.478
X12.143 Y3.32
X12.32 Y3.217
X12.521 Y3.181
X12.892
G3 X13.011 Y3.213 I-0.009 J0.271 F100.
X13.152 Y3.423 I-0.129 J0.238 F150.
X12.53 Y4.266 I-0.773 J0.081
X12.407 Y4.281 I-0.151 J-0.762 F100.
G1 X12.041 F150.
X11.93 Y4.275
X11.791 Y4.22
X11.672 Y4.129
X11.582 Y3.965
X11.548 Y3.782
X11.573 Y3.597
X11.654 Y3.43
X11.784 Y3.296
X11.95 Y3.21
X12.134 Y3.181
X12.521
G3 X12.64 Y3.213 I-0.009 J0.271 F100.
X12.781 Y3.42 I-0.129 J0.238 F150.
X12.165 Y4.266 I-0.766 J0.09
X12.041 Y4.281 I-0.151 J-0.757 F100.
G1 X11.678 F150.
X11.562 Y4.275
X11.42 Y4.226
X11.298 Y4.138
X11.201 Y3.977
X11.16 Y3.794
X11.18 Y3.607
X11.258 Y3.436
X11.387 Y3.299
X11.554 Y3.211
X11.739 Y3.181
X12.134
G3 X12.253 Y3.213 I-0.009 J0.271 F100.
X12.392 Y3.407 I-0.129 J0.239 F150.
X11.801 Y4.266 I-0.741 J0.123
X11.678 Y4.281 I-0.15 J-0.736 F100.
G1 X11.277 F150.
X11.163 Y4.275
X11.022 Y4.224
X10.883 Y4.073
X10.805 Y3.883
X10.798 Y3.677
X10.864 Y3.482
X10.993 Y3.322
X11.17 Y3.217
X11.373 Y3.181
X11.739
G3 X11.858 Y3.213 I-0.009 J0.271 F100.
X11.998 Y3.411 I-0.129 J0.239 F150.
X11.4 Y4.266 I-0.748 J0.114
X11.277 Y4.281 I-0.15 J-0.741 F100.
G1 X10.919 F150.
X10.802 Y4.275
X10.66 Y4.226
X10.539 Y4.138
X10.444 Y3.975
X10.406 Y3.791
X10.428 Y3.605
X10.508 Y3.434
X10.638 Y3.299
X10.804 Y3.211
X10.99 Y3.181
X11.373
G3 X11.492 Y3.213 I-0.009 J0.271 F100.
X11.63 Y3.405 I-0.129 J0.239 F150.
X11.043 Y4.266 I-0.737 J0.127
X10.919 Y4.281 I-0.15 J-0.733 F100.
G1 X10.512 F150.
X10.401 Y4.275
X10.261 Y4.222
X10.124 Y4.069
X10.049 Y3.878
X10.044 Y3.673
X10.111 Y3.479
X10.241 Y3.321
X10.418 Y3.217
X10.619 Y3.181
X10.99
G3 X11.109 Y3.213 I-0.009 J0.271 F100.
X11.25 Y3.419 I-0.129 J0.238 F150.
X10.635 Y4.266 I-0.765 J0.092
X10.512 Y4.281 I-0.151 J-0.755 F100.
G1 X10.146 F150.
X10.034 Y4.275
X9.894 Y4.222
X9.774 Y4.131
X9.683 Y3.968
X9.648 Y3.784
X9.672 Y3.599
X9.753 Y3.431
X9.884 Y3.297
X10.049 Y3.21
X10.234 Y3.181
X10.619
G3 X10.739 Y3.213 I-0.009 J0.271 F100.
X10.879 Y3.416 I-0.129 J0.239 F150.
X10.27 Y4.266 I-0.759 J0.099
X10.146 Y4.281 I-0.15 J-0.751 F100.
G1 X9.753 F150.
X9.643 Y4.275
X9.503 Y4.221
X9.366 Y4.069
X9.291 Y3.878
X9.286 Y3.673
X9.353 Y3.479
X9.483 Y3.321
X9.66 Y3.217
X9.862 Y3.181
X10.234
G3 X10.353 Y3.213 I-0.009 J0.271 F100.
X10.493 Y3.42 I-0.129 J0.238 F150.
X9.877 Y4.266 I-0.767 J0.088
X9.753 Y4.281 I-0.151 J-0.757 F100.
G1 X9.418 F150.
X9.298 Y4.275
X9.155 Y4.229
X9.032 Y4.142
X8.935 Y3.981
X8.894 Y3.796
X8.915 Y3.608
X8.994 Y3.437
X9.124 Y3.3
X9.291 Y3.211
X9.477 Y3.181
X9.862
G3 X9.981 Y3.213 I-0.009 J0.271 F100.
X10.119 Y3.4 I-0.129 J0.239 F150.
X9.541 Y4.266 I-0.727 J0.141
X9.418 Y4.281 I-0.149 J-0.725 F100.
G1 X9.024 F150.
X8.908 Y4.275
X8.766 Y4.227
X8.645 Y4.139
X8.547 Y3.978
X8.506 Y3.794
X8.525 Y3.607
X8.604 Y3.436
X8.733 Y3.3
X8.899 Y3.211
X9.085 Y3.181
X9.477
G3 X9.597 Y3.213 I-0.009 J0.271 F100.
X9.735 Y3.405 I-0.129 J0.239 F150.
X9.148 Y4.266 I-0.737 J0.128
X9.024 Y4.281 I-0.15 J-0.733 F100.
G1 X8.617 F150.
X8.505 Y4.275
X8.364 Y4.223
X8.226 Y4.071
X8.149 Y3.88
X8.144 Y3.675
X8.21 Y3.481
X8.339 Y3.321
X8.516 Y3.217
X8.718 Y3.181
X9.085
G3 X9.204 Y3.213 I-0.009 J0.271 F100.
X9.344 Y3.414 I-0.129 J0.239 F150.
X8.74 Y4.266 I-0.753 J0.107
X8.617 Y4.281 I-0.15 J-0.746 F100.
G1 X8.251 F150.
X8.138 Y4.275
X7.997 Y4.223
X7.877 Y4.133
X7.785 Y3.97
X7.749 Y3.786
X7.772 Y3.601
X7.853 Y3.432
X7.983 Y3.297
X8.149 Y3.211
X8.334 Y3.181
X8.718
G3 X8.838 Y3.213 I-0.009 J0.271 F100.
X8.977 Y3.413 I-0.129 J0.239 F150.
X8.375 Y4.266 I-0.752 J0.108
X8.251 Y4.281 I-0.15 J-0.745 F100.
G1 X7.858 F150.
X7.747 Y4.275
X7.607 Y4.222
X7.469 Y4.07
X7.393 Y3.88
X7.387 Y3.674
X7.454 Y3.48
X7.583 Y3.321
X7.76 Y3.217
X7.962 Y3.181
X8.334
G3 X8.453 Y3.213 I-0.009 J0.271 F100.
X8.594 Y3.418 I-0.129 J0.238 F150.
X7.982 Y4.266 I-0.762 J0.095
X7.858 Y4.281 I-0.151 J-0.753 F100.
G1 X7.523 F150.
X7.402 Y4.275
X7.259 Y4.23
X7.136 Y4.144
X7.038 Y3.982
X6.996 Y3.798
X7.016 Y3.61
X7.095 Y3.438
X7.225 Y3.3
X7.392 Y3.211
X7.579 Y3.181
X7.962
G3 X8.082 Y3.213 I-0.009 J0.271 F100.
X8.219 Y3.398 I-0.129 J0.239 F150.
X7.646 Y4.266 I-0.722 J0.147
X7.523 Y4.281 I-0.149 J-0.721 F100.
G1 X7.129 F150.
X7.012 Y4.275
X6.87 Y4.228
X6.748 Y4.14
X6.65 Y3.979
X6.608 Y3.796
X6.627 Y3.608
X6.705 Y3.437
X6.834 Y3.3
X7.001 Y3.211
X7.187 Y3.181
X7.579
G3 X7.698 Y3.213 I-0.009 J0.271 F100.
X7.836 Y3.403 I-0.129 J0.239 F150.
X7.253 Y4.266 I-0.733 J0.133
X7.129 Y4.281 I-0.15 J-0.73 F100.
G1 X6.722 F150.
X6.609 Y4.275
X6.468 Y4.224
X6.33 Y4.072
X6.252 Y3.881
X6.246 Y3.676
X6.312 Y3.481
X6.441 Y3.322
X6.618 Y3.217
X6.821 Y3.181
X7.187
G3 X7.306 Y3.213 I-0.009 J0.271 F100.
X7.445 Y3.412 I-0.129 J0.239 F150.
X6.845 Y4.266 I-0.75 J0.111
X6.722 Y4.281 I-0.15 J-0.743 F100.
G1 X6.356 F150.
X6.242 Y4.275
X6.101 Y4.223
X5.981 Y4.134
X5.888 Y3.971
X5.852 Y3.787
X5.875 Y3.601
X5.956 Y3.432
X6.086 Y3.297
X6.252 Y3.211
X6.437 Y3.181
X6.821
G3 X6.94 Y3.213 I-0.009 J0.271 F100.
X7.079 Y3.412 I-0.129 J0.239 F150.
X6.48 Y4.266 I-0.749 J0.112
X6.356 Y4.281 I-0.15 J-0.743 F100.
G1 X5.963 F150.
X5.852 Y4.275
X5.711 Y4.223
X5.573 Y4.071
X5.496 Y3.88
X5.491 Y3.675
X5.557 Y3.481
X5.686 Y3.321
X5.863 Y3.217
X6.065 Y3.181
X6.437
G3 X6.556 Y3.213 I-0.009 J0.271 F100.
X6.696 Y3.417 I-0.129 J0.239 F150.
X6.087 Y4.266 I-0.76 J0.098
X5.963 Y4.281 I-0.15 J-0.751 F100.
G1 X5.628 F150.
X5.506 Y4.275
X5.363 Y4.23
X5.24 Y4.145
X5.141 Y3.983
X5.1 Y3.798
X5.119 Y3.61
X5.198 Y3.438
X5.328 Y3.3
X5.495 Y3.211
X5.682 Y3.181
X6.065
G3 X6.185 Y3.213 I-0.009 J0.271 F100.
X6.321 Y3.397 I-0.129 J0.239 F150.
X5.751 Y4.266 I-0.719 J0.15
X5.628 Y4.281 I-0.149 J-0.72 F100.
G1 X5.19 F150.
X5.084 Y4.275
X4.945 Y4.219
X4.811 Y4.065
X4.738 Y3.874
X4.736 Y3.669
X4.804 Y3.477
X4.935 Y3.319
X5.111 Y3.216
X5.312 Y3.181
X5.682
G3 X5.801 Y3.213 I-0.009 J0.271 F100.
X5.942 Y3.426 I-0.129 J0.238 F150.
X5.314 Y4.266 I-0.779 J0.072
X5.19 Y4.281 I-0.151 J-0.768 F100.
G1 X4.863 F150.
X4.744 Y4.275
X4.601 Y4.228
X4.479 Y4.141
X4.382 Y3.979
X4.342 Y3.795
X4.363 Y3.607
X4.443 Y3.436
X4.572 Y3.299
X4.739 Y3.211
X4.925 Y3.181
X5.312
G3 X5.432 Y3.213 I-0.009 J0.271 F100.
X5.57 Y3.403 I-0.129 J0.239 F150.
X4.986 Y4.266 I-0.733 J0.133
X4.863 Y4.281 I-0.15 J-0.73 F100.
G1 X4.462 F150.
X4.348 Y4.275
X4.207 Y4.225
X4.087 Y4.135
X3.991 Y3.973
X3.952 Y3.79
X3.973 Y3.604
X4.052 Y3.434
X4.181 Y3.298
X4.347 Y3.211
X4.532 Y3.181
X4.925
G3 X5.045 Y3.213 I-0.009 J0.271 F100.
X5.184 Y3.411 I-0.129 J0.239 F150.
X4.585 Y4.266 I-0.749 J0.112
X4.462 Y4.281 I-0.15 J-0.742 F100.
G1 X4.068 F150.
X3.955 Y4.275
X3.814 Y4.224
X3.675 Y4.073
X3.597 Y3.882
X3.59 Y3.677
X3.656 Y3.482
X3.785 Y3.322
X3.962 Y3.217
X4.165 Y3.181
X4.532
G3 X4.651 Y3.213 I-0.009 J0.271 F100.
X4.79 Y3.411 I-0.129 J0.239 F150.
X4.192 Y4.266 I-0.748 J0.113
X4.068 Y4.281 I-0.15 J-0.742 F100.
G1 X3.702 F150.
X3.587 Y4.275
X3.446 Y4.223
X3.326 Y4.134
X3.233 Y3.971
X3.196 Y3.787
X3.219 Y3.602
X3.3 Y3.432
X3.43 Y3.298
X3.596 Y3.211
X3.781 Y3.181
X4.165
G3 X4.284 Y3.213 I-0.009 J0.271 F100.
X4.423 Y3.411 I-0.129 J0.239 F150.
X3.826 Y4.266 I-0.748 J0.114
X3.702 Y4.281 I-0.15 J-0.741 F100.
G1 X3.295 F150.
X3.187 Y4.275
X3.047 Y4.22
X2.912 Y4.067
X2.838 Y3.876
X2.834 Y3.671
X2.902 Y3.478
X3.032 Y3.32
X3.209 Y3.217
X3.41 Y3.181
X3.781
G3 X3.901 Y3.213 I-0.009 J0.271 F100.
X4.041 Y3.423 I-0.129 J0.238 F150.
X3.419 Y4.266 I-0.773 J0.08
X3.295 Y4.281 I-0.151 J-0.763 F100.
G1 X2.968 F150.
X2.847 Y4.275
X2.704 Y4.23
X2.581 Y4.144
X2.483 Y3.982
X2.442 Y3.797
X2.462 Y3.609
X2.541 Y3.438
X2.671 Y3.3
X2.838 Y3.211
X3.025 Y3.181
X3.41
G3 X3.529 Y3.213 I-0.009 J0.271 F100.
X3.667 Y3.399 I-0.129 J0.239 F150.
X3.091 Y4.266 I-0.725 J0.143
X2.968 Y4.281 I-0.149 J-0.724 F100.
G1 X2.567 F150.
X2.452 Y4.275
X2.31 Y4.226
X2.189 Y4.137
X2.093 Y3.976
X2.052 Y3.792
X2.073 Y3.606
X2.151 Y3.435
X2.281 Y3.299
X2.446 Y3.211
X2.632 Y3.181
X3.025
G3 X3.144 Y3.213 I-0.009 J0.271 F100.
X3.283 Y3.408 I-0.129 J0.239 F150.
X2.69 Y4.266 I-0.743 J0.121
X2.567 Y4.281 I-0.15 J-0.737 F100.
G1 X2.173 F150.
X2.059 Y4.275
X1.918 Y4.225
X1.798 Y4.135
X1.701 Y3.974
X1.661 Y3.791
X1.682 Y3.605
X1.761 Y3.435
X1.89 Y3.299
X2.056 Y3.211
X2.241 Y3.181
X2.632
G3 X2.751 Y3.213 I-0.009 J0.271 F100.
X2.89 Y3.408 I-0.129 J0.239 F150.
X2.297 Y4.266 I-0.743 J0.12
X2.173 Y4.281 I-0.15 J-0.737 F100.
G1 X1.766 F150.
X1.656 Y4.275
X1.516 Y4.221
X1.379 Y4.069
X1.304 Y3.878
X1.299 Y3.674
X1.366 Y3.48
X1.495 Y3.321
X1.672 Y3.217
X1.873 Y3.181
X2.241
G3 X2.36 Y3.213 I-0.009 J0.271 F100.
X2.5 Y3.418 I-0.129 J0.238 F150.
X1.889 Y4.266 I-0.761 J0.096
X1.766 Y4.281 I-0.15 J-0.753 F100.
G1 X1.328 F150.
X1.234 Y4.276
X1.09 Y4.233
X0.963 Y4.154
X0.87 Y3.987
X0.835 Y3.799
X0.86 Y3.61
X0.943 Y3.438
X1.076 Y3.301
X1.246 Y3.213
X1.434 Y3.182
X1.873 Y3.181
G3 X1.993 Y3.213 I-0.009 J0.27 F100.
X2.135 Y3.454 I-0.128 J0.238 F150.
X1.452 Y4.267 I-0.836 J-0.008
X1.328 Y4.281 I-0.153 J-0.822 F100.
G1 X1.153 F150.
X1.007 Y4.283
X0.861 Y4.289
X0.716 Y4.309
X0.57 Y4.344
X0.505 Y4.362
X0.424 Y4.393
X0.278 Y4.455
X0.133 Y4.54
X-0.018 Y4.653
X-0.088 Y4.714
X-0.168 Y4.799
X-0.288 Y4.945
X-0.382 Y5.091
X-0.454 Y5.236
X-0.508 Y5.382
X-0.548 Y5.528
X-0.574 Y5.674
X-0.583 Y5.82
X-0.587 Y5.965
Y21.855
X-0.578 Y22.001
X-0.559 Y22.147
X-0.53 Y22.293
X-0.498 Y22.45
X-0.415 Y23.087
X-0.367 Y23.727
X-0.339 Y24.369
X-0.322 Y25.039
X-0.331 Y25.168
X-0.36 Y25.294
X-0.41 Y25.413
X-0.454 Y25.5
X-0.509 Y25.646
X-0.55 Y25.792
X-0.572 Y25.937
X-0.584 Y26.083
X-0.587 Y26.229
Y41.827
X-0.586 Y42.119
X-0.579 Y42.265
X-0.561 Y42.411
X-0.529 Y42.556
X-0.511 Y42.635
X-0.499 Y42.724
X-0.507 Y42.92
X-0.585 Y43.1
X-0.722 Y43.241
X-0.9 Y43.324
X-1.096 Y43.338
X-1.284 Y43.281
X-1.44 Y43.161
X-1.543 Y42.994
G3 X-1.566 Y42.871 I0.968 J-0.252 F100.
X-1.574 Y42.772 I0.992 J-0.13 F150.
X-0.587 Y42.447 I0.542 J-0.016
X-0.529 Y42.556 I-0.445 J0.309 F100.
G1 X-0.477 Y42.702 F150.
X-0.45 Y42.771
X-0.412 Y42.848
X-0.371 Y42.923
X-0.335 Y42.995
X-0.303 Y43.141
Y43.16
X-0.332 Y43.34
X-0.419 Y43.501
X-0.553 Y43.626
X-0.72 Y43.7
X-0.902 Y43.717
X-1.08 Y43.673
X-1.234 Y43.574
X-1.347 Y43.431
G3 X-1.379 Y43.311 I0.286 J-0.139 F100.
X-1.202 Y43.008 I0.317 J-0.019 F150.
G1 X-0.783 Y42.802
G3 X-0.454 Y42.831 I0.14 J0.285
